assets/luts/autumn.cube
# Beauty Camera 3D LUT
# Filter: Autumn (autumn)
# Category: Warm
TITLE "Autumn"
LUT_3D_SIZE 8
DOMAIN_MIN 0.000000 0.000000 0.000000
DOMAIN_MAX 0.903226 0.903226 0.903226
0.000000 0.000000 0.000000
0.140456 0.000000 0.000000
0.296705 0.000000 0.000000
0.447472 0.000000 0.000000
0.594680 0.000000 0.000000
0.751159 0.000000 0.000000
0.873758 0.000000 0.000000
0.935430 0.000000 0.000000
0.000000 0.091186 0.000000
0.140456 0.091186 0.000000
0.296705 0.091186 0.000000
0.447472 0.091186 0.000000
0.594680 0.091186 0.000000
0.751159 0.091186 0.000000
0.873758 0.091186 0.000000
0.935430 0.091186 0.000000
0.000000 0.231395 0.000000
0.140456 0.231395 0.000000
0.296705 0.231395 0.000000
0.447472 0.231395 0.000000
0.594680 0.231395 0.000000
0.751159 0.231395 0.000000
0.873758 0.231395 0.000000
0.935430 0.231395 0.000000
0.000000 0.371605 0.000000
0.140456 0.371605 0.000000
0.296705 0.371605 0.000000
0.447472 0.371605 0.000000
0.594680 0.371605 0.000000
0.751159 0.371605 0.000000
0.873758 0.371605 0.000000
0.935430 0.371605 0.000000
0.000000 0.511814 0.000000
0.140456 0.511814 0.000000
0.296705 0.511814 0.000000
0.447472 0.511814 0.000000
0.594680 0.511814 0.000000
0.751159 0.511814 0.000000
0.873758 0.511814 0.000000
0.935430 0.511814 0.000000
0.000000 0.652024 0.000000
0.140456 0.652024 0.000000
0.296705 0.652024 0.000000
0.447472 0.652024 0.000000
0.594680 0.652024 0.000000
0.751159 0.652024 0.000000
0.873758 0.652024 0.000000
0.935430 0.652024 0.000000
0.000000 0.806636 0.000000
0.140456 0.806636 0.000000
0.296705 0.806636 0.000000
0.447472 0.806636 0.000000
0.594680 0.806636 0.000000
0.751159 0.806636 0.000000
0.873758 0.806636 0.000000
0.935430 0.806636 0.000000
0.000000 0.900822 0.000000
0.140456 0.900822 0.000000
0.296705 0.900822 0.000000
0.447472 0.900822 0.000000
0.594680 0.900822 0.000000
0.751159 0.900822 0.000000
0.873758 0.900822 0.000000
0.935430 0.900822 0.000000
0.000000 0.000000 0.041295
0.140456 0.000000 0.041295
0.296705 0.000000 0.041295
0.447472 0.000000 0.041295
0.594680 0.000000 0.041295
0.751159 0.000000 0.041295
0.873758 0.000000 0.041295
0.935430 0.000000 0.041295
0.000000 0.091186 0.041295
0.140456 0.091186 0.041295
0.296705 0.091186 0.041295
0.447472 0.091186 0.041295
0.594680 0.091186 0.041295
0.751159 0.091186 0.041295
0.873758 0.091186 0.041295
0.935430 0.091186 0.041295
0.000000 0.231395 0.041295
0.140456 0.231395 0.041295
0.296705 0.231395 0.041295
0.447472 0.196343 0.000000
0.594680 0.161290 0.000000
0.751159 0.231395 0.041295
0.873758 0.231395 0.041295
0.935430 0.231395 0.041295
0.000000 0.371605 0.041295
0.140456 0.371605 0.041295
0.296705 0.371605 0.041295
0.447472 0.371605 0.041295
0.594680 0.336552 0.000000
0.751159 0.301500 0.000000
0.873758 0.287479 0.000000
0.935430 0.278132 0.000000
0.000000 0.511814 0.041295
0.140456 0.511814 0.041295
0.296705 0.511814 0.041295
0.447472 0.511814 0.041295
0.594680 0.511814 0.041295
0.751159 0.476762 0.000000
0.873758 0.455730 0.000000
0.935430 0.441709 0.000000
0.000000 0.652024 0.041295
0.140456 0.652024 0.041295
0.296705 0.652024 0.041295
0.447472 0.652024 0.041295
0.594680 0.652024 0.041295
0.751159 0.652024 0.041295
0.873758 0.623982 0.000000
0.935430 0.605287 0.000000
0.000000 0.806636 0.041295
0.140456 0.806636 0.041295
0.296705 0.806636 0.041295
0.447472 0.806636 0.041295
0.594680 0.806636 0.041295
0.751159 0.806636 0.041295
0.873758 0.806636 0.041295
0.935430 0.783876 0.000000
0.000000 0.900822 0.041295
0.140456 0.900822 0.041295
0.296705 0.900822 0.041295
0.447472 0.900822 0.041295
0.594680 0.900822 0.041295
0.751159 0.900822 0.041295
0.873758 0.900822 0.041295
0.935430 0.900822 0.041295
0.000000 0.000000 0.158809
0.140456 0.000000 0.158809
0.296705 0.000000 0.158809
0.447472 0.000000 0.158809
0.594680 0.000000 0.158809
0.751159 0.000000 0.158809
0.873758 0.000000 0.158809
0.935430 0.000000 0.158809
0.000000 0.091186 0.158809
0.140456 0.091186 0.158809
0.296705 0.091186 0.158809
0.447472 0.091186 0.158809
0.594680 0.091186 0.158809
0.751159 0.091186 0.158809
0.873758 0.091186 0.158809
0.935430 0.091186 0.158809
0.000000 0.231395 0.158809
0.140456 0.231395 0.158809
0.296705 0.231395 0.158809
0.447472 0.231395 0.158809
0.594680 0.231395 0.158809
0.751159 0.231395 0.158809
0.873758 0.231395 0.158809
0.935430 0.231395 0.158809
0.000000 0.371605 0.158809
0.140456 0.371605 0.158809
0.296705 0.371605 0.158809
0.447472 0.371605 0.158809
0.594680 0.336552 0.098944
0.751159 0.301500 0.069797
0.873758 0.371605 0.158809
0.935430 0.371605 0.158809
0.000000 0.511814 0.158809
0.140456 0.511814 0.158809
0.296705 0.511814 0.158809
0.447472 0.511814 0.158809
0.594680 0.511814 0.158809
0.751159 0.476762 0.069797
0.873758 0.441709 0.041295
0.935430 0.406657 0.013581
0.000000 0.652024 0.158809
0.140456 0.652024 0.158809
0.296705 0.652024 0.158809
0.447472 0.652024 0.158809
0.594680 0.652024 0.158809
0.751159 0.652024 0.158809
0.873758 0.616971 0.041295
0.935430 0.581919 0.013581
0.000000 0.806636 0.158809
0.140456 0.806636 0.158809
0.296705 0.806636 0.158809
0.447472 0.806636 0.158809
0.594680 0.806636 0.158809
0.751159 0.806636 0.158809
0.873758 0.806636 0.158809
0.935430 0.771510 0.013581
0.000000 0.900822 0.158809
0.140456 0.900822 0.158809
0.296705 0.900822 0.158809
0.447472 0.900822 0.158809
0.594680 0.900822 0.158809
0.751159 0.900822 0.158809
0.873758 0.900822 0.158809
0.935430 0.900822 0.158809
0.000000 0.000000 0.283338
0.140456 0.000000 0.283338
0.296705 0.000000 0.283338
0.447472 0.000000 0.283338
0.594680 0.000000 0.283338
0.751159 0.000000 0.283338
0.873758 0.000000 0.283338
0.935430 0.000000 0.283338
0.000000 0.091186 0.283338
0.140456 0.091186 0.283338
0.296705 0.091186 0.283338
0.447472 0.091186 0.283338
0.594680 0.091186 0.283338
0.751159 0.091186 0.283338
0.873758 0.091186 0.283338
0.935430 0.091186 0.283338
0.000000 0.231395 0.283338
0.140456 0.231395 0.283338
0.296705 0.231395 0.283338
0.447472 0.231395 0.283338
0.594680 0.231395 0.283338
0.751159 0.231395 0.283338
0.873758 0.231395 0.283338
0.935430 0.231395 0.283338
0.000000 0.371605 0.283338
0.140456 0.371605 0.283338
0.296705 0.371605 0.283338
0.447472 0.371605 0.283338
0.594680 0.371605 0.283338
0.751159 0.371605 0.283338
0.873758 0.371605 0.283338
0.935430 0.371605 0.283338
0.000000 0.511814 0.283338
0.140456 0.511814 0.283338
0.296705 0.511814 0.283338
0.447472 0.511814 0.283338
0.594680 0.511814 0.283338
0.751159 0.476762 0.220378
0.873758 0.441709 0.189403
0.935430 0.511814 0.283338
0.000000 0.652024 0.283338
0.140456 0.652024 0.283338
0.296705 0.652024 0.283338
0.447472 0.652024 0.283338
0.594680 0.652024 0.283338
0.751159 0.652024 0.283338
0.873758 0.616971 0.189403
0.935430 0.581919 0.158809
0.000000 0.806636 0.283338
0.140456 0.806636 0.283338
0.296705 0.806636 0.283338
0.447472 0.806636 0.283338
0.594680 0.806636 0.283338
0.751159 0.806636 0.283338
0.873758 0.806636 0.283338
0.935430 0.771510 0.158809
0.000000 0.900822 0.283338
0.140456 0.900822 0.283338
0.296705 0.900822 0.283338
0.447472 0.900822 0.283338
0.594680 0.900822 0.283338
0.751159 0.900822 0.283338
0.873758 0.900822 0.283338
0.935430 0.900822 0.283338
0.000000 0.000000 0.412654
0.140456 0.000000 0.412654
0.296705 0.000000 0.412654
0.447472 0.000000 0.412654
0.594680 0.000000 0.412654
0.751159 0.000000 0.412654
0.873758 0.000000 0.412654
0.935430 0.000000 0.412654
0.000000 0.091186 0.412654
0.140456 0.091186 0.412654
0.296705 0.091186 0.412654
0.447472 0.091186 0.412654
0.594680 0.091186 0.412654
0.751159 0.091186 0.412654
0.873758 0.091186 0.412654
0.935430 0.091186 0.412654
0.000000 0.231395 0.412654
0.140456 0.231395 0.412654
0.296705 0.231395 0.412654
0.447472 0.231395 0.412654
0.594680 0.231395 0.412654
0.751159 0.231395 0.412654
0.873758 0.231395 0.412654
0.935430 0.231395 0.412654
0.000000 0.371605 0.412654
0.140456 0.371605 0.412654
0.296705 0.371605 0.412654
0.447472 0.371605 0.412654
0.594680 0.371605 0.412654
0.751159 0.371605 0.412654
0.873758 0.371605 0.412654
0.935430 0.371605 0.412654
0.000000 0.511814 0.412654
0.140456 0.511814 0.412654
0.296705 0.511814 0.412654
0.447472 0.511814 0.412654
0.594680 0.511814 0.412654
0.751159 0.511814 0.412654
0.873758 0.511814 0.412654
0.935430 0.511814 0.412654
0.000000 0.652024 0.412654
0.140456 0.652024 0.412654
0.296705 0.652024 0.412654
0.447472 0.652024 0.412654
0.594680 0.652024 0.412654
0.751159 0.652024 0.412654
0.873758 0.616971 0.347481
0.935430 0.581919 0.315273
0.000000 0.806636 0.412654
0.140456 0.806636 0.412654
0.296705 0.806636 0.412654
0.447472 0.806636 0.412654
0.594680 0.806636 0.412654
0.751159 0.806636 0.412654
0.873758 0.806636 0.412654
0.935430 0.771510 0.315273
0.000000 0.900822 0.412654
0.140456 0.900822 0.412654
0.296705 0.900822 0.412654
0.447472 0.900822 0.412654
0.594680 0.900822 0.412654
0.751159 0.900822 0.412654
0.873758 0.900822 0.412654
0.935430 0.900822 0.412654
0.000000 0.000000 0.545649
0.140456 0.000000 0.545649
0.296705 0.000000 0.545649
0.447472 0.000000 0.545649
0.594680 0.000000 0.545649
0.751159 0.000000 0.545649
0.873758 0.000000 0.545649
0.935430 0.000000 0.545649
0.000000 0.091186 0.545649
0.140456 0.091186 0.545649
0.296705 0.091186 0.545649
0.447472 0.091186 0.545649
0.594680 0.091186 0.545649
0.751159 0.091186 0.545649
0.873758 0.091186 0.545649
0.935430 0.091186 0.545649
0.000000 0.231395 0.545649
0.140456 0.231395 0.545649
0.296705 0.231395 0.545649
0.447472 0.231395 0.545649
0.594680 0.231395 0.545649
0.751159 0.231395 0.545649
0.873758 0.231395 0.545649
0.935430 0.231395 0.545649
0.000000 0.371605 0.545649
0.140456 0.371605 0.545649
0.296705 0.371605 0.545649
0.447472 0.371605 0.545649
0.594680 0.371605 0.545649
0.751159 0.371605 0.545649
0.873758 0.371605 0.545649
0.935430 0.371605 0.545649
0.000000 0.511814 0.545649
0.140456 0.511814 0.545649
0.296705 0.511814 0.545649
0.447472 0.511814 0.545649
0.594680 0.511814 0.545649
0.751159 0.511814 0.545649
0.873758 0.511814 0.545649
0.935430 0.511814 0.545649
0.000000 0.652024 0.545649
0.140456 0.652024 0.545649
0.296705 0.652024 0.545649
0.447472 0.652024 0.545649
0.594680 0.652024 0.545649
0.751159 0.652024 0.545649
0.873758 0.652024 0.545649
0.935430 0.652024 0.545649
0.000000 0.806636 0.545649
0.140456 0.806636 0.545649
0.296705 0.806636 0.545649
0.447472 0.806636 0.545649
0.594680 0.806636 0.545649
0.751159 0.806636 0.545649
0.873758 0.806636 0.545649
0.935430 0.771510 0.478740
0.000000 0.900822 0.545649
0.140456 0.900822 0.545649
0.296705 0.900822 0.545649
0.447472 0.900822 0.545649
0.594680 0.900822 0.545649
0.751159 0.900822 0.545649
0.873758 0.900822 0.545649
0.935430 0.900822 0.545649
0.000000 0.000000 0.681652
0.140456 0.000000 0.681652
0.296705 0.000000 0.681652
0.447472 0.000000 0.681652
0.594680 0.000000 0.681652
0.751159 0.000000 0.681652
0.873758 0.000000 0.681652
0.935430 0.000000 0.681652
0.000000 0.091186 0.681652
0.140456 0.091186 0.681652
0.296705 0.091186 0.681652
0.447472 0.091186 0.681652
0.594680 0.091186 0.681652
0.751159 0.091186 0.681652
0.873758 0.091186 0.681652
0.935430 0.091186 0.681652
0.000000 0.231395 0.681652
0.140456 0.231395 0.681652
0.296705 0.231395 0.681652
0.447472 0.231395 0.681652
0.594680 0.231395 0.681652
0.751159 0.231395 0.681652
0.873758 0.231395 0.681652
0.935430 0.231395 0.681652
0.000000 0.371605 0.681652
0.140456 0.371605 0.681652
0.296705 0.371605 0.681652
0.447472 0.371605 0.681652
0.594680 0.371605 0.681652
0.751159 0.371605 0.681652
0.873758 0.371605 0.681652
0.935430 0.371605 0.681652
0.000000 0.511814 0.681652
0.140456 0.511814 0.681652
0.296705 0.511814 0.681652
0.447472 0.511814 0.681652
0.594680 0.511814 0.681652
0.751159 0.511814 0.681652
0.873758 0.511814 0.681652
0.935430 0.511814 0.681652
0.000000 0.652024 0.681652
0.140456 0.652024 0.681652
0.296705 0.652024 0.681652
0.447472 0.652024 0.681652
0.594680 0.652024 0.681652
0.751159 0.652024 0.681652
0.873758 0.652024 0.681652
0.935430 0.652024 0.681652
0.000000 0.806636 0.681652
0.140456 0.806636 0.681652
0.296705 0.806636 0.681652
0.447472 0.806636 0.681652
0.594680 0.806636 0.681652
0.751159 0.806636 0.681652
0.873758 0.806636 0.681652
0.935430 0.806636 0.681652
0.000000 0.900822 0.681652
0.140456 0.900822 0.681652
0.296705 0.900822 0.681652
0.447472 0.900822 0.681652
0.594680 0.900822 0.681652
0.751159 0.900822 0.681652
0.873758 0.900822 0.681652
0.935430 0.900822 0.681652
0.000000 0.000000 0.830753
0.140456 0.000000 0.830753
0.296705 0.000000 0.830753
0.447472 0.000000 0.830753
0.594680 0.000000 0.830753
0.751159 0.000000 0.830753
0.873758 0.000000 0.830753
0.935430 0.000000 0.830753
0.000000 0.091186 0.830753
0.140456 0.091186 0.830753
0.296705 0.091186 0.830753
0.447472 0.091186 0.830753
0.594680 0.091186 0.830753
0.751159 0.091186 0.830753
0.873758 0.091186 0.830753
0.935430 0.091186 0.830753
0.000000 0.231395 0.830753
0.140456 0.231395 0.830753
0.296705 0.231395 0.830753
0.447472 0.231395 0.830753
0.594680 0.231395 0.830753
0.751159 0.231395 0.830753
0.873758 0.231395 0.830753
0.935430 0.231395 0.830753
0.000000 0.371605 0.830753
0.140456 0.371605 0.830753
0.296705 0.371605 0.830753
0.447472 0.371605 0.830753
0.594680 0.371605 0.830753
0.751159 0.371605 0.830753
0.873758 0.371605 0.830753
0.935430 0.371605 0.830753
0.000000 0.511814 0.830753
0.140456 0.511814 0.830753
0.296705 0.511814 0.830753
0.447472 0.511814 0.830753
0.594680 0.511814 0.830753
0.751159 0.511814 0.830753
0.873758 0.511814 0.830753
0.935430 0.511814 0.830753
0.000000 0.652024 0.830753
0.140456 0.652024 0.830753
0.296705 0.652024 0.830753
0.447472 0.652024 0.830753
0.594680 0.652024 0.830753
0.751159 0.652024 0.830753
0.873758 0.652024 0.830753
0.935430 0.652024 0.830753
0.000000 0.806636 0.830753
0.140456 0.806636 0.830753
0.296705 0.806636 0.830753
0.447472 0.806636 0.830753
0.594680 0.806636 0.830753
0.751159 0.806636 0.830753
0.873758 0.806636 0.830753
0.935430 0.806636 0.830753
0.000000 0.900822 0.830753
0.140456 0.900822 0.830753
0.296705 0.900822 0.830753
0.447472 0.900822 0.830753
0.594680 0.900822 0.830753
0.751159 0.900822 0.830753
0.873758 0.900822 0.830753
0.935430 0.900822 0.830753
