assets/luts/autumn.cube
# Beauty Camera 3D LUT
# Filter: Autumn (autumn)
# Category: Warm
TITLE "Autumn"
LUT_3D_SIZE 32
DOMAIN_MIN 0.0 0.0 0.0
DOMAIN_MAX 1.0 1.0 1.0
0.000000 0.000000 0.000000
0.016319 0.000000 0.000000
0.058785 0.000000 0.000000
0.100042 0.000000 0.000000
0.140456 0.000000 0.000000
0.180223 0.000000 0.000000
0.219467 0.000000 0.000000
0.258274 0.000000 0.000000
0.296705 0.000000 0.000000
0.334807 0.000000 0.000000
0.372617 0.000000 0.000000
0.410164 0.000000 0.000000
0.447472 0.000000 0.000000
0.484561 0.000000 0.000000
0.521450 0.000000 0.000000
0.558152 0.000000 0.000000
0.594680 0.000000 0.000000
0.631046 0.000000 0.000000
0.667260 0.000000 0.000000
0.704719 0.000000 0.000000
0.751159 0.000000 0.000000
0.790167 0.000000 0.000000
0.822956 0.000000 0.000000
0.850539 0.000000 0.000000
0.873758 0.000000 0.000000
0.893315 0.000000 0.000000
0.909799 0.000000 0.000000
0.923700 0.000000 0.000000
0.935430 0.000000 0.000000
0.945334 0.000000 0.000000
0.953699 0.000000 0.000000
0.960768 0.000000 0.000000
0.000000 0.000000 0.000000
0.016319 0.000000 0.000000
0.058785 0.000000 0.000000
0.100042 0.000000 0.000000
0.140456 0.000000 0.000000
0.180223 0.000000 0.000000
0.219467 0.000000 0.000000
0.258274 0.000000 0.000000
0.296705 0.000000 0.000000
0.334807 0.000000 0.000000
0.372617 0.000000 0.000000
0.410164 0.000000 0.000000
0.447472 0.000000 0.000000
0.484561 0.000000 0.000000
0.521450 0.000000 0.000000
0.558152 0.000000 0.000000
0.594680 0.000000 0.000000
0.631046 0.000000 0.000000
0.667260 0.000000 0.000000
0.704719 0.000000 0.000000
0.751159 0.000000 0.000000
0.790167 0.000000 0.000000
0.822956 0.000000 0.000000
0.850539 0.000000 0.000000
0.873758 0.000000 0.000000
0.893315 0.000000 0.000000
0.909799 0.000000 0.000000
0.923700 0.000000 0.000000
0.935430 0.000000 0.000000
0.945334 0.000000 0.000000
0.953699 0.000000 0.000000
0.960768 0.000000 0.000000
0.000000 0.021081 0.000000
0.016319 0.021081 0.000000
0.058785 0.021081 0.000000
0.100042 0.021081 0.000000
0.140456 0.021081 0.000000
0.180223 0.021081 0.000000
0.219467 0.021081 0.000000
0.258274 0.021081 0.000000
0.296705 0.021081 0.000000
0.334807 0.021081 0.000000
0.372617 0.021081 0.000000
0.410164 0.021081 0.000000
0.447472 0.021081 0.000000
0.484561 0.021081 0.000000
0.521450 0.021081 0.000000
0.558152 0.021081 0.000000
0.594680 0.021081 0.000000
0.631046 0.021081 0.000000
0.667260 0.021081 0.000000
0.704719 0.021081 0.000000
0.751159 0.021081 0.000000
0.790167 0.021081 0.000000
0.822956 0.021081 0.000000
0.850539 0.021081 0.000000
0.873758 0.021081 0.000000
0.893315 0.021081 0.000000
0.909799 0.021081 0.000000
0.923700 0.021081 0.000000
0.935430 0.021081 0.000000
0.945334 0.021081 0.000000
0.953699 0.021081 0.000000
0.960768 0.021081 0.000000
0.000000 0.056133 0.000000
0.016319 0.056133 0.000000
0.058785 0.056133 0.000000
0.100042 0.056133 0.000000
0.140456 0.056133 0.000000
0.180223 0.056133 0.000000
0.219467 0.056133 0.000000
0.258274 0.056133 0.000000
0.296705 0.056133 0.000000
0.334807 0.056133 0.000000
0.372617 0.056133 0.000000
0.410164 0.056133 0.000000
0.447472 0.056133 0.000000
0.484561 0.056133 0.000000
0.521450 0.056133 0.000000
0.558152 0.056133 0.000000
0.594680 0.056133 0.000000
0.631046 0.056133 0.000000
0.667260 0.056133 0.000000
0.704719 0.056133 0.000000
0.751159 0.056133 0.000000
0.790167 0.056133 0.000000
0.822956 0.056133 0.000000
0.850539 0.056133 0.000000
0.873758 0.056133 0.000000
0.893315 0.056133 0.000000
0.909799 0.056133 0.000000
0.923700 0.056133 0.000000
0.935430 0.056133 0.000000
0.945334 0.056133 0.000000
0.953699 0.056133 0.000000
0.960768 0.056133 0.000000
0.000000 0.091186 0.000000
0.016319 0.091186 0.000000
0.058785 0.091186 0.000000
0.100042 0.091186 0.000000
0.140456 0.091186 0.000000
0.180223 0.091186 0.000000
0.219467 0.091186 0.000000
0.258274 0.091186 0.000000
0.296705 0.091186 0.000000
0.334807 0.091186 0.000000
0.372617 0.091186 0.000000
0.410164 0.091186 0.000000
0.447472 0.091186 0.000000
0.484561 0.091186 0.000000
0.521450 0.091186 0.000000
0.558152 0.091186 0.000000
0.594680 0.091186 0.000000
0.631046 0.091186 0.000000
0.667260 0.091186 0.000000
0.704719 0.091186 0.000000
0.751159 0.091186 0.000000
0.790167 0.091186 0.000000
0.822956 0.091186 0.000000
0.850539 0.091186 0.000000
0.873758 0.091186 0.000000
0.893315 0.091186 0.000000
0.909799 0.091186 0.000000
0.923700 0.091186 0.000000
0.935430 0.091186 0.000000
0.945334 0.091186 0.000000
0.953699 0.091186 0.000000
0.960768 0.091186 0.000000
0.000000 0.126238 0.000000
0.016319 0.126238 0.000000
0.058785 0.126238 0.000000
0.100042 0.126238 0.000000
0.140456 0.126238 0.000000
0.180223 0.126238 0.000000
0.219467 0.126238 0.000000
0.258274 0.126238 0.000000
0.296705 0.126238 0.000000
0.334807 0.126238 0.000000
0.372617 0.126238 0.000000
0.410164 0.126238 0.000000
0.447472 0.126238 0.000000
0.484561 0.126238 0.000000
0.521450 0.126238 0.000000
0.558152 0.126238 0.000000
0.594680 0.126238 0.000000
0.631046 0.126238 0.000000
0.667260 0.126238 0.000000
0.704719 0.126238 0.000000
0.751159 0.126238 0.000000
0.790167 0.126238 0.000000
0.822956 0.126238 0.000000
0.850539 0.126238 0.000000
0.873758 0.126238 0.000000
0.893315 0.126238 0.000000
0.909799 0.126238 0.000000
0.923700 0.126238 0.000000
0.935430 0.126238 0.000000
0.945334 0.126238 0.000000
0.953699 0.126238 0.000000
0.960768 0.126238 0.000000
0.000000 0.161290 0.000000
0.016319 0.161290 0.000000
0.058785 0.161290 0.000000
0.100042 0.161290 0.000000
0.140456 0.161290 0.000000
0.180223 0.161290 0.000000
0.219467 0.161290 0.000000
0.258274 0.161290 0.000000
0.296705 0.161290 0.000000
0.334807 0.161290 0.000000
0.372617 0.161290 0.000000
0.410164 0.161290 0.000000
0.447472 0.161290 0.000000
0.484561 0.161290 0.000000
0.521450 0.161290 0.000000
0.558152 0.161290 0.000000
0.594680 0.161290 0.000000
0.631046 0.161290 0.000000
0.667260 0.161290 0.000000
0.704719 0.161290 0.000000
0.751159 0.161290 0.000000
0.790167 0.161290 0.000000
0.822956 0.161290 0.000000
0.850539 0.161290 0.000000
0.873758 0.161290 0.000000
0.893315 0.161290 0.000000
0.909799 0.161290 0.000000
0.923700 0.161290 0.000000
0.935430 0.161290 0.000000
0.945334 0.161290 0.000000
0.953699 0.161290 0.000000
0.960768 0.161290 0.000000
0.000000 0.196343 0.000000
0.016319 0.196343 0.000000
0.058785 0.196343 0.000000
0.100042 0.196343 0.000000
0.140456 0.196343 0.000000
0.180223 0.196343 0.000000
0.219467 0.196343 0.000000
0.258274 0.196343 0.000000
0.296705 0.196343 0.000000
0.334807 0.196343 0.000000
0.372617 0.196343 0.000000
0.410164 0.196343 0.000000
0.447472 0.196343 0.000000
0.484561 0.196343 0.000000
0.521450 0.196343 0.000000
0.558152 0.196343 0.000000
0.594680 0.196343 0.000000
0.631046 0.196343 0.000000
0.667260 0.196343 0.000000
0.704719 0.196343 0.000000
0.751159 0.196343 0.000000
0.790167 0.196343 0.000000
0.822956 0.196343 0.000000
0.850539 0.196343 0.000000
0.873758 0.196343 0.000000
0.893315 0.196343 0.000000
0.909799 0.196343 0.000000
0.923700 0.196343 0.000000
0.935430 0.196343 0.000000
0.945334 0.196343 0.000000
0.953699 0.196343 0.000000
0.960768 0.196343 0.000000
0.000000 0.231395 0.000000
0.016319 0.231395 0.000000
0.058785 0.231395 0.000000
0.100042 0.231395 0.000000
0.140456 0.231395 0.000000
0.180223 0.231395 0.000000
0.219467 0.231395 0.000000
0.258274 0.231395 0.000000
0.296705 0.231395 0.000000
0.334807 0.231395 0.000000
0.372617 0.231395 0.000000
0.410164 0.231395 0.000000
0.447472 0.231395 0.000000
0.484561 0.231395 0.000000
0.521450 0.231395 0.000000
0.558152 0.231395 0.000000
0.594680 0.231395 0.000000
0.631046 0.231395 0.000000
0.667260 0.231395 0.000000
0.704719 0.231395 0.000000
0.751159 0.231395 0.000000
0.790167 0.231395 0.000000
0.822956 0.231395 0.000000
0.850539 0.231395 0.000000
0.873758 0.231395 0.000000
0.893315 0.231395 0.000000
0.909799 0.231395 0.000000
0.923700 0.231395 0.000000
0.935430 0.231395 0.000000
0.945334 0.231395 0.000000
0.953699 0.231395 0.000000
0.960768 0.231395 0.000000
0.000000 0.266447 0.000000
0.016319 0.266447 0.000000
0.058785 0.266447 0.000000
0.100042 0.266447 0.000000
0.140456 0.266447 0.000000
0.180223 0.266447 0.000000
0.219467 0.266447 0.000000
0.258274 0.266447 0.000000
0.296705 0.266447 0.000000
0.334807 0.266447 0.000000
0.372617 0.266447 0.000000
0.410164 0.266447 0.000000
0.447472 0.266447 0.000000
0.484561 0.266447 0.000000
0.521450 0.266447 0.000000
0.558152 0.266447 0.000000
0.594680 0.266447 0.000000
0.631046 0.266447 0.000000
0.667260 0.266447 0.000000
0.704719 0.266447 0.000000
0.751159 0.266447 0.000000
0.790167 0.266447 0.000000
0.822956 0.266447 0.000000
0.850539 0.266447 0.000000
0.873758 0.266447 0.000000
0.893315 0.266447 0.000000
0.909799 0.266447 0.000000
0.923700 0.266447 0.000000
0.935430 0.266447 0.000000
0.945334 0.266447 0.000000
0.953699 0.266447 0.000000
0.960768 0.266447 0.000000
0.000000 0.301500 0.000000
0.016319 0.301500 0.000000
0.058785 0.301500 0.000000
0.100042 0.301500 0.000000
0.140456 0.301500 0.000000
0.180223 0.301500 0.000000
0.219467 0.301500 0.000000
0.258274 0.301500 0.000000
0.296705 0.301500 0.000000
0.334807 0.301500 0.000000
0.372617 0.301500 0.000000
0.410164 0.301500 0.000000
0.447472 0.301500 0.000000
0.484561 0.301500 0.000000
0.521450 0.301500 0.000000
0.558152 0.301500 0.000000
0.594680 0.301500 0.000000
0.631046 0.301500 0.000000
0.667260 0.301500 0.000000
0.704719 0.301500 0.000000
0.751159 0.301500 0.000000
0.790167 0.301500 0.000000
0.822956 0.301500 0.000000
0.850539 0.301500 0.000000
0.873758 0.301500 0.000000
0.893315 0.301500 0.000000
0.909799 0.301500 0.000000
0.923700 0.301500 0.000000
0.935430 0.301500 0.000000
0.945334 0.301500 0.000000
0.953699 0.301500 0.000000
0.960768 0.301500 0.000000
0.000000 0.336552 0.000000
0.016319 0.336552 0.000000
0.058785 0.336552 0.000000
0.100042 0.336552 0.000000
0.140456 0.336552 0.000000
0.180223 0.336552 0.000000
0.219467 0.336552 0.000000
0.258274 0.336552 0.000000
0.296705 0.336552 0.000000
0.334807 0.336552 0.000000
0.372617 0.336552 0.000000
0.410164 0.336552 0.000000
0.447472 0.336552 0.000000
0.484561 0.336552 0.000000
0.521450 0.336552 0.000000
0.558152 0.336552 0.000000
0.594680 0.336552 0.000000
0.631046 0.336552 0.000000
0.667260 0.336552 0.000000
0.704719 0.336552 0.000000
0.751159 0.336552 0.000000
0.790167 0.336552 0.000000
0.822956 0.336552 0.000000
0.850539 0.336552 0.000000
0.873758 0.336552 0.000000
0.893315 0.336552 0.000000
0.909799 0.336552 0.000000
0.923700 0.336552 0.000000
0.935430 0.336552 0.000000
0.945334 0.336552 0.000000
0.953699 0.336552 0.000000
0.960768 0.336552 0.000000
0.000000 0.371605 0.000000
0.016319 0.371605 0.000000
0.058785 0.371605 0.000000
0.100042 0.371605 0.000000
0.140456 0.371605 0.000000
0.180223 0.371605 0.000000
0.219467 0.371605 0.000000
0.258274 0.371605 0.000000
0.296705 0.371605 0.000000
0.334807 0.371605 0.000000
0.372617 0.371605 0.000000
0.410164 0.371605 0.000000
0.447472 0.371605 0.000000
0.484561 0.371605 0.000000
0.521450 0.371605 0.000000
0.558152 0.371605 0.000000
0.594680 0.371605 0.000000
0.631046 0.371605 0.000000
0.667260 0.371605 0.000000
0.704719 0.371605 0.000000
0.751159 0.371605 0.000000
0.790167 0.371605 0.000000
0.822956 0.371605 0.000000
0.850539 0.371605 0.000000
0.873758 0.371605 0.000000
0.893315 0.371605 0.000000
0.909799 0.371605 0.000000
0.923700 0.371605 0.000000
0.935430 0.371605 0.000000
0.945334 0.371605 0.000000
0.953699 0.371605 0.000000
0.960768 0.371605 0.000000
0.000000 0.406657 0.000000
0.016319 0.406657 0.000000
0.058785 0.406657 0.000000
0.100042 0.406657 0.000000
0.140456 0.406657 0.000000
0.180223 0.406657 0.000000
0.219467 0.406657 0.000000
0.258274 0.406657 0.000000
0.296705 0.406657 0.000000
0.334807 0.406657 0.000000
0.372617 0.406657 0.000000
0.410164 0.406657 0.000000
0.447472 0.406657 0.000000
0.484561 0.406657 0.000000
0.521450 0.406657 0.000000
0.558152 0.406657 0.000000
0.594680 0.406657 0.000000
0.631046 0.406657 0.000000
0.667260 0.406657 0.000000
0.704719 0.406657 0.000000
0.751159 0.406657 0.000000
0.790167 0.406657 0.000000
0.822956 0.406657 0.000000
0.850539 0.406657 0.000000
0.873758 0.406657 0.000000
0.893315 0.406657 0.000000
0.909799 0.406657 0.000000
0.923700 0.406657 0.000000
0.935430 0.406657 0.000000
0.945334 0.406657 0.000000
0.953699 0.406657 0.000000
0.960768 0.406657 0.000000
0.000000 0.441709 0.000000
0.016319 0.441709 0.000000
0.058785 0.441709 0.000000
0.100042 0.441709 0.000000
0.140456 0.441709 0.000000
0.180223 0.441709 0.000000
0.219467 0.441709 0.000000
0.258274 0.441709 0.000000
0.296705 0.441709 0.000000
0.334807 0.441709 0.000000
0.372617 0.441709 0.000000
0.410164 0.441709 0.000000
0.447472 0.441709 0.000000
0.484561 0.441709 0.000000
0.521450 0.441709 0.000000
0.558152 0.441709 0.000000
0.594680 0.441709 0.000000
0.631046 0.441709 0.000000
0.667260 0.441709 0.000000
0.704719 0.441709 0.000000
0.751159 0.441709 0.000000
0.790167 0.441709 0.000000
0.822956 0.441709 0.000000
0.850539 0.441709 0.000000
0.873758 0.441709 0.000000
0.893315 0.441709 0.000000
0.909799 0.441709 0.000000
0.923700 0.441709 0.000000
0.935430 0.441709 0.000000
0.945334 0.441709 0.000000
0.953699 0.441709 0.000000
0.960768 0.441709 0.000000
0.000000 0.476762 0.000000
0.016319 0.476762 0.000000
0.058785 0.476762 0.000000
0.100042 0.476762 0.000000
0.140456 0.476762 0.000000
0.180223 0.476762 0.000000
0.219467 0.476762 0.000000
0.258274 0.476762 0.000000
0.296705 0.476762 0.000000
0.334807 0.476762 0.000000
0.372617 0.476762 0.000000
0.410164 0.476762 0.000000
0.447472 0.476762 0.000000
0.484561 0.476762 0.000000
0.521450 0.476762 0.000000
0.558152 0.476762 0.000000
0.594680 0.476762 0.000000
0.631046 0.476762 0.000000
0.667260 0.476762 0.000000
0.704719 0.476762 0.000000
0.751159 0.476762 0.000000
0.790167 0.476762 0.000000
0.822956 0.476762 0.000000
0.850539 0.476762 0.000000
0.873758 0.476762 0.000000
0.893315 0.476762 0.000000
0.909799 0.476762 0.000000
0.923700 0.476762 0.000000
0.935430 0.476762 0.000000
0.945334 0.476762 0.000000
0.953699 0.476762 0.000000
0.960768 0.476762 0.000000
0.000000 0.511814 0.000000
0.016319 0.511814 0.000000
0.058785 0.511814 0.000000
0.100042 0.511814 0.000000
0.140456 0.511814 0.000000
0.180223 0.511814 0.000000
0.219467 0.511814 0.000000
0.258274 0.511814 0.000000
0.296705 0.511814 0.000000
0.334807 0.511814 0.000000
0.372617 0.511814 0.000000
0.410164 0.511814 0.000000
0.447472 0.511814 0.000000
0.484561 0.511814 0.000000
0.521450 0.511814 0.000000
0.558152 0.511814 0.000000
0.594680 0.511814 0.000000
0.631046 0.511814 0.000000
0.667260 0.511814 0.000000
0.704719 0.511814 0.000000
0.751159 0.511814 0.000000
0.790167 0.511814 0.000000
0.822956 0.511814 0.000000
0.850539 0.511814 0.000000
0.873758 0.511814 0.000000
0.893315 0.511814 0.000000
0.909799 0.511814 0.000000
0.923700 0.511814 0.000000
0.935430 0.511814 0.000000
0.945334 0.511814 0.000000
0.953699 0.511814 0.000000
0.960768 0.511814 0.000000
0.000000 0.546867 0.000000
0.016319 0.546867 0.000000
0.058785 0.546867 0.000000
0.100042 0.546867 0.000000
0.140456 0.546867 0.000000
0.180223 0.546867 0.000000
0.219467 0.546867 0.000000
0.258274 0.546867 0.000000
0.296705 0.546867 0.000000
0.334807 0.546867 0.000000
0.372617 0.546867 0.000000
0.410164 0.546867 0.000000
0.447472 0.546867 0.000000
0.484561 0.546867 0.000000
0.521450 0.546867 0.000000
0.558152 0.546867 0.000000
0.594680 0.546867 0.000000
0.631046 0.546867 0.000000
0.667260 0.546867 0.000000
0.704719 0.546867 0.000000
0.751159 0.546867 0.000000
0.790167 0.546867 0.000000
0.822956 0.546867 0.000000
0.850539 0.546867 0.000000
0.873758 0.546867 0.000000
0.893315 0.546867 0.000000
0.909799 0.546867 0.000000
0.923700 0.546867 0.000000
0.935430 0.546867 0.000000
0.945334 0.546867 0.000000
0.953699 0.546867 0.000000
0.960768 0.546867 0.000000
0.000000 0.581919 0.000000
0.016319 0.581919 0.000000
0.058785 0.581919 0.000000
0.100042 0.581919 0.000000
0.140456 0.581919 0.000000
0.180223 0.581919 0.000000
0.219467 0.581919 0.000000
0.258274 0.581919 0.000000
0.296705 0.581919 0.000000
0.334807 0.581919 0.000000
0.372617 0.581919 0.000000
0.410164 0.581919 0.000000
0.447472 0.581919 0.000000
0.484561 0.581919 0.000000
0.521450 0.581919 0.000000
0.558152 0.581919 0.000000
0.594680 0.581919 0.000000
0.631046 0.581919 0.000000
0.667260 0.581919 0.000000
0.704719 0.581919 0.000000
0.751159 0.581919 0.000000
0.790167 0.581919 0.000000
0.822956 0.581919 0.000000
0.850539 0.581919 0.000000
0.873758 0.581919 0.000000
0.893315 0.581919 0.000000
0.909799 0.581919 0.000000
0.923700 0.581919 0.000000
0.935430 0.581919 0.000000
0.945334 0.581919 0.000000
0.953699 0.581919 0.000000
0.960768 0.581919 0.000000
0.000000 0.616971 0.000000
0.016319 0.616971 0.000000
0.058785 0.616971 0.000000
0.100042 0.616971 0.000000
0.140456 0.616971 0.000000
0.180223 0.616971 0.000000
0.219467 0.616971 0.000000
0.258274 0.616971 0.000000
0.296705 0.616971 0.000000
0.334807 0.616971 0.000000
0.372617 0.616971 0.000000
0.410164 0.616971 0.000000
0.447472 0.616971 0.000000
0.484561 0.616971 0.000000
0.521450 0.616971 0.000000
0.558152 0.616971 0.000000
0.594680 0.616971 0.000000
0.631046 0.616971 0.000000
0.667260 0.616971 0.000000
0.704719 0.616971 0.000000
0.751159 0.616971 0.000000
0.790167 0.616971 0.000000
0.822956 0.616971 0.000000
0.850539 0.616971 0.000000
0.873758 0.616971 0.000000
0.893315 0.616971 0.000000
0.909799 0.616971 0.000000
0.923700 0.616971 0.000000
0.935430 0.616971 0.000000
0.945334 0.616971 0.000000
0.953699 0.616971 0.000000
0.960768 0.616971 0.000000
0.000000 0.652024 0.000000
0.016319 0.652024 0.000000
0.058785 0.652024 0.000000
0.100042 0.652024 0.000000
0.140456 0.652024 0.000000
0.180223 0.652024 0.000000
0.219467 0.652024 0.000000
0.258274 0.652024 0.000000
0.296705 0.652024 0.000000
0.334807 0.652024 0.000000
0.372617 0.652024 0.000000
0.410164 0.652024 0.000000
0.447472 0.652024 0.000000
0.484561 0.652024 0.000000
0.521450 0.652024 0.000000
0.558152 0.652024 0.000000
0.594680 0.652024 0.000000
0.631046 0.652024 0.000000
0.667260 0.652024 0.000000
0.704719 0.652024 0.000000
0.751159 0.652024 0.000000
0.790167 0.652024 0.000000
0.822956 0.652024 0.000000
0.850539 0.652024 0.000000
0.873758 0.652024 0.000000
0.893315 0.652024 0.000000
0.909799 0.652024 0.000000
0.923700 0.652024 0.000000
0.935430 0.652024 0.000000
0.945334 0.652024 0.000000
0.953699 0.652024 0.000000
0.960768 0.652024 0.000000
0.000000 0.687076 0.000000
0.016319 0.687076 0.000000
0.058785 0.687076 0.000000
0.100042 0.687076 0.000000
0.140456 0.687076 0.000000
0.180223 0.687076 0.000000
0.219467 0.687076 0.000000
0.258274 0.687076 0.000000
0.296705 0.687076 0.000000
0.334807 0.687076 0.000000
0.372617 0.687076 0.000000
0.410164 0.687076 0.000000
0.447472 0.687076 0.000000
0.484561 0.687076 0.000000
0.521450 0.687076 0.000000
0.558152 0.687076 0.000000
0.594680 0.687076 0.000000
0.631046 0.687076 0.000000
0.667260 0.687076 0.000000
0.704719 0.687076 0.000000
0.751159 0.687076 0.000000
0.790167 0.687076 0.000000
0.822956 0.687076 0.000000
0.850539 0.687076 0.000000
0.873758 0.687076 0.000000
0.893315 0.687076 0.000000
0.909799 0.687076 0.000000
0.923700 0.687076 0.000000
0.935430 0.687076 0.000000
0.945334 0.687076 0.000000
0.953699 0.687076 0.000000
0.960768 0.687076 0.000000
0.000000 0.730004 0.000000
0.016319 0.730004 0.000000
0.058785 0.730004 0.000000
0.100042 0.730004 0.000000
0.140456 0.730004 0.000000
0.180223 0.730004 0.000000
0.219467 0.730004 0.000000
0.258274 0.730004 0.000000
0.296705 0.730004 0.000000
0.334807 0.730004 0.000000
0.372617 0.730004 0.000000
0.410164 0.730004 0.000000
0.447472 0.730004 0.000000
0.484561 0.730004 0.000000
0.521450 0.730004 0.000000
0.558152 0.730004 0.000000
0.594680 0.730004 0.000000
0.631046 0.730004 0.000000
0.667260 0.730004 0.000000
0.704719 0.730004 0.000000
0.751159 0.730004 0.000000
0.790167 0.730004 0.000000
0.822956 0.730004 0.000000
0.850539 0.730004 0.000000
0.873758 0.730004 0.000000
0.893315 0.730004 0.000000
0.909799 0.730004 0.000000
0.923700 0.730004 0.000000
0.935430 0.730004 0.000000
0.945334 0.730004 0.000000
0.953699 0.730004 0.000000
0.960768 0.730004 0.000000
0.000000 0.771510 0.000000
0.016319 0.771510 0.000000
0.058785 0.771510 0.000000
0.100042 0.771510 0.000000
0.140456 0.771510 0.000000
0.180223 0.771510 0.000000
0.219467 0.771510 0.000000
0.258274 0.771510 0.000000
0.296705 0.771510 0.000000
0.334807 0.771510 0.000000
0.372617 0.771510 0.000000
0.410164 0.771510 0.000000
0.447472 0.771510 0.000000
0.484561 0.771510 0.000000
0.521450 0.771510 0.000000
0.558152 0.771510 0.000000
0.594680 0.771510 0.000000
0.631046 0.771510 0.000000
0.667260 0.771510 0.000000
0.704719 0.771510 0.000000
0.751159 0.771510 0.000000
0.790167 0.771510 0.000000
0.822956 0.771510 0.000000
0.850539 0.771510 0.000000
0.873758 0.771510 0.000000
0.893315 0.771510 0.000000
0.909799 0.771510 0.000000
0.923700 0.771510 0.000000
0.935430 0.771510 0.000000
0.945334 0.771510 0.000000
0.953699 0.771510 0.000000
0.960768 0.771510 0.000000
0.000000 0.806636 0.000000
0.016319 0.806636 0.000000
0.058785 0.806636 0.000000
0.100042 0.806636 0.000000
0.140456 0.806636 0.000000
0.180223 0.806636 0.000000
0.219467 0.806636 0.000000
0.258274 0.806636 0.000000
0.296705 0.806636 0.000000
0.334807 0.806636 0.000000
0.372617 0.806636 0.000000
0.410164 0.806636 0.000000
0.447472 0.806636 0.000000
0.484561 0.806636 0.000000
0.521450 0.806636 0.000000
0.558152 0.806636 0.000000
0.594680 0.806636 0.000000
0.631046 0.806636 0.000000
0.667260 0.806636 0.000000
0.704719 0.806636 0.000000
0.751159 0.806636 0.000000
0.790167 0.806636 0.000000
0.822956 0.806636 0.000000
0.850539 0.806636 0.000000
0.873758 0.806636 0.000000
0.893315 0.806636 0.000000
0.909799 0.806636 0.000000
0.923700 0.806636 0.000000
0.935430 0.806636 0.000000
0.945334 0.806636 0.000000
0.953699 0.806636 0.000000
0.960768 0.806636 0.000000
0.000000 0.836361 0.000000
0.016319 0.836361 0.000000
0.058785 0.836361 0.000000
0.100042 0.836361 0.000000
0.140456 0.836361 0.000000
0.180223 0.836361 0.000000
0.219467 0.836361 0.000000
0.258274 0.836361 0.000000
0.296705 0.836361 0.000000
0.334807 0.836361 0.000000
0.372617 0.836361 0.000000
0.410164 0.836361 0.000000
0.447472 0.836361 0.000000
0.484561 0.836361 0.000000
0.521450 0.836361 0.000000
0.558152 0.836361 0.000000
0.594680 0.836361 0.000000
0.631046 0.836361 0.000000
0.667260 0.836361 0.000000
0.704719 0.836361 0.000000
0.751159 0.836361 0.000000
0.790167 0.836361 0.000000
0.822956 0.836361 0.000000
0.850539 0.836361 0.000000
0.873758 0.836361 0.000000
0.893315 0.836361 0.000000
0.909799 0.836361 0.000000
0.923700 0.836361 0.000000
0.935430 0.836361 0.000000
0.945334 0.836361 0.000000
0.953699 0.836361 0.000000
0.960768 0.836361 0.000000
0.000000 0.861517 0.000000
0.016319 0.861517 0.000000
0.058785 0.861517 0.000000
0.100042 0.861517 0.000000
0.140456 0.861517 0.000000
0.180223 0.861517 0.000000
0.219467 0.861517 0.000000
0.258274 0.861517 0.000000
0.296705 0.861517 0.000000
0.334807 0.861517 0.000000
0.372617 0.861517 0.000000
0.410164 0.861517 0.000000
0.447472 0.861517 0.000000
0.484561 0.861517 0.000000
0.521450 0.861517 0.000000
0.558152 0.861517 0.000000
0.594680 0.861517 0.000000
0.631046 0.861517 0.000000
0.667260 0.861517 0.000000
0.704719 0.861517 0.000000
0.751159 0.861517 0.000000
0.790167 0.861517 0.000000
0.822956 0.861517 0.000000
0.850539 0.861517 0.000000
0.873758 0.861517 0.000000
0.893315 0.861517 0.000000
0.909799 0.861517 0.000000
0.923700 0.861517 0.000000
0.935430 0.861517 0.000000
0.945334 0.861517 0.000000
0.953699 0.861517 0.000000
0.960768 0.861517 0.000000
0.000000 0.882806 0.000000
0.016319 0.882806 0.000000
0.058785 0.882806 0.000000
0.100042 0.882806 0.000000
0.140456 0.882806 0.000000
0.180223 0.882806 0.000000
0.219467 0.882806 0.000000
0.258274 0.882806 0.000000
0.296705 0.882806 0.000000
0.334807 0.882806 0.000000
0.372617 0.882806 0.000000
0.410164 0.882806 0.000000
0.447472 0.882806 0.000000
0.484561 0.882806 0.000000
0.521450 0.882806 0.000000
0.558152 0.882806 0.000000
0.594680 0.882806 0.000000
0.631046 0.882806 0.000000
0.667260 0.882806 0.000000
