assets/luts/autumn.cube
# Beauty Camera 3D LUT
# Filter: Autumn (autumn)
# Category: Warm
TITLE "Autumn"
LUT_3D_SIZE 5
DOMAIN_MIN 0.000000 0.000000 0.000000
DOMAIN_MAX 0.903226 0.903226 0.903226
0.000000 0.000000 0.000000
0.258274 0.000000 0.000000
0.521450 0.000000 0.000000
0.790167 0.000000 0.000000
0.935430 0.000000 0.000000
0.000000 0.196343 0.000000
0.258274 0.196343 0.000000
0.521450 0.196343 0.000000
0.790167 0.196343 0.000000
0.935430 0.196343 0.000000
0.000000 0.441709 0.000000
0.258274 0.441709 0.000000
0.521450 0.441709 0.000000
0.790167 0.441709 0.000000
0.935430 0.441709 0.000000
0.000000 0.687076 0.000000
0.258274 0.687076 0.000000
0.521450 0.687076 0.000000
0.790167 0.687076 0.000000
0.935430 0.687076 0.000000
0.000000 0.900822 0.000000
0.258274 0.900822 0.000000
0.521450 0.900822 0.000000
0.790167 0.900822 0.000000
0.935430 0.900822 0.000000
0.000000 0.000000 0.128638
0.258274 0.000000 0.128638
0.521450 0.000000 0.128638
0.790167 0.000000 0.128638
0.935430 0.000000 0.128638
0.000000 0.196343 0.128638
0.258274 0.196343 0.128638
0.521450 0.196343 0.128638
0.790167 0.196343 0.128638
0.935430 0.196343 0.128638
0.000000 0.441709 0.128638
0.258274 0.441709 0.128638
0.521450 0.441709 0.128638
0.790167 0.380368 0.027328
0.935430 0.319026 0.000000
0.000000 0.687076 0.128638
0.258274 0.687076 0.128638
0.521450 0.687076 0.128638
0.790167 0.687076 0.128638
0.935430 0.625734 0.000000
0.000000 0.900822 0.128638
0.258274 0.900822 0.128638
0.521450 0.900822 0.128638
0.790167 0.900822 0.128638
0.935430 0.900822 0.128638
0.000000 0.000000 0.347481
0.258274 0.000000 0.347481
0.521450 0.000000 0.347481
0.790167 0.000000 0.347481
0.935430 0.000000 0.347481
0.000000 0.196343 0.347481
0.258274 0.196343 0.347481
0.521450 0.196343 0.347481
0.790167 0.196343 0.347481
0.935430 0.196343 0.347481
0.000000 0.441709 0.347481
0.258274 0.441709 0.347481
0.521450 0.441709 0.347481
0.790167 0.441709 0.347481
0.935430 0.441709 0.347481
0.000000 0.687076 0.347481
0.258274 0.687076 0.347481
0.521450 0.687076 0.347481
0.790167 0.687076 0.347481
0.935430 0.625734 0.235997
0.000000 0.900822 0.347481
0.258274 0.900822 0.347481
0.521450 0.900822 0.347481
0.790167 0.900822 0.347481
0.935430 0.900822 0.347481
0.000000 0.000000 0.579388
0.258274 0.000000 0.579388
0.521450 0.000000 0.579388
0.790167 0.000000 0.579388
0.935430 0.000000 0.579388
0.000000 0.196343 0.579388
0.258274 0.196343 0.579388
0.521450 0.196343 0.579388
0.790167 0.196343 0.579388
0.935430 0.196343 0.579388
0.000000 0.441709 0.579388
0.258274 0.441709 0.579388
0.521450 0.441709 0.579388
0.790167 0.441709 0.579388
0.935430 0.441709 0.579388
0.000000 0.687076 0.579388
0.258274 0.687076 0.579388
0.521450 0.687076 0.579388
0.790167 0.687076 0.579388
0.935430 0.687076 0.579388
0.000000 0.900822 0.579388
0.258274 0.900822 0.579388
0.521450 0.900822 0.579388
0.790167 0.900822 0.579388
0.935430 0.900822 0.579388
0.000000 0.000000 0.830753
0.258274 0.000000 0.830753
0.521450 0.000000 0.830753
0.790167 0.000000 0.830753
0.935430 0.000000 0.830753
0.000000 0.196343 0.830753
0.258274 0.196343 0.830753
0.521450 0.196343 0.830753
0.790167 0.196343 0.830753
0.935430 0.196343 0.830753
0.000000 0.441709 0.830753
0.258274 0.441709 0.830753
0.521450 0.441709 0.830753
0.790167 0.441709 0.830753
0.935430 0.441709 0.830753
0.000000 0.687076 0.830753
0.258274 0.687076 0.830753
0.521450 0.687076 0.830753
0.790167 0.687076 0.830753
0.935430 0.687076 0.830753
0.000000 0.900822 0.830753
0.258274 0.900822 0.830753
0.521450 0.900822 0.830753
0.790167 0.900822 0.830753
0.935430 0.900822 0.830753
