assets/luts/bw.cube
# Beauty Camera 3D LUT
# Filter: B&W (bw)
# Category: B&W
TITLE "B&W"
LUT_3D_SIZE 8
DOMAIN_MIN 0.000000 0.000000 0.000000
DOMAIN_MAX 0.903226 0.903226 0.903226
0.000000 0.000000 0.000000
0.026826 0.026826 0.026826
0.054402 0.054402 0.054402
0.082726 0.082726 0.082726
0.111800 0.111800 0.111800
0.141623 0.141623 0.141623
0.172196 0.172196 0.172196
0.203517 0.203517 0.203517
0.071307 0.071307 0.071307
0.100081 0.100081 0.100081
0.129604 0.129604 0.129604
0.159877 0.159877 0.159877
0.190899 0.190899 0.190899
0.222670 0.222670 0.222670
0.255190 0.255190 0.255190
0.288460 0.288460 0.288460
0.147678 0.147678 0.147678
0.178400 0.178400 0.178400
0.209871 0.209871 0.209871
0.242092 0.242092 0.242092
0.275062 0.275062 0.275062
0.308781 0.308781 0.308781
0.343249 0.343249 0.343249
0.378467 0.378467 0.378467
0.229114 0.229114 0.229114
0.261784 0.261784 0.261784
0.295203 0.295203 0.295203
0.329372 0.329372 0.329372
0.364290 0.364290 0.364290
0.399957 0.399957 0.399957
0.436373 0.436373 0.436373
0.473538 0.473538 0.473538
0.315615 0.315615 0.315615
0.350233 0.350233 0.350233
0.385600 0.385600 0.385600
0.421717 0.421717 0.421717
0.458582 0.458582 0.458582
0.496197 0.496197 0.496197
0.533955 0.533955 0.533955
0.570970 0.570970 0.570970
0.407180 0.407180 0.407180
0.443746 0.443746 0.443746
0.481061 0.481061 0.481061
0.518939 0.518939 0.518939
0.556254 0.556254 0.556254
0.592820 0.592820 0.592820
0.628637 0.628637 0.628637
0.663704 0.663704 0.663704
0.503803 0.503803 0.503803
0.541418 0.541418 0.541418
0.578283 0.578283 0.578283
0.614400 0.614400 0.614400
0.649767 0.649767 0.649767
0.684385 0.684385 0.684385
0.724976 0.724976 0.724976
0.765104 0.765104 0.765104
0.600043 0.600043 0.600043
0.635710 0.635710 0.635710
0.670628 0.670628 0.670628
0.706775 0.706775 0.706775
0.749915 0.749915 0.749915
0.785946 0.785946 0.785946
0.816131 0.816131 0.816131
0.841495 0.841495 0.841495
0.010641 0.010641 0.010641
0.037766 0.037766 0.037766
0.065642 0.065642 0.065642
0.094266 0.094266 0.094266
0.123640 0.123640 0.123640
0.153762 0.153762 0.153762
0.184634 0.184634 0.184634
0.216256 0.216256 0.216256
0.082726 0.082726 0.082726
0.111800 0.111800 0.111800
0.141623 0.141623 0.141623
0.172196 0.172196 0.172196
0.203517 0.203517 0.203517
0.235588 0.235588 0.235588
0.268408 0.268408 0.268408
0.301977 0.301977 0.301977
0.159877 0.159877 0.159877
0.190899 0.190899 0.190899
0.222670 0.222670 0.222670
0.255190 0.255190 0.255190
0.288460 0.288460 0.288460
0.322478 0.322478 0.322478
0.357246 0.357246 0.357246
0.392763 0.392763 0.392763
0.242092 0.242092 0.242092
0.275062 0.275062 0.275062
0.308781 0.308781 0.308781
0.343249 0.343249 0.343249
0.378467 0.378467 0.378467
0.414433 0.414433 0.414433
0.451149 0.451149 0.451149
0.488614 0.488614 0.488614
0.329372 0.329372 0.329372
0.364290 0.364290 0.364290
0.399957 0.399957 0.399957
0.436373 0.436373 0.436373
0.473538 0.473538 0.473538
0.511386 0.511386 0.511386
0.548851 0.548851 0.548851
0.585567 0.585567 0.585567
0.421717 0.421717 0.421717
0.458582 0.458582 0.458582
0.496197 0.496197 0.496197
0.533955 0.533955 0.533955
0.570970 0.570970 0.570970
0.607237 0.607237 0.607237
0.642754 0.642754 0.642754
0.677522 0.677522 0.677522
0.518939 0.518939 0.518939
0.556254 0.556254 0.556254
0.592820 0.592820 0.592820
0.628637 0.628637 0.628637
0.663704 0.663704 0.663704
0.698023 0.698023 0.698023
0.741901 0.741901 0.741901
0.779244 0.779244 0.779244
0.614400 0.614400 0.614400
0.649767 0.649767 0.649767
0.684385 0.684385 0.684385
0.724976 0.724976 0.724976
0.765104 0.765104 0.765104
0.798659 0.798659 0.798659
0.826804 0.826804 0.826804
0.850483 0.850483 0.850483
0.021401 0.021401 0.021401
0.048827 0.048827 0.048827
0.077001 0.077001 0.077001
0.105925 0.105925 0.105925
0.135599 0.135599 0.135599
0.166021 0.166021 0.166021
0.197193 0.197193 0.197193
0.229114 0.229114 0.229114
0.094266 0.094266 0.094266
0.123640 0.123640 0.123640
0.153762 0.153762 0.153762
0.184634 0.184634 0.184634
0.216256 0.216256 0.216256
0.248626 0.248626 0.248626
0.281746 0.281746 0.281746
0.315615 0.315615 0.315615
0.172196 0.172196 0.172196
0.203517 0.203517 0.203517
0.235588 0.235588 0.235588
0.268408 0.268408 0.268408
0.301977 0.301977 0.301977
0.336296 0.336296 0.336296
0.371363 0.371363 0.371363
0.407180 0.407180 0.407180
0.255190 0.255190 0.255190
0.288460 0.288460 0.288460
0.322478 0.322478 0.322478
0.357246 0.357246 0.357246
0.392763 0.392763 0.392763
0.429030 0.429030 0.429030
0.466045 0.466045 0.466045
0.503803 0.503803 0.503803
0.343249 0.343249 0.343249
0.378467 0.378467 0.378467
0.414433 0.414433 0.414433
0.451149 0.451149 0.451149
0.488614 0.488614 0.488614
0.526462 0.526462 0.526462
0.563627 0.563627 0.563627
0.600043 0.600043 0.600043
0.436373 0.436373 0.436373
0.473538 0.473538 0.473538
0.511386 0.511386 0.511386
0.548851 0.548851 0.548851
0.585567 0.585567 0.585567
0.621533 0.621533 0.621533
0.656751 0.656751 0.656751
0.691219 0.691219 0.691219
0.533955 0.533955 0.533955
0.570970 0.570970 0.570970
0.607237 0.607237 0.607237
0.642754 0.642754 0.642754
0.677522 0.677522 0.677522
0.716042 0.716042 0.716042
0.757645 0.757645 0.757645
0.792415 0.792415 0.792415
0.628637 0.628637 0.628637
0.663704 0.663704 0.663704
0.698023 0.698023 0.698023
0.741901 0.741901 0.741901
0.779244 0.779244 0.779244
0.810509 0.810509 0.810509
0.836765 0.836765 0.836765
0.858880 0.858880 0.858880
0.032281 0.032281 0.032281
0.060007 0.060007 0.060007
0.088481 0.088481 0.088481
0.117705 0.117705 0.117705
0.147678 0.147678 0.147678
0.178400 0.178400 0.178400
0.209871 0.209871 0.209871
0.242092 0.242092 0.242092
0.105925 0.105925 0.105925
0.135599 0.135599 0.135599
0.166021 0.166021 0.166021
0.197193 0.197193 0.197193
0.229114 0.229114 0.229114
0.261784 0.261784 0.261784
0.295203 0.295203 0.295203
0.329372 0.329372 0.329372
0.184634 0.184634 0.184634
0.216256 0.216256 0.216256
0.248626 0.248626 0.248626
0.281746 0.281746 0.281746
0.315615 0.315615 0.315615
0.350233 0.350233 0.350233
0.385600 0.385600 0.385600
0.421717 0.421717 0.421717
0.268408 0.268408 0.268408
0.301977 0.301977 0.301977
0.336296 0.336296 0.336296
0.371363 0.371363 0.371363
0.407180 0.407180 0.407180
0.443746 0.443746 0.443746
0.481061 0.481061 0.481061
0.518939 0.518939 0.518939
0.357246 0.357246 0.357246
0.392763 0.392763 0.392763
0.429030 0.429030 0.429030
0.466045 0.466045 0.466045
0.503803 0.503803 0.503803
0.541418 0.541418 0.541418
0.578283 0.578283 0.578283
0.614400 0.614400 0.614400
0.451149 0.451149 0.451149
0.488614 0.488614 0.488614
0.526462 0.526462 0.526462
0.563627 0.563627 0.563627
0.600043 0.600043 0.600043
0.635710 0.635710 0.635710
0.670628 0.670628 0.670628
0.706775 0.706775 0.706775
0.548851 0.548851 0.548851
0.585567 0.585567 0.585567
0.621533 0.621533 0.621533
0.656751 0.656751 0.656751
0.691219 0.691219 0.691219
0.733592 0.733592 0.733592
0.772300 0.772300 0.772300
0.804688 0.804688 0.804688
0.642754 0.642754 0.642754
0.677522 0.677522 0.677522
0.716042 0.716042 0.716042
0.757645 0.757645 0.757645
0.792415 0.792415 0.792415
0.821560 0.821560 0.821560
0.846065 0.846065 0.846065
0.866730 0.866730 0.866730
0.043282 0.043282 0.043282
0.071307 0.071307 0.071307
0.100081 0.100081 0.100081
0.129604 0.129604 0.129604
0.159877 0.159877 0.159877
0.190899 0.190899 0.190899
0.222670 0.222670 0.222670
0.255190 0.255190 0.255190
0.117705 0.117705 0.117705
0.147678 0.147678 0.147678
0.178400 0.178400 0.178400
0.209871 0.209871 0.209871
0.242092 0.242092 0.242092
0.275062 0.275062 0.275062
0.308781 0.308781 0.308781
0.343249 0.343249 0.343249
0.197193 0.197193 0.197193
0.229114 0.229114 0.229114
0.261784 0.261784 0.261784
0.295203 0.295203 0.295203
0.329372 0.329372 0.329372
0.364290 0.364290 0.364290
0.399957 0.399957 0.399957
0.436373 0.436373 0.436373
0.281746 0.281746 0.281746
0.315615 0.315615 0.315615
0.350233 0.350233 0.350233
0.385600 0.385600 0.385600
0.421717 0.421717 0.421717
0.458582 0.458582 0.458582
0.496197 0.496197 0.496197
0.533955 0.533955 0.533955
0.371363 0.371363 0.371363
0.407180 0.407180 0.407180
0.443746 0.443746 0.443746
0.481061 0.481061 0.481061
0.518939 0.518939 0.518939
0.556254 0.556254 0.556254
0.592820 0.592820 0.592820
0.628637 0.628637 0.628637
0.466045 0.466045 0.466045
0.503803 0.503803 0.503803
0.541418 0.541418 0.541418
0.578283 0.578283 0.578283
0.614400 0.614400 0.614400
0.649767 0.649767 0.649767
0.684385 0.684385 0.684385
0.724976 0.724976 0.724976
0.563627 0.563627 0.563627
0.600043 0.600043 0.600043
0.635710 0.635710 0.635710
0.670628 0.670628 0.670628
0.706775 0.706775 0.706775
0.749915 0.749915 0.749915
0.785946 0.785946 0.785946
0.816131 0.816131 0.816131
0.656751 0.656751 0.656751
0.691219 0.691219 0.691219
0.733592 0.733592 0.733592
0.772300 0.772300 0.772300
0.804688 0.804688 0.804688
0.831870 0.831870 0.831870
0.854753 0.854753 0.854753
0.874072 0.874072 0.874072
0.054402 0.054402 0.054402
0.082726 0.082726 0.082726
0.111800 0.111800 0.111800
0.141623 0.141623 0.141623
0.172196 0.172196 0.172196
0.203517 0.203517 0.203517
0.235588 0.235588 0.235588
0.268408 0.268408 0.268408
0.129604 0.129604 0.129604
0.159877 0.159877 0.159877
0.190899 0.190899 0.190899
0.222670 0.222670 0.222670
0.255190 0.255190 0.255190
0.288460 0.288460 0.288460
0.322478 0.322478 0.322478
0.357246 0.357246 0.357246
0.209871 0.209871 0.209871
0.242092 0.242092 0.242092
0.275062 0.275062 0.275062
0.308781 0.308781 0.308781
0.343249 0.343249 0.343249
0.378467 0.378467 0.378467
0.414433 0.414433 0.414433
0.451149 0.451149 0.451149
0.295203 0.295203 0.295203
0.329372 0.329372 0.329372
0.364290 0.364290 0.364290
0.399957 0.399957 0.399957
0.436373 0.436373 0.436373
0.473538 0.473538 0.473538
0.511386 0.511386 0.511386
0.548851 0.548851 0.548851
0.385600 0.385600 0.385600
0.421717 0.421717 0.421717
0.458582 0.458582 0.458582
0.496197 0.496197 0.496197
0.533955 0.533955 0.533955
0.570970 0.570970 0.570970
0.607237 0.607237 0.607237
0.642754 0.642754 0.642754
0.481061 0.481061 0.481061
0.518939 0.518939 0.518939
0.556254 0.556254 0.556254
0.592820 0.592820 0.592820
0.628637 0.628637 0.628637
0.663704 0.663704 0.663704
0.698023 0.698023 0.698023
0.741901 0.741901 0.741901
0.578283 0.578283 0.578283
0.614400 0.614400 0.614400
0.649767 0.649767 0.649767
0.684385 0.684385 0.684385
0.724976 0.724976 0.724976
0.765104 0.765104 0.765104
0.798659 0.798659 0.798659
0.826804 0.826804 0.826804
0.670628 0.670628 0.670628
0.706775 0.706775 0.706775
0.749915 0.749915 0.749915
0.785946 0.785946 0.785946
0.816131 0.816131 0.816131
0.841495 0.841495 0.841495
0.862871 0.862871 0.862871
0.880941 0.880941 0.880941
0.065642 0.065642 0.065642
0.094266 0.094266 0.094266
0.123640 0.123640 0.123640
0.153762 0.153762 0.153762
0.184634 0.184634 0.184634
0.216256 0.216256 0.216256
0.248626 0.248626 0.248626
0.281746 0.281746 0.281746
0.141623 0.141623 0.141623
0.172196 0.172196 0.172196
0.203517 0.203517 0.203517
0.235588 0.235588 0.235588
0.268408 0.268408 0.268408
0.301977 0.301977 0.301977
0.336296 0.336296 0.336296
0.371363 0.371363 0.371363
0.222670 0.222670 0.222670
0.255190 0.255190 0.255190
0.288460 0.288460 0.288460
0.322478 0.322478 0.322478
0.357246 0.357246 0.357246
0.392763 0.392763 0.392763
0.429030 0.429030 0.429030
0.466045 0.466045 0.466045
0.308781 0.308781 0.308781
0.343249 0.343249 0.343249
0.378467 0.378467 0.378467
0.414433 0.414433 0.414433
0.451149 0.451149 0.451149
0.488614 0.488614 0.488614
0.526462 0.526462 0.526462
0.563627 0.563627 0.563627
0.399957 0.399957 0.399957
0.436373 0.436373 0.436373
0.473538 0.473538 0.473538
0.511386 0.511386 0.511386
0.548851 0.548851 0.548851
0.585567 0.585567 0.585567
0.621533 0.621533 0.621533
0.656751 0.656751 0.656751
0.496197 0.496197 0.496197
0.533955 0.533955 0.533955
0.570970 0.570970 0.570970
0.607237 0.607237 0.607237
0.642754 0.642754 0.642754
0.677522 0.677522 0.677522
0.716042 0.716042 0.716042
0.757645 0.757645 0.757645
0.592820 0.592820 0.592820
0.628637 0.628637 0.628637
0.663704 0.663704 0.663704
0.698023 0.698023 0.698023
0.741901 0.741901 0.741901
0.779244 0.779244 0.779244
0.810509 0.810509 0.810509
0.836765 0.836765 0.836765
0.684385 0.684385 0.684385
0.724976 0.724976 0.724976
0.765104 0.765104 0.765104
0.798659 0.798659 0.798659
0.826804 0.826804 0.826804
0.850483 0.850483 0.850483
0.870462 0.870462 0.870462
0.887371 0.887371 0.887371
0.077001 0.077001 0.077001
0.105925 0.105925 0.105925
0.135599 0.135599 0.135599
0.166021 0.166021 0.166021
0.197193 0.197193 0.197193
0.229114 0.229114 0.229114
0.261784 0.261784 0.261784
0.295203 0.295203 0.295203
0.153762 0.153762 0.153762
0.184634 0.184634 0.184634
0.216256 0.216256 0.216256
0.248626 0.248626 0.248626
0.281746 0.281746 0.281746
0.315615 0.315615 0.315615
0.350233 0.350233 0.350233
0.385600 0.385600 0.385600
0.235588 0.235588 0.235588
0.268408 0.268408 0.268408
0.301977 0.301977 0.301977
0.336296 0.336296 0.336296
0.371363 0.371363 0.371363
0.407180 0.407180 0.407180
0.443746 0.443746 0.443746
0.481061 0.481061 0.481061
0.322478 0.322478 0.322478
0.357246 0.357246 0.357246
0.392763 0.392763 0.392763
0.429030 0.429030 0.429030
0.466045 0.466045 0.466045
0.503803 0.503803 0.503803
0.541418 0.541418 0.541418
0.578283 0.578283 0.578283
0.414433 0.414433 0.414433
0.451149 0.451149 0.451149
0.488614 0.488614 0.488614
0.526462 0.526462 0.526462
0.563627 0.563627 0.563627
0.600043 0.600043 0.600043
0.635710 0.635710 0.635710
0.670628 0.670628 0.670628
0.511386 0.511386 0.511386
0.548851 0.548851 0.548851
0.585567 0.585567 0.585567
0.621533 0.621533 0.621533
0.656751 0.656751 0.656751
0.691219 0.691219 0.691219
0.733592 0.733592 0.733592
0.772300 0.772300 0.772300
0.607237 0.607237 0.607237
0.642754 0.642754 0.642754
0.677522 0.677522 0.677522
0.716042 0.716042 0.716042
0.757645 0.757645 0.757645
0.792415 0.792415 0.792415
0.821560 0.821560 0.821560
0.846065 0.846065 0.846065
0.698023 0.698023 0.698023
0.741901 0.741901 0.741901
0.779244 0.779244 0.779244
0.810509 0.810509 0.810509
0.836765 0.836765 0.836765
0.858880 0.858880 0.858880
0.877563 0.877563 0.877563
0.893393 0.893393 0.893393
