assets/luts/bw.cube
# Beauty Camera 3D LUT
# Filter: B&W (bw)
# Category: B&W
TITLE "B&W"
LUT_3D_SIZE 32
DOMAIN_MIN 0.0 0.0 0.0
DOMAIN_MAX 1.0 1.0 1.0
0.000000 0.000000 0.000000
0.006636 0.006636 0.006636
0.013319 0.013319 0.013319
0.020049 0.020049 0.020049
0.026826 0.026826 0.026826
0.033650 0.033650 0.033650
0.040520 0.040520 0.040520
0.047438 0.047438 0.047438
0.054402 0.054402 0.054402
0.061413 0.061413 0.061413
0.068470 0.068470 0.068470
0.075575 0.075575 0.075575
0.082726 0.082726 0.082726
0.089925 0.089925 0.089925
0.097170 0.097170 0.097170
0.104461 0.104461 0.104461
0.111800 0.111800 0.111800
0.119186 0.119186 0.119186
0.126618 0.126618 0.126618
0.134097 0.134097 0.134097
0.141623 0.141623 0.141623
0.149196 0.149196 0.149196
0.156816 0.156816 0.156816
0.164482 0.164482 0.164482
0.172196 0.172196 0.172196
0.179956 0.179956 0.179956
0.187763 0.187763 0.187763
0.195617 0.195617 0.195617
0.203517 0.203517 0.203517
0.211465 0.211465 0.211465
0.219459 0.219459 0.219459
0.227500 0.227500 0.227500
0.017352 0.017352 0.017352
0.024110 0.024110 0.024110
0.030915 0.030915 0.030915
0.037766 0.037766 0.037766
0.044665 0.044665 0.044665
0.051610 0.051610 0.051610
0.058603 0.058603 0.058603
0.065642 0.065642 0.065642
0.072727 0.072727 0.072727
0.079860 0.079860 0.079860
0.087040 0.087040 0.087040
0.094266 0.094266 0.094266
0.101539 0.101539 0.101539
0.108859 0.108859 0.108859
0.116226 0.116226 0.116226
0.123640 0.123640 0.123640
0.131100 0.131100 0.131100
0.138607 0.138607 0.138607
0.146161 0.146161 0.146161
0.153762 0.153762 0.153762
0.161410 0.161410 0.161410
0.169105 0.169105 0.169105
0.176846 0.176846 0.176846
0.184634 0.184634 0.184634
0.192469 0.192469 0.192469
0.200351 0.200351 0.200351
0.208280 0.208280 0.208280
0.216256 0.216256 0.216256
0.224278 0.224278 0.224278
0.232347 0.232347 0.232347
0.240463 0.240463 0.240463
0.248626 0.248626 0.248626
0.035020 0.035020 0.035020
0.041900 0.041900 0.041900
0.048827 0.048827 0.048827
0.055800 0.055800 0.055800
0.062820 0.062820 0.062820
0.069888 0.069888 0.069888
0.077001 0.077001 0.077001
0.084162 0.084162 0.084162
0.091370 0.091370 0.091370
0.098624 0.098624 0.098624
0.105925 0.105925 0.105925
0.113274 0.113274 0.113274
0.120668 0.120668 0.120668
0.128110 0.128110 0.128110
0.135599 0.135599 0.135599
0.143134 0.143134 0.143134
0.150716 0.150716 0.150716
0.158345 0.158345 0.158345
0.166021 0.166021 0.166021
0.173744 0.173744 0.173744
0.181513 0.181513 0.181513
0.189330 0.189330 0.189330
0.197193 0.197193 0.197193
0.205103 0.205103 0.205103
0.213060 0.213060 0.213060
0.221063 0.221063 0.221063
0.229114 0.229114 0.229114
0.237211 0.237211 0.237211
0.245355 0.245355 0.245355
0.253546 0.253546 0.253546
0.261784 0.261784 0.261784
0.270069 0.270069 0.270069
0.053005 0.053005 0.053005
0.060007 0.060007 0.060007
0.067055 0.067055 0.067055
0.074150 0.074150 0.074150
0.081292 0.081292 0.081292
0.088481 0.088481 0.088481
0.095717 0.095717 0.095717
0.102999 0.102999 0.102999
0.110329 0.110329 0.110329
0.117705 0.117705 0.117705
0.125128 0.125128 0.125128
0.132598 0.132598 0.132598
0.140114 0.140114 0.140114
0.147678 0.147678 0.147678
0.155288 0.155288 0.155288
0.162945 0.162945 0.162945
0.170649 0.170649 0.170649
0.178400 0.178400 0.178400
0.186198 0.186198 0.186198
0.194042 0.194042 0.194042
0.201933 0.201933 0.201933
0.209871 0.209871 0.209871
0.217856 0.217856 0.217856
0.225888 0.225888 0.225888
0.233967 0.233967 0.233967
0.242092 0.242092 0.242092
0.250264 0.250264 0.250264
0.258483 0.258483 0.258483
0.266749 0.266749 0.266749
0.275062 0.275062 0.275062
0.283421 0.283421 0.283421
0.291828 0.291828 0.291828
0.071307 0.071307 0.071307
0.078430 0.078430 0.078430
0.085600 0.085600 0.085600
0.092817 0.092817 0.092817
0.100081 0.100081 0.100081
0.107391 0.107391 0.107391
0.114749 0.114749 0.114749
0.122153 0.122153 0.122153
0.129604 0.129604 0.129604
0.137102 0.137102 0.137102
0.144647 0.144647 0.144647
0.152238 0.152238 0.152238
0.159877 0.159877 0.159877
0.167562 0.167562 0.167562
0.175294 0.175294 0.175294
0.183073 0.183073 0.183073
0.190899 0.190899 0.190899
0.198771 0.198771 0.198771
0.206691 0.206691 0.206691
0.214657 0.214657 0.214657
0.222670 0.222670 0.222670
0.230730 0.230730 0.230730
0.238836 0.238836 0.238836
0.246990 0.246990 0.246990
0.255190 0.255190 0.255190
0.263437 0.263437 0.263437
0.271731 0.271731 0.271731
0.280072 0.280072 0.280072
0.288460 0.288460 0.288460
0.296894 0.296894 0.296894
0.305375 0.305375 0.305375
0.313903 0.313903 0.313903
0.089925 0.089925 0.089925
0.097170 0.097170 0.097170
0.104461 0.104461 0.104461
0.111800 0.111800 0.111800
0.119186 0.119186 0.119186
0.126618 0.126618 0.126618
0.134097 0.134097 0.134097
0.141623 0.141623 0.141623
0.149196 0.149196 0.149196
0.156816 0.156816 0.156816
0.164482 0.164482 0.164482
0.172196 0.172196 0.172196
0.179956 0.179956 0.179956
0.187763 0.187763 0.187763
0.195617 0.195617 0.195617
0.203517 0.203517 0.203517
0.211465 0.211465 0.211465
0.219459 0.219459 0.219459
0.227500 0.227500 0.227500
0.235588 0.235588 0.235588
0.243723 0.243723 0.243723
0.251904 0.251904 0.251904
0.260133 0.260133 0.260133
0.268408 0.268408 0.268408
0.276730 0.276730 0.276730
0.285099 0.285099 0.285099
0.293515 0.293515 0.293515
0.301977 0.301977 0.301977
0.310486 0.310486 0.310486
0.319043 0.319043 0.319043
0.327646 0.327646 0.327646
0.336296 0.336296 0.336296
0.108859 0.108859 0.108859
0.116226 0.116226 0.116226
0.123640 0.123640 0.123640
0.131100 0.131100 0.131100
0.138607 0.138607 0.138607
0.146161 0.146161 0.146161
0.153762 0.153762 0.153762
0.161410 0.161410 0.161410
0.169105 0.169105 0.169105
0.176846 0.176846 0.176846
0.184634 0.184634 0.184634
0.192469 0.192469 0.192469
0.200351 0.200351 0.200351
0.208280 0.208280 0.208280
0.216256 0.216256 0.216256
0.224278 0.224278 0.224278
0.232347 0.232347 0.232347
0.240463 0.240463 0.240463
0.248626 0.248626 0.248626
0.256836 0.256836 0.256836
0.265092 0.265092 0.265092
0.273396 0.273396 0.273396
0.281746 0.281746 0.281746
0.290143 0.290143 0.290143
0.298586 0.298586 0.298586
0.307077 0.307077 0.307077
0.315615 0.315615 0.315615
0.324199 0.324199 0.324199
0.332830 0.332830 0.332830
0.341508 0.341508 0.341508
0.350233 0.350233 0.350233
0.359004 0.359004 0.359004
0.128110 0.128110 0.128110
0.135599 0.135599 0.135599
0.143134 0.143134 0.143134
0.150716 0.150716 0.150716
0.158345 0.158345 0.158345
0.166021 0.166021 0.166021
0.173744 0.173744 0.173744
0.181513 0.181513 0.181513
0.189330 0.189330 0.189330
0.197193 0.197193 0.197193
0.205103 0.205103 0.205103
0.213060 0.213060 0.213060
0.221063 0.221063 0.221063
0.229114 0.229114 0.229114
0.237211 0.237211 0.237211
0.245355 0.245355 0.245355
0.253546 0.253546 0.253546
0.261784 0.261784 0.261784
0.270069 0.270069 0.270069
0.278400 0.278400 0.278400
0.286778 0.286778 0.286778
0.295203 0.295203 0.295203
0.303675 0.303675 0.303675
0.312194 0.312194 0.312194
0.320760 0.320760 0.320760
0.329372 0.329372 0.329372
0.338031 0.338031 0.338031
0.346737 0.346737 0.346737
0.355490 0.355490 0.355490
0.364290 0.364290 0.364290
0.373136 0.373136 0.373136
0.382030 0.382030 0.382030
0.147678 0.147678 0.147678
0.155288 0.155288 0.155288
0.162945 0.162945 0.162945
0.170649 0.170649 0.170649
0.178400 0.178400 0.178400
0.186198 0.186198 0.186198
0.194042 0.194042 0.194042
0.201933 0.201933 0.201933
0.209871 0.209871 0.209871
0.217856 0.217856 0.217856
0.225888 0.225888 0.225888
0.233967 0.233967 0.233967
0.242092 0.242092 0.242092
0.250264 0.250264 0.250264
0.258483 0.258483 0.258483
0.266749 0.266749 0.266749
0.275062 0.275062 0.275062
0.283421 0.283421 0.283421
0.291828 0.291828 0.291828
0.300281 0.300281 0.300281
0.308781 0.308781 0.308781
0.317328 0.317328 0.317328
0.325921 0.325921 0.325921
0.334562 0.334562 0.334562
0.343249 0.343249 0.343249
0.351983 0.351983 0.351983
0.360764 0.360764 0.360764
0.369592 0.369592 0.369592
0.378467 0.378467 0.378467
0.387388 0.387388 0.387388
0.396356 0.396356 0.396356
0.405371 0.405371 0.405371
0.167562 0.167562 0.167562
0.175294 0.175294 0.175294
0.183073 0.183073 0.183073
0.190899 0.190899 0.190899
0.198771 0.198771 0.198771
0.206691 0.206691 0.206691
0.214657 0.214657 0.214657
0.222670 0.222670 0.222670
0.230730 0.230730 0.230730
0.238836 0.238836 0.238836
0.246990 0.246990 0.246990
0.255190 0.255190 0.255190
0.263437 0.263437 0.263437
0.271731 0.271731 0.271731
0.280072 0.280072 0.280072
0.288460 0.288460 0.288460
0.296894 0.296894 0.296894
0.305375 0.305375 0.305375
0.313903 0.313903 0.313903
0.322478 0.322478 0.322478
0.331100 0.331100 0.331100
0.339769 0.339769 0.339769
0.348484 0.348484 0.348484
0.357246 0.357246 0.357246
0.366055 0.366055 0.366055
0.374911 0.374911 0.374911
0.383814 0.383814 0.383814
0.392763 0.392763 0.392763
0.401760 0.401760 0.401760
0.410803 0.410803 0.410803
0.419893 0.419893 0.419893
0.429030 0.429030 0.429030
0.187763 0.187763 0.187763
0.195617 0.195617 0.195617
0.203517 0.203517 0.203517
0.211465 0.211465 0.211465
0.219459 0.219459 0.219459
0.227500 0.227500 0.227500
0.235588 0.235588 0.235588
0.243723 0.243723 0.243723
0.251904 0.251904 0.251904
0.260133 0.260133 0.260133
0.268408 0.268408 0.268408
0.276730 0.276730 0.276730
0.285099 0.285099 0.285099
0.293515 0.293515 0.293515
0.301977 0.301977 0.301977
0.310486 0.310486 0.310486
0.319043 0.319043 0.319043
0.327646 0.327646 0.327646
0.336296 0.336296 0.336296
0.344992 0.344992 0.344992
0.353736 0.353736 0.353736
0.362526 0.362526 0.362526
0.371363 0.371363 0.371363
0.380247 0.380247 0.380247
0.389178 0.389178 0.389178
0.398156 0.398156 0.398156
0.407180 0.407180 0.407180
0.416251 0.416251 0.416251
0.425369 0.425369 0.425369
0.434534 0.434534 0.434534
0.443746 0.443746 0.443746
0.453005 0.453005 0.453005
0.208280 0.208280 0.208280
0.216256 0.216256 0.216256
0.224278 0.224278 0.224278
0.232347 0.232347 0.232347
0.240463 0.240463 0.240463
0.248626 0.248626 0.248626
0.256836 0.256836 0.256836
0.265092 0.265092 0.265092
0.273396 0.273396 0.273396
0.281746 0.281746 0.281746
0.290143 0.290143 0.290143
0.298586 0.298586 0.298586
0.307077 0.307077 0.307077
0.315615 0.315615 0.315615
0.324199 0.324199 0.324199
0.332830 0.332830 0.332830
0.341508 0.341508 0.341508
0.350233 0.350233 0.350233
0.359004 0.359004 0.359004
0.367823 0.367823 0.367823
0.376688 0.376688 0.376688
0.385600 0.385600 0.385600
0.394559 0.394559 0.394559
0.403565 0.403565 0.403565
0.412617 0.412617 0.412617
0.421717 0.421717 0.421717
0.430863 0.430863 0.430863
0.440056 0.440056 0.440056
0.449296 0.449296 0.449296
0.458582 0.458582 0.458582
0.467916 0.467916 0.467916
0.477296 0.477296 0.477296
0.229114 0.229114 0.229114
0.237211 0.237211 0.237211
0.245355 0.245355 0.245355
0.253546 0.253546 0.253546
0.261784 0.261784 0.261784
0.270069 0.270069 0.270069
0.278400 0.278400 0.278400
0.286778 0.286778 0.286778
0.295203 0.295203 0.295203
0.303675 0.303675 0.303675
0.312194 0.312194 0.312194
0.320760 0.320760 0.320760
0.329372 0.329372 0.329372
0.338031 0.338031 0.338031
0.346737 0.346737 0.346737
0.355490 0.355490 0.355490
0.364290 0.364290 0.364290
0.373136 0.373136 0.373136
0.382030 0.382030 0.382030
0.390970 0.390970 0.390970
0.399957 0.399957 0.399957
0.408991 0.408991 0.408991
0.418071 0.418071 0.418071
0.427199 0.427199 0.427199
0.436373 0.436373 0.436373
0.445594 0.445594 0.445594
0.454862 0.454862 0.454862
0.464177 0.464177 0.464177
0.473538 0.473538 0.473538
0.482947 0.482947 0.482947
0.492402 0.492402 0.492402
0.501902 0.501902 0.501902
0.250264 0.250264 0.250264
0.258483 0.258483 0.258483
0.266749 0.266749 0.266749
0.275062 0.275062 0.275062
0.283421 0.283421 0.283421
0.291828 0.291828 0.291828
0.300281 0.300281 0.300281
0.308781 0.308781 0.308781
0.317328 0.317328 0.317328
0.325921 0.325921 0.325921
0.334562 0.334562 0.334562
0.343249 0.343249 0.343249
0.351983 0.351983 0.351983
0.360764 0.360764 0.360764
0.369592 0.369592 0.369592
0.378467 0.378467 0.378467
0.387388 0.387388 0.387388
0.396356 0.396356 0.396356
0.405371 0.405371 0.405371
0.414433 0.414433 0.414433
0.423542 0.423542 0.423542
0.432698 0.432698 0.432698
0.441900 0.441900 0.441900
0.451149 0.451149 0.451149
0.460445 0.460445 0.460445
0.469788 0.469788 0.469788
0.479178 0.479178 0.479178
0.488614 0.488614 0.488614
0.498098 0.498098 0.498098
0.507598 0.507598 0.507598
0.517053 0.517053 0.517053
0.526462 0.526462 0.526462
0.271731 0.271731 0.271731
0.280072 0.280072 0.280072
0.288460 0.288460 0.288460
0.296894 0.296894 0.296894
0.305375 0.305375 0.305375
0.313903 0.313903 0.313903
0.322478 0.322478 0.322478
0.331100 0.331100 0.331100
0.339769 0.339769 0.339769
0.348484 0.348484 0.348484
0.357246 0.357246 0.357246
0.366055 0.366055 0.366055
0.374911 0.374911 0.374911
0.383814 0.383814 0.383814
0.392763 0.392763 0.392763
0.401760 0.401760 0.401760
0.410803 0.410803 0.410803
0.419893 0.419893 0.419893
0.429030 0.429030 0.429030
0.438213 0.438213 0.438213
0.447444 0.447444 0.447444
0.456721 0.456721 0.456721
0.466045 0.466045 0.466045
0.475416 0.475416 0.475416
0.484834 0.484834 0.484834
0.494299 0.494299 0.494299
0.503803 0.503803 0.503803
0.513277 0.513277 0.513277
0.522704 0.522704 0.522704
0.532084 0.532084 0.532084
0.541418 0.541418 0.541418
0.550704 0.550704 0.550704
0.293515 0.293515 0.293515
0.301977 0.301977 0.301977
0.310486 0.310486 0.310486
0.319043 0.319043 0.319043
0.327646 0.327646 0.327646
0.336296 0.336296 0.336296
0.344992 0.344992 0.344992
0.353736 0.353736 0.353736
0.362526 0.362526 0.362526
0.371363 0.371363 0.371363
0.380247 0.380247 0.380247
0.389178 0.389178 0.389178
0.398156 0.398156 0.398156
0.407180 0.407180 0.407180
0.416251 0.416251 0.416251
0.425369 0.425369 0.425369
0.434534 0.434534 0.434534
0.443746 0.443746 0.443746
0.453005 0.453005 0.453005
0.462310 0.462310 0.462310
0.471662 0.471662 0.471662
0.481061 0.481061 0.481061
0.490507 0.490507 0.490507
0.500000 0.500000 0.500000
0.509493 0.509493 0.509493
0.518939 0.518939 0.518939
0.528338 0.528338 0.528338
0.537690 0.537690 0.537690
0.546995 0.546995 0.546995
0.556254 0.556254 0.556254
0.565466 0.565466 0.565466
0.574631 0.574631 0.574631
0.315615 0.315615 0.315615
0.324199 0.324199 0.324199
0.332830 0.332830 0.332830
0.341508 0.341508 0.341508
0.350233 0.350233 0.350233
0.359004 0.359004 0.359004
0.367823 0.367823 0.367823
0.376688 0.376688 0.376688
0.385600 0.385600 0.385600
0.394559 0.394559 0.394559
0.403565 0.403565 0.403565
0.412617 0.412617 0.412617
0.421717 0.421717 0.421717
0.430863 0.430863 0.430863
0.440056 0.440056 0.440056
0.449296 0.449296 0.449296
0.458582 0.458582 0.458582
0.467916 0.467916 0.467916
0.477296 0.477296 0.477296
0.486723 0.486723 0.486723
0.496197 0.496197 0.496197
0.505701 0.505701 0.505701
0.515166 0.515166 0.515166
0.524584 0.524584 0.524584
0.533955 0.533955 0.533955
0.543279 0.543279 0.543279
0.552556 0.552556 0.552556
0.561787 0.561787 0.561787
0.570970 0.570970 0.570970
0.580107 0.580107 0.580107
0.589197 0.589197 0.589197
0.598240 0.598240 0.598240
0.338031 0.338031 0.338031
0.346737 0.346737 0.346737
0.355490 0.355490 0.355490
0.364290 0.364290 0.364290
0.373136 0.373136 0.373136
0.382030 0.382030 0.382030
0.390970 0.390970 0.390970
0.399957 0.399957 0.399957
0.408991 0.408991 0.408991
0.418071 0.418071 0.418071
0.427199 0.427199 0.427199
0.436373 0.436373 0.436373
0.445594 0.445594 0.445594
0.454862 0.454862 0.454862
0.464177 0.464177 0.464177
0.473538 0.473538 0.473538
0.482947 0.482947 0.482947
0.492402 0.492402 0.492402
0.501902 0.501902 0.501902
0.511386 0.511386 0.511386
0.520822 0.520822 0.520822
0.530212 0.530212 0.530212
0.539555 0.539555 0.539555
0.548851 0.548851 0.548851
0.558100 0.558100 0.558100
0.567302 0.567302 0.567302
0.576458 0.576458 0.576458
0.585567 0.585567 0.585567
0.594629 0.594629 0.594629
0.603644 0.603644 0.603644
0.612612 0.612612 0.612612
0.621533 0.621533 0.621533
0.360764 0.360764 0.360764
0.369592 0.369592 0.369592
0.378467 0.378467 0.378467
0.387388 0.387388 0.387388
0.396356 0.396356 0.396356
0.405371 0.405371 0.405371
0.414433 0.414433 0.414433
0.423542 0.423542 0.423542
0.432698 0.432698 0.432698
0.441900 0.441900 0.441900
0.451149 0.451149 0.451149
0.460445 0.460445 0.460445
0.469788 0.469788 0.469788
0.479178 0.479178 0.479178
0.488614 0.488614 0.488614
0.498098 0.498098 0.498098
0.507598 0.507598 0.507598
0.517053 0.517053 0.517053
0.526462 0.526462 0.526462
0.535823 0.535823 0.535823
0.545138 0.545138 0.545138
0.554406 0.554406 0.554406
0.563627 0.563627 0.563627
0.572801 0.572801 0.572801
0.581929 0.581929 0.581929
0.591009 0.591009 0.591009
0.600043 0.600043 0.600043
0.609030 0.609030 0.609030
0.617970 0.617970 0.617970
0.626864 0.626864 0.626864
0.635710 0.635710 0.635710
0.644510 0.644510 0.644510
0.383814 0.383814 0.383814
0.392763 0.392763 0.392763
0.401760 0.401760 0.401760
0.410803 0.410803 0.410803
0.419893 0.419893 0.419893
0.429030 0.429030 0.429030
0.438213 0.438213 0.438213
0.447444 0.447444 0.447444
0.456721 0.456721 0.456721
0.466045 0.466045 0.466045
0.475416 0.475416 0.475416
0.484834 0.484834 0.484834
0.494299 0.494299 0.494299
0.503803 0.503803 0.503803
0.513277 0.513277 0.513277
0.522704 0.522704 0.522704
0.532084 0.532084 0.532084
0.541418 0.541418 0.541418
0.550704 0.550704 0.550704
0.559944 0.559944 0.559944
0.569137 0.569137 0.569137
0.578283 0.578283 0.578283
0.587383 0.587383 0.587383
0.596435 0.596435 0.596435
0.605441 0.605441 0.605441
0.614400 0.614400 0.614400
0.623312 0.623312 0.623312
0.632177 0.632177 0.632177
0.640996 0.640996 0.640996
0.649767 0.649767 0.649767
0.658492 0.658492 0.658492
0.667170 0.667170 0.667170
0.407180 0.407180 0.407180
0.416251 0.416251 0.416251
0.425369 0.425369 0.425369
0.434534 0.434534 0.434534
0.443746 0.443746 0.443746
0.453005 0.453005 0.453005
0.462310 0.462310 0.462310
0.471662 0.471662 0.471662
0.481061 0.481061 0.481061
0.490507 0.490507 0.490507
0.500000 0.500000 0.500000
0.509493 0.509493 0.509493
0.518939 0.518939 0.518939
0.528338 0.528338 0.528338
0.537690 0.537690 0.537690
0.546995 0.546995 0.546995
0.556254 0.556254 0.556254
0.565466 0.565466 0.565466
0.574631 0.574631 0.574631
0.583749 0.583749 0.583749
0.592820 0.592820 0.592820
0.601844 0.601844 0.601844
0.610822 0.610822 0.610822
0.619753 0.619753 0.619753
0.628637 0.628637 0.628637
0.637474 0.637474 0.637474
0.646264 0.646264 0.646264
0.655008 0.655008 0.655008
0.663704 0.663704 0.663704
0.672354 0.672354 0.672354
0.680957 0.680957 0.680957
0.689514 0.689514 0.689514
0.430863 0.430863 0.430863
0.440056 0.440056 0.440056
0.449296 0.449296 0.449296
0.458582 0.458582 0.458582
0.467916 0.467916 0.467916
0.477296 0.477296 0.477296
0.486723 0.486723 0.486723
0.496197 0.496197 0.496197
0.505701 0.505701 0.505701
0.515166 0.515166 0.515166
0.524584 0.524584 0.524584
0.533955 0.533955 0.533955
0.543279 0.543279 0.543279
0.552556 0.552556 0.552556
0.561787 0.561787 0.561787
0.570970 0.570970 0.570970
0.580107 0.580107 0.580107
0.589197 0.589197 0.589197
0.598240 0.598240 0.598240
0.607237 0.607237 0.607237
0.616186 0.616186 0.616186
0.625089 0.625089 0.625089
0.633945 0.633945 0.633945
0.642754 0.642754 0.642754
0.651516 0.651516 0.651516
0.660231 0.660231 0.660231
0.668900 0.668900 0.668900
0.677522 0.677522 0.677522
0.686097 0.686097 0.686097
0.694625 0.694625 0.694625
0.704405 0.704405 0.704405
0.716042 0.716042 0.716042
0.454862 0.454862 0.454862
0.464177 0.464177 0.464177
0.473538 0.473538 0.473538
0.482947 0.482947 0.482947
0.492402 0.492402 0.492402
0.501902 0.501902 0.501902
0.511386 0.511386 0.511386
0.520822 0.520822 0.520822
0.530212 0.530212 0.530212
0.539555 0.539555 0.539555
0.548851 0.548851 0.548851
0.558100 0.558100 0.558100
0.567302 0.567302 0.567302
0.576458 0.576458 0.576458
0.585567 0.585567 0.585567
0.594629 0.594629 0.594629
0.603644 0.603644 0.603644
0.612612 0.612612 0.612612
0.621533 0.621533 0.621533
0.630408 0.630408 0.630408
0.639236 0.639236 0.639236
0.648017 0.648017 0.648017
0.656751 0.656751 0.656751
0.665438 0.665438 0.665438
0.674079 0.674079 0.674079
0.682672 0.682672 0.682672
0.691219 0.691219 0.691219
0.699719 0.699719 0.699719
0.711450 0.711450 0.711450
0.722773 0.722773 0.722773
0.733592 0.733592 0.733592
0.743932 0.743932 0.743932
0.479178 0.479178 0.479178
0.488614 0.488614 0.488614
0.498098 0.498098 0.498098
0.507598 0.507598 0.507598
0.517053 0.517053 0.517053
0.526462 0.526462 0.526462
0.535823 0.535823 0.535823
0.545138 0.545138 0.545138
0.554406 0.554406 0.554406
0.563627 0.563627 0.563627
0.572801 0.572801 0.572801
0.581929 0.581929 0.581929
0.591009 0.591009 0.591009
0.600043 0.600043 0.600043
0.609030 0.609030 0.609030
0.617970 0.617970 0.617970
0.626864 0.626864 0.626864
0.635710 0.635710 0.635710
0.644510 0.644510 0.644510
0.653263 0.653263 0.653263
0.661969 0.661969 0.661969
0.670628 0.670628 0.670628
0.679240 0.679240 0.679240
0.687806 0.687806 0.687806
0.696325 0.696325 0.696325
0.706775 0.706775 0.706775
0.718306 0.718306 0.718306
0.729323 0.729323 0.729323
0.739852 0.739852 0.739852
0.749915 0.749915 0.749915
0.759535 0.759535 0.759535
0.768734 0.768734 0.768734
0.503803 0.503803 0.503803
0.513277 0.513277 0.513277
0.522704 0.522704 0.522704
0.532084 0.532084 0.532084
0.541418 0.541418 0.541418
0.550704 0.550704 0.550704
0.559944 0.559944 0.559944
0.569137 0.569137 0.569137
0.578283 0.578283 0.578283
0.587383 0.587383 0.587383
0.596435 0.596435 0.596435
0.605441 0.605441 0.605441
0.614400 0.614400 0.614400
0.623312 0.623312 0.623312
0.632177 0.632177 0.632177
0.640996 0.640996 0.640996
0.649767 0.649767 0.649767
0.658492 0.658492 0.658492
0.667170 0.667170 0.667170
0.675801 0.675801 0.675801
0.684385 0.684385 0.684385
0.692923 0.692923 0.692923
0.702013 0.702013 0.702013
0.713757 0.713757 0.713757
0.724976 0.724976 0.724976
0.735697 0.735697 0.735697
0.745944 0.745944 0.745944
0.755739 0.755739 0.755739
0.765104 0.765104 0.765104
0.774059 0.774059 0.774059
0.782625 0.782625 0.782625
0.790819 0.790819 0.790819
0.528338 0.528338 0.528338
0.537690 0.537690 0.537690
0.546995 0.546995 0.546995
0.556254 0.556254 0.556254
0.565466 0.565466 0.565466
0.574631 0.574631 0.574631
0.583749 0.583749 0.583749
0.592820 0.592820 0.592820
0.601844 0.601844 0.601844
0.610822 0.610822 0.610822
0.619753 0.619753 0.619753
0.628637 0.628637 0.628637
0.637474 0.637474 0.637474
0.646264 0.646264 0.646264
0.655008 0.655008 0.655008
0.663704 0.663704 0.663704
0.672354 0.672354 0.672354
0.680957 0.680957 0.680957
0.689514 0.689514 0.689514
0.698023 0.698023 0.698023
0.709123 0.709123 0.709123
0.720550 0.720550 0.720550
0.731467 0.731467 0.731467
0.741901 0.741901 0.741901
0.751874 0.751874 0.751874
0.761408 0.761408 0.761408
0.770525 0.770525 0.770525
0.779244 0.779244 0.779244
0.787584 0.787584 0.787584
0.795564 0.795564 0.795564
0.803201 0.803201 0.803201
0.810509 0.810509 0.810509
0.552556 0.552556 0.552556
0.561787 0.561787 0.561787
0.570970 0.570970 0.570970
0.580107 0.580107 0.580107
0.589197 0.589197 0.589197
0.598240 0.598240 0.598240
0.607237 0.607237 0.607237
0.616186 0.616186 0.616186
0.625089 0.625089 0.625089
0.633945 0.633945 0.633945
0.642754 0.642754 0.642754
0.651516 0.651516 0.651516
0.660231 0.660231 0.660231
0.668900 0.668900 0.668900
0.677522 0.677522 0.677522
0.686097 0.686097 0.686097
0.694625 0.694625 0.694625
0.704405 0.704405 0.704405
0.716042 0.716042 0.716042
0.727160 0.727160 0.727160
0.737784 0.737784 0.737784
0.747938 0.747938 0.747938
0.757645 0.757645 0.757645
0.766927 0.766927 0.766927
0.775803 0.775803 0.775803
0.784293 0.784293 0.784293
0.792415 0.792415 0.792415
0.800186 0.800186 0.800186
0.807624 0.807624 0.807624
0.814744 0.814744 0.814744
0.821560 0.821560 0.821560
0.828087 0.828087 0.828087
0.576458 0.576458 0.576458
0.585567 0.585567 0.585567
0.594629 0.594629 0.594629
0.603644 0.603644 0.603644
0.612612 0.612612 0.612612
0.621533 0.621533 0.621533
0.630408 0.630408 0.630408
0.639236 0.639236 0.639236
0.648017 0.648017 0.648017
0.656751 0.656751 0.656751
0.665438 0.665438 0.665438
0.674079 0.674079 0.674079
0.682672 0.682672 0.682672
0.691219 0.691219 0.691219
0.699719 0.699719 0.699719
0.711450 0.711450 0.711450
0.722773 0.722773 0.722773
0.733592 0.733592 0.733592
0.743932 0.743932 0.743932
0.753815 0.753815 0.753815
