assets/luts/bw.cube
# Beauty Camera 3D LUT
# Filter: B&W (bw)
# Category: B&W
TITLE "B&W"
LUT_3D_SIZE 5
DOMAIN_MIN 0.000000 0.000000 0.000000
DOMAIN_MAX 0.903226 0.903226 0.903226
0.000000 0.000000 0.000000
0.047438 0.047438 0.047438
0.097170 0.097170 0.097170
0.149196 0.149196 0.149196
0.203517 0.203517 0.203517
0.128110 0.128110 0.128110
0.181513 0.181513 0.181513
0.237211 0.237211 0.237211
0.295203 0.295203 0.295203
0.355490 0.355490 0.355490
0.271731 0.271731 0.271731
0.331100 0.331100 0.331100
0.392763 0.392763 0.392763
0.456721 0.456721 0.456721
0.522704 0.522704 0.522704
0.430863 0.430863 0.430863
0.496197 0.496197 0.496197
0.561787 0.561787 0.561787
0.625089 0.625089 0.625089
0.686097 0.686097 0.686097
0.600043 0.600043 0.600043
0.661969 0.661969 0.661969
0.729323 0.729323 0.729323
0.793996 0.793996 0.793996
0.841495 0.841495 0.841495
0.018700 0.018700 0.018700
0.067055 0.067055 0.067055
0.117705 0.117705 0.117705
0.170649 0.170649 0.170649
0.225888 0.225888 0.225888
0.149196 0.149196 0.149196
0.203517 0.203517 0.203517
0.260133 0.260133 0.260133
0.319043 0.319043 0.319043
0.380247 0.380247 0.380247
0.295203 0.295203 0.295203
0.355490 0.355490 0.355490
0.418071 0.418071 0.418071
0.482947 0.482947 0.482947
0.548851 0.548851 0.548851
0.456721 0.456721 0.456721
0.522704 0.522704 0.522704
0.587383 0.587383 0.587383
0.649767 0.649767 0.649767
0.713757 0.713757 0.713757
0.625089 0.625089 0.625089
0.686097 0.686097 0.686097
0.757645 0.757645 0.757645
0.814744 0.814744 0.814744
0.856834 0.856834 0.856834
0.037766 0.037766 0.037766
0.087040 0.087040 0.087040
0.138607 0.138607 0.138607
0.192469 0.192469 0.192469
0.248626 0.248626 0.248626
0.170649 0.170649 0.170649
0.225888 0.225888 0.225888
0.283421 0.283421 0.283421
0.343249 0.343249 0.343249
0.405371 0.405371 0.405371
0.319043 0.319043 0.319043
0.380247 0.380247 0.380247
0.443746 0.443746 0.443746
0.509493 0.509493 0.509493
0.574631 0.574631 0.574631
0.482947 0.482947 0.482947
0.548851 0.548851 0.548851
0.612612 0.612612 0.612612
0.674079 0.674079 0.674079
0.743932 0.743932 0.743932
0.649767 0.649767 0.649767
0.713757 0.713757 0.713757
0.782625 0.782625 0.782625
0.833110 0.833110 0.833110
0.870462 0.870462 0.870462
0.057200 0.057200 0.057200
0.107391 0.107391 0.107391
0.159877 0.159877 0.159877
0.214657 0.214657 0.214657
0.271731 0.271731 0.271731
0.192469 0.192469 0.192469
0.248626 0.248626 0.248626
0.307077 0.307077 0.307077
0.367823 0.367823 0.367823
0.430863 0.430863 0.430863
0.343249 0.343249 0.343249
0.405371 0.405371 0.405371
0.469788 0.469788 0.469788
0.535823 0.535823 0.535823
0.600043 0.600043 0.600043
0.509493 0.509493 0.509493
0.574631 0.574631 0.574631
0.637474 0.637474 0.637474
0.698023 0.698023 0.698023
0.770525 0.770525 0.770525
0.674079 0.674079 0.674079
0.743932 0.743932 0.743932
0.804688 0.804688 0.804688
0.849392 0.849392 0.849392
0.882589 0.882589 0.882589
0.077001 0.077001 0.077001
0.128110 0.128110 0.128110
0.181513 0.181513 0.181513
0.237211 0.237211 0.237211
0.295203 0.295203 0.295203
0.214657 0.214657 0.214657
0.271731 0.271731 0.271731
0.331100 0.331100 0.331100
0.392763 0.392763 0.392763
0.456721 0.456721 0.456721
0.367823 0.367823 0.367823
0.430863 0.430863 0.430863
0.496197 0.496197 0.496197
0.561787 0.561787 0.561787
0.625089 0.625089 0.625089
0.535823 0.535823 0.535823
0.600043 0.600043 0.600043
0.661969 0.661969 0.661969
0.729323 0.729323 0.729323
0.793996 0.793996 0.793996
0.698023 0.698023 0.698023
0.770525 0.770525 0.770525
0.824205 0.824205 0.824205
0.863848 0.863848 0.863848
0.893393 0.893393 0.893393
