assets/luts/cinema.cube
# Beauty Camera 3D LUT
# Filter: Cinema (cinema)
# Category: Film
TITLE "Cinema"
LUT_3D_SIZE 8
DOMAIN_MIN 0.000000 0.000000 0.000000
DOMAIN_MAX 0.903226 0.903226 0.903226
0.000000 0.029878 0.031815
0.145210 0.025899 0.027836
0.304742 0.021622 0.023559
0.481406 0.016886 0.018823
0.667167 0.011906 0.013843
0.839572 0.007502 0.009438
0.918206 0.003710 0.005646
0.953779 0.000496 0.002433
0.000000 0.137682 0.021434
0.134830 0.133703 0.017455
0.294362 0.129426 0.013178
0.471026 0.124690 0.008442
0.656787 0.119710 0.003462
0.831442 0.115306 0.000000
0.914061 0.111513 0.000000
0.951437 0.108300 0.000000
0.000000 0.264137 0.009258
0.122654 0.260158 0.005279
0.282186 0.255881 0.001002
0.458850 0.251145 0.000000
0.644611 0.246165 0.000000
0.821380 0.241761 0.000000
0.908931 0.237969 0.000000
0.948538 0.234755 0.000000
0.000000 0.408886 0.000000
0.108716 0.404907 0.000000
0.268248 0.400630 0.000000
0.444912 0.395894 0.000000
0.630673 0.390914 0.000000
0.809123 0.386510 0.000000
0.902681 0.382717 0.000000
0.945006 0.379504 0.000000
0.000000 0.570252 0.000000
0.093178 0.566273 0.000000
0.252711 0.561996 0.000000
0.429374 0.557260 0.000000
0.615135 0.552280 0.000000
0.794465 0.547875 0.000000
0.895208 0.544083 0.000000
0.940783 0.540870 0.000000
0.000000 0.731358 0.000000
0.078452 0.726220 0.000000
0.237985 0.720587 0.000000
0.414649 0.714213 0.000000
0.600410 0.707355 0.000000
0.779535 0.701153 0.000000
0.887596 0.697016 0.000000
0.936482 0.693803 0.000000
0.000000 0.859303 0.000000
0.065374 0.856611 0.000000
0.224907 0.853661 0.000000
0.401570 0.850323 0.000000
0.587332 0.846731 0.000000
0.765368 0.843483 0.000000
0.880373 0.840631 0.000000
0.932400 0.838173 0.000000
0.000000 0.919952 0.000000
0.053970 0.918421 0.000000
0.213503 0.916743 0.000000
0.390166 0.914844 0.000000
0.575927 0.912800 0.000000
0.752274 0.910952 0.000000
0.873697 0.909329 0.000000
0.928627 0.907931 0.000000
0.000000 0.029057 0.123629
0.144389 0.025078 0.119650
0.303921 0.020801 0.115373
0.480585 0.016065 0.110637
0.666346 0.011085 0.105657
0.838943 0.006681 0.101253
0.917885 0.002888 0.097460
0.953598 0.000000 0.094247
0.000000 0.136861 0.113249
0.134008 0.132882 0.109270
0.293541 0.128605 0.104993
0.470204 0.123869 0.100257
0.655966 0.118889 0.095277
0.830782 0.114484 0.090872
0.913724 0.110692 0.087080
0.951246 0.107479 0.083867
0.000000 0.263316 0.101072
0.121832 0.259337 0.097093
0.281365 0.255060 0.092816
0.458028 0.250324 0.088080
0.643789 0.245344 0.083100
0.820680 0.240940 0.078696
0.908574 0.237147 0.074904
0.948336 0.233934 0.071690
0.000000 0.408065 0.087135
0.107895 0.404085 0.083156
0.267427 0.399809 0.078879
0.444091 0.395072 0.074143
0.629852 0.390092 0.069163
0.808375 0.385688 0.064759
0.902300 0.381896 0.060966
0.944791 0.378682 0.057753
0.000000 0.569430 0.071597
0.092357 0.565451 0.067618
0.251889 0.561174 0.063341
0.428553 0.556438 0.058605
0.614314 0.551458 0.053625
0.793659 0.547054 0.049221
0.894797 0.543262 0.045428
0.940551 0.540048 0.042215
0.000000 0.730306 0.056871
0.077631 0.725147 0.052892
0.237163 0.719492 0.048615
0.413827 0.713093 0.043879
0.599588 0.706208 0.038899
0.778671 0.699987 0.034495
0.887155 0.696195 0.030703
0.936233 0.692981 0.027489
0.000000 0.858751 0.043793
0.064553 0.856049 0.039814
0.224085 0.853087 0.035537
0.400749 0.849737 0.030801
0.586510 0.846131 0.025821
0.764449 0.842869 0.021417
0.879904 0.840006 0.017625
0.932135 0.837539 0.014411
0.000000 0.919639 0.032389
0.053149 0.918102 0.028410
0.212681 0.916416 0.024133
0.389345 0.914510 0.019397
0.575106 0.912458 0.014417
0.751303 0.910603 0.010013
0.873202 0.908974 0.006220
0.928348 0.907570 0.003007
0.000000 0.028053 0.235806
0.143385 0.024074 0.231827
0.302918 0.019797 0.227550
0.479581 0.015061 0.222814
0.665342 0.010081 0.217834
0.838171 0.005677 0.213430
0.917492 0.001885 0.209637
0.953375 0.000000 0.206424
0.000000 0.135857 0.225426
0.133005 0.131878 0.221446
0.292537 0.127601 0.217169
0.469201 0.122865 0.212433
0.654962 0.117885 0.207453
0.829971 0.113481 0.203049
0.913311 0.109688 0.199257
0.951013 0.106475 0.196043
0.000000 0.262312 0.213249
0.120829 0.258333 0.209270
0.280361 0.254056 0.204993
0.457025 0.249320 0.200257
0.642786 0.244340 0.195277
0.819821 0.239936 0.190873
0.908136 0.236144 0.187081
0.948089 0.232930 0.183867
0.000000 0.407061 0.199312
0.106891 0.403082 0.195332
0.266423 0.398805 0.191056
0.443087 0.394069 0.186319
0.628848 0.389089 0.181339
0.807457 0.384685 0.176935
0.901832 0.380892 0.173143
0.944526 0.377679 0.169930
0.000000 0.568427 0.183774
0.091353 0.564448 0.179795
0.250886 0.560171 0.175518
0.427549 0.555435 0.170782
0.613310 0.550455 0.165802
0.792671 0.546051 0.161398
0.894293 0.542258 0.157605
0.940266 0.539045 0.154392
0.000000 0.729014 0.169048
0.076628 0.723830 0.165069
0.236160 0.718148 0.160792
0.412824 0.711719 0.156056
0.598585 0.704801 0.151076
0.777610 0.698984 0.146672
0.886615 0.695191 0.142879
0.935927 0.691978 0.139666
0.000000 0.858075 0.155970
0.063549 0.855360 0.151991
0.223082 0.852384 0.147714
0.399746 0.849017 0.142978
0.585507 0.845393 0.137998
0.763320 0.842117 0.133594
0.879329 0.839240 0.129801
0.931810 0.836761 0.126588
0.000000 0.919254 0.144566
0.052145 0.917709 0.140587
0.211678 0.916016 0.136310
0.388341 0.914100 0.131574
0.574102 0.912039 0.126594
0.750112 0.910175 0.122190
0.872594 0.908538 0.118397
0.928005 0.907128 0.115184
0.000000 0.026877 0.367321
0.142209 0.022898 0.363342
0.301741 0.018621 0.359065
0.478405 0.013885 0.354329
0.664166 0.008905 0.349349
0.837262 0.004501 0.344945
0.917028 0.000708 0.341152
0.953113 0.000000 0.337939
0.000000 0.134681 0.356941
0.131828 0.130701 0.352962
0.291361 0.126425 0.348685
0.468024 0.121689 0.343949
0.653786 0.116708 0.338969
0.829016 0.112304 0.334564
0.912824 0.108512 0.330772
0.950738 0.105299 0.327559
0.000000 0.261136 0.344764
0.119652 0.257157 0.340785
0.279185 0.252880 0.336508
0.455848 0.248144 0.331772
0.641609 0.243164 0.326792
0.818809 0.238760 0.322388
0.907620 0.234967 0.318596
0.947797 0.231754 0.315382
0.000000 0.405884 0.330827
0.105714 0.401905 0.326848
0.265247 0.397628 0.322571
0.441911 0.392892 0.317835
0.627672 0.387912 0.312855
0.806375 0.383508 0.308451
0.901280 0.379716 0.304658
0.944215 0.376502 0.301445
0.000000 0.567250 0.315289
0.090177 0.563271 0.311310
0.249709 0.558994 0.307033
0.426373 0.554258 0.302297
0.612134 0.549278 0.297317
0.791506 0.544874 0.292913
0.893699 0.541082 0.289120
0.939931 0.537868 0.285907
0.000000 0.727491 0.300563
0.075451 0.722278 0.296584
0.234983 0.716564 0.292307
0.411647 0.710099 0.287571
0.597408 0.703142 0.282591
0.776361 0.697807 0.278187
0.885978 0.694015 0.274395
0.935567 0.690801 0.271181
0.000000 0.857277 0.287485
0.062373 0.854547 0.283506
0.221905 0.851554 0.279229
0.398569 0.848168 0.274493
0.584330 0.844525 0.269513
0.761991 0.841230 0.265109
0.878651 0.838336 0.261317
0.931427 0.835844 0.258103
0.000000 0.918800 0.276081
0.050969 0.917247 0.272102
0.210501 0.915544 0.267825
0.387165 0.913618 0.263089
0.572926 0.911545 0.258109
0.748708 0.909670 0.253705
0.871879 0.908024 0.249912
0.927600 0.906606 0.246699
0.000000 0.025527 0.518268
0.140858 0.021547 0.514289
0.300391 0.017271 0.510012
0.477054 0.012534 0.505276
0.662815 0.007554 0.500296
0.836212 0.003150 0.495892
0.916493 0.000000 0.492099
0.952811 0.000000 0.488886
0.000000 0.133330 0.507888
0.130478 0.129351 0.503909
0.290010 0.125074 0.499632
0.466674 0.120338 0.494896
0.652435 0.115358 0.489916
0.827913 0.110954 0.485511
0.912261 0.107162 0.481719
0.950420 0.103948 0.478506
0.000000 0.259786 0.495711
0.118302 0.255806 0.491732
0.277834 0.251530 0.487455
0.454498 0.246793 0.482719
0.640259 0.241813 0.477739
0.817640 0.237409 0.473335
0.907024 0.233617 0.469543
0.947460 0.230404 0.466329
0.000000 0.404534 0.481774
0.104364 0.400555 0.477795
0.263896 0.396278 0.473518
0.440560 0.391542 0.468782
0.626321 0.386562 0.463802
0.805126 0.382158 0.459398
0.900644 0.378365 0.455605
0.943855 0.375152 0.452392
0.000000 0.565900 0.466236
0.088826 0.561921 0.462257
0.248359 0.557644 0.457980
0.425022 0.552908 0.453244
0.610784 0.547928 0.448264
0.790161 0.543524 0.443860
0.893013 0.539731 0.440067
0.939543 0.536518 0.436854
0.000000 0.725733 0.451510
0.074101 0.720487 0.447531
0.233633 0.714736 0.443254
0.410297 0.708229 0.438518
0.596058 0.701227 0.433538
0.774918 0.696457 0.429134
0.885242 0.692664 0.425342
0.935151 0.689451 0.422128
0.000000 0.856356 0.438432
0.061023 0.853609 0.434453
0.220555 0.850597 0.430176
0.397219 0.847189 0.425440
0.582980 0.843522 0.420460
0.760455 0.840206 0.416056
0.877868 0.837294 0.412264
0.930985 0.834785 0.409050
0.000000 0.918276 0.427028
0.049618 0.916713 0.423049
0.209151 0.914999 0.418772
0.385814 0.913061 0.414036
0.571575 0.910974 0.409056
0.747087 0.909088 0.404652
0.871052 0.907431 0.400859
0.927133 0.906003 0.397646
0.000000 0.024077 0.680267
0.139409 0.020098 0.676288
0.298941 0.015821 0.672011
0.475605 0.011085 0.667275
0.661366 0.006105 0.662295
0.835078 0.001701 0.657891
0.915915 0.000000 0.654098
0.952484 0.000000 0.650885
0.000000 0.131881 0.669887
0.129029 0.127902 0.665908
0.288561 0.123625 0.661631
0.465225 0.118889 0.656895
0.650986 0.113909 0.651915
0.826721 0.109505 0.647511
0.911654 0.105712 0.643718
0.950077 0.102499 0.640505
0.000000 0.258336 0.657711
0.116852 0.254357 0.653732
0.276385 0.250080 0.649455
0.453049 0.245344 0.644719
0.638810 0.240364 0.639739
0.816377 0.235960 0.635334
0.906380 0.232168 0.631542
0.947096 0.228954 0.628329
0.000000 0.403085 0.643773
0.102915 0.399106 0.639794
0.262447 0.394829 0.635517
0.439111 0.390093 0.630781
0.624872 0.385113 0.625801
0.803777 0.380709 0.621397
0.899956 0.376916 0.617604
0.943466 0.373703 0.614391
0.000000 0.564451 0.628235
0.087377 0.560471 0.624256
0.246910 0.556195 0.619979
0.423573 0.551458 0.615243
0.609334 0.546478 0.610263
0.788708 0.542074 0.605859
0.892273 0.538282 0.602067
0.939124 0.535069 0.598853
0.000000 0.723834 0.613510
0.072651 0.718551 0.609530
0.232184 0.712760 0.605254
0.408847 0.706209 0.600517
0.594609 0.699412 0.595537
0.773360 0.695008 0.591133
0.884447 0.691215 0.587341
0.934702 0.688002 0.584127
0.000000 0.855362 0.600432
0.059573 0.852595 0.596452
0.219106 0.849562 0.592176
0.395769 0.846131 0.587439
0.581531 0.842438 0.582459
0.758796 0.839099 0.578055
0.877022 0.836167 0.574263
0.930507 0.833641 0.571049
0.000000 0.917710 0.589027
0.048169 0.916136 0.585048
0.207701 0.914411 0.580771
0.384365 0.912459 0.576035
0.570126 0.910358 0.571055
0.745335 0.908458 0.566651
0.870159 0.906790 0.562859
0.926628 0.905353 0.559645
0.000000 0.022737 0.838540
0.138069 0.018758 0.835452
0.297601 0.014481 0.832066
0.474265 0.009745 0.828236
0.660026 0.004765 0.824114
0.834022 0.000361 0.820386
0.915376 0.000000 0.817113
0.952180 0.000000 0.814293
0.000000 0.130541 0.830359
0.127688 0.126561 0.827114
0.287221 0.122285 0.823557
0.463884 0.117548 0.819532
0.649645 0.112568 0.815201
0.825612 0.108164 0.811285
0.911088 0.104372 0.807846
0.949757 0.101159 0.804883
0.000000 0.256996 0.820232
0.115512 0.253017 0.816793
0.275045 0.248740 0.813024
0.451708 0.244004 0.808759
0.637469 0.239024 0.804170
0.815201 0.234620 0.800019
0.905780 0.230827 0.796375
0.946758 0.227614 0.793235
0.000000 0.401744 0.807896
0.101574 0.397765 0.804221
0.261107 0.393488 0.800193
0.437771 0.388752 0.795636
0.623532 0.383772 0.790732
0.802520 0.379368 0.786296
0.899315 0.375576 0.782402
0.943104 0.372362 0.779047
0.000000 0.563110 0.793143
0.086037 0.559131 0.789187
0.245569 0.554854 0.784849
0.422233 0.550118 0.779942
0.607994 0.545138 0.774661
0.787355 0.540734 0.769885
0.891583 0.536941 0.765692
0.938735 0.533728 0.762079
0.000000 0.722066 0.778117
0.071311 0.716749 0.773873
0.230843 0.710921 0.769221
0.407507 0.704327 0.763957
0.593268 0.698071 0.758292
0.771908 0.693667 0.753170
0.883707 0.689875 0.748671
0.934284 0.686661 0.744796
0.000000 0.854436 0.763860
0.058233 0.851651 0.759343
0.217765 0.848599 0.754392
0.394429 0.845145 0.748789
0.580190 0.841429 0.742761
0.757252 0.838069 0.737309
0.876235 0.835118 0.732522
0.930062 0.832575 0.728398
0.000000 0.917183 0.750682
0.046829 0.915599 0.745912
0.206361 0.913863 0.740685
0.383025 0.911898 0.734770
0.568786 0.909784 0.728405
0.743705 0.907872 0.722649
0.869328 0.906193 0.717595
0.926159 0.904746 0.713240
0.000000 0.021528 0.915173
0.136859 0.017549 0.913550
0.296392 0.013272 0.911772
0.473056 0.008536 0.909759
0.658817 0.003556 0.907593
0.833064 0.000000 0.905635
0.914887 0.000000 0.903915
0.951904 0.000000 0.902434
0.000000 0.129331 0.910874
0.126479 0.125352 0.909170
0.286012 0.121075 0.907301
0.462675 0.116339 0.905186
0.648436 0.111359 0.902911
0.824605 0.106955 0.900853
0.910575 0.103163 0.899047
0.949467 0.099949 0.897490
0.000000 0.255787 0.905554
0.114303 0.251808 0.903747
0.273835 0.247531 0.901767
0.450499 0.242795 0.899526
0.636260 0.237815 0.897115
0.814134 0.233410 0.894935
0.905236 0.229618 0.893020
0.946450 0.226405 0.891371
0.000000 0.400535 0.899073
0.100365 0.396556 0.897142
0.259898 0.392279 0.895026
0.436561 0.387543 0.892632
0.622322 0.382563 0.890055
0.801380 0.378159 0.887725
0.898733 0.374367 0.885679
0.942775 0.371153 0.883916
0.000000 0.561901 0.891322
0.084828 0.557922 0.889243
0.244360 0.553645 0.886965
0.421024 0.548909 0.884386
0.606785 0.543929 0.881612
0.786127 0.539525 0.879103
0.890957 0.535732 0.876900
0.938381 0.532519 0.875002
0.000000 0.720461 0.883428
0.070102 0.715113 0.881198
0.229634 0.709252 0.878754
0.406298 0.702620 0.875988
0.592059 0.696862 0.873012
0.770591 0.692458 0.870321
0.883036 0.688666 0.867958
0.933905 0.685452 0.865922
0.000000 0.853595 0.875937
0.057024 0.850794 0.873564
0.216556 0.847725 0.870963
0.393220 0.844251 0.868020
0.578981 0.840514 0.864852
0.755850 0.837134 0.861988
0.875520 0.834166 0.859473
0.929658 0.831609 0.857306
0.000000 0.916705 0.869014
0.045619 0.915112 0.866508
0.205152 0.913365 0.863762
0.381816 0.911389 0.860654
0.567577 0.909263 0.857310
0.742225 0.907340 0.854286
0.868573 0.905651 0.851631
0.925732 0.904196 0.849343
