assets/luts/cinema.cube
# Beauty Camera 3D LUT
# Filter: Cinema (cinema)
# Category: Film
TITLE "Cinema"
LUT_3D_SIZE 5
DOMAIN_MIN 0.000000 0.000000 0.000000
DOMAIN_MAX 0.903226 0.903226 0.903226
0.000000 0.029878 0.031815
0.263293 0.022734 0.024670
0.575962 0.014351 0.016288
0.865776 0.006498 0.008434
0.953779 0.000496 0.002433
0.000000 0.230805 0.012468
0.243946 0.223661 0.005323
0.556615 0.215278 0.000000
0.852823 0.207425 0.000000
0.949318 0.201423 0.000000
0.000000 0.488115 0.000000
0.219170 0.480970 0.000000
0.531839 0.472587 0.000000
0.834393 0.464734 0.000000
0.942972 0.458732 0.000000
0.000000 0.773218 0.000000
0.193110 0.765369 0.000000
0.505780 0.755814 0.000000
0.812512 0.746510 0.000000
0.935437 0.739160 0.000000
0.000000 0.919952 0.000000
0.172053 0.917182 0.000000
0.484722 0.913810 0.000000
0.792738 0.910525 0.000000
0.928627 0.907931 0.000000
0.000000 0.028321 0.205941
0.261735 0.021176 0.198797
0.574405 0.012794 0.190414
0.864777 0.004940 0.182561
0.953435 0.000000 0.176559
0.000000 0.229248 0.186594
0.242388 0.222103 0.179450
0.555058 0.213721 0.171067
0.851727 0.205867 0.163214
0.948941 0.199866 0.157212
0.000000 0.486557 0.161818
0.217612 0.479412 0.154674
0.530282 0.471030 0.146291
0.833160 0.463177 0.138438
0.942547 0.457175 0.132436
0.000000 0.771529 0.135759
0.191552 0.763622 0.128614
0.504222 0.753996 0.120232
0.811116 0.744622 0.112378
0.934956 0.737218 0.106377
0.000000 0.919356 0.114701
0.170495 0.916566 0.107557
0.483165 0.913168 0.099174
0.791195 0.909859 0.091321
0.928096 0.907246 0.085319
0.000000 0.026224 0.440347
0.259638 0.019079 0.433202
0.572308 0.010697 0.424820
0.863420 0.002843 0.416967
0.952967 0.000000 0.410965
0.000000 0.227151 0.421000
0.240291 0.220006 0.413855
0.552961 0.211624 0.405473
0.850239 0.203770 0.397620
0.948428 0.197769 0.391618
0.000000 0.484460 0.396224
0.215515 0.477315 0.389079
0.528185 0.468933 0.380697
0.831485 0.461080 0.372844
0.941971 0.455078 0.366842
0.000000 0.769236 0.370165
0.189455 0.761250 0.363020
0.502125 0.751527 0.354637
0.809221 0.742059 0.346784
0.934304 0.734581 0.340782
0.000000 0.918547 0.349107
0.168398 0.915728 0.341963
0.481068 0.912296 0.333580
0.789099 0.908955 0.325727
0.927374 0.906315 0.319725
0.000000 0.023731 0.725992
0.257145 0.016586 0.716509
0.569814 0.008203 0.704965
0.861789 0.000350 0.695651
0.952406 0.000000 0.689650
0.000000 0.224658 0.699685
0.237798 0.217513 0.692540
0.550467 0.209130 0.684158
0.848450 0.201277 0.676304
0.947813 0.195275 0.670302
0.000000 0.481967 0.674909
0.213022 0.474822 0.667764
0.525691 0.466440 0.659382
0.829473 0.458586 0.651528
0.941278 0.452585 0.645527
0.000000 0.766480 0.648849
0.186962 0.758399 0.641704
0.499632 0.748560 0.633322
0.806942 0.738979 0.625469
0.933519 0.731411 0.619467
0.000000 0.917574 0.627792
0.165905 0.914722 0.620647
0.478575 0.911249 0.612265
0.786580 0.907867 0.604411
0.926507 0.905196 0.598410
0.000000 0.021528 0.915173
0.254942 0.014383 0.912237
0.567612 0.006001 0.908663
0.860331 0.000000 0.905183
0.951904 0.000000 0.902434
0.000000 0.222455 0.906987
0.235595 0.215310 0.903767
0.548265 0.206928 0.899849
0.846852 0.199074 0.896032
0.947262 0.193073 0.893018
0.000000 0.479764 0.895339
0.210819 0.472619 0.891717
0.523489 0.464237 0.887307
0.827675 0.456384 0.883013
0.940658 0.450382 0.879622
0.000000 0.764018 0.881511
0.184759 0.755851 0.877410
0.497429 0.745908 0.872418
0.804907 0.736227 0.867557
0.932818 0.728579 0.863717
0.000000 0.916705 0.869014
0.163702 0.913823 0.864481
0.476372 0.910313 0.858962
0.784330 0.906896 0.853588
0.925732 0.904196 0.849343
