assets/luts/cinema.cube
# Beauty Camera 3D LUT
# Filter: Cinema (cinema)
# Category: Film
TITLE "Cinema"
LUT_3D_SIZE 32
DOMAIN_MIN 0.0 0.0 0.0
DOMAIN_MAX 1.0 1.0 1.0
0.000000 0.029878 0.031815
0.034861 0.028858 0.030794
0.071121 0.027885 0.029822
0.107780 0.026903 0.028839
0.145210 0.025899 0.027836
0.183560 0.024871 0.026807
0.222907 0.023816 0.025753
0.263293 0.022734 0.024670
0.304742 0.021622 0.023559
0.347271 0.020482 0.022418
0.390889 0.019313 0.021249
0.435600 0.018114 0.020051
0.481406 0.016886 0.018823
0.528309 0.015629 0.017565
0.575962 0.014351 0.016288
0.622346 0.013108 0.015044
0.667167 0.011906 0.013843
0.714575 0.010746 0.012682
0.766082 0.009625 0.011562
0.806947 0.008544 0.010481
0.839572 0.007502 0.009438
0.865776 0.006498 0.008434
0.886948 0.005532 0.007468
0.904151 0.004602 0.006539
0.918206 0.003710 0.005646
0.929750 0.002853 0.004789
0.939281 0.002032 0.003969
0.947188 0.001247 0.003183
0.953779 0.000496 0.002433
0.959298 0.000000 0.001717
0.963938 0.000000 0.001035
0.967856 0.000000 0.000388
0.000000 0.055007 0.029395
0.032441 0.053987 0.028374
0.068701 0.053014 0.027402
0.105361 0.052032 0.026419
0.142790 0.051028 0.025416
0.181141 0.050000 0.024388
0.220487 0.048945 0.023333
0.260873 0.047863 0.022250
0.302323 0.046751 0.021139
0.344852 0.045611 0.019999
0.388469 0.044442 0.018830
0.433180 0.043243 0.017631
0.478987 0.042015 0.016403
0.525890 0.040758 0.015145
0.573543 0.039480 0.013868
0.619927 0.038237 0.012624
0.664748 0.037035 0.011423
0.711267 0.035875 0.010262
0.763372 0.034754 0.009142
0.804710 0.033673 0.008061
0.837713 0.032631 0.007019
0.864221 0.031627 0.006015
0.885638 0.030661 0.005048
0.903040 0.029731 0.004119
0.917258 0.028839 0.003226
0.928936 0.027982 0.002370
0.938577 0.027161 0.001549
0.946576 0.026376 0.000763
0.953243 0.025625 0.000013
0.958826 0.024909 0.000000
0.963520 0.024228 0.000000
0.967484 0.023580 0.000000
0.000000 0.081381 0.026856
0.029902 0.080360 0.025835
0.066161 0.079388 0.024863
0.102821 0.078405 0.023880
0.140251 0.077401 0.022876
0.178601 0.076373 0.021848
0.217948 0.075319 0.020793
0.258334 0.074236 0.019711
0.299783 0.073125 0.018600
0.342312 0.071984 0.017459
0.385930 0.070815 0.016290
0.430640 0.069617 0.015091
0.476447 0.068389 0.013863
0.523350 0.067131 0.012606
0.571003 0.065854 0.011328
0.617387 0.064610 0.010085
0.662208 0.063408 0.008883
0.707754 0.062248 0.007723
0.760493 0.061128 0.006602
0.802334 0.060047 0.005521
0.835738 0.059004 0.004479
0.862569 0.058000 0.003475
0.884246 0.057034 0.002509
0.901860 0.056105 0.001580
0.916251 0.055212 0.000687
0.928071 0.054355 0.000000
0.937830 0.053535 0.000000
0.945926 0.052749 0.000000
0.952674 0.051999 0.000000
0.958325 0.051283 0.000000
0.963077 0.050601 0.000000
0.967088 0.049954 0.000000
0.000000 0.108947 0.024201
0.027248 0.107926 0.023180
0.063507 0.106954 0.022208
0.100167 0.105971 0.021226
0.137597 0.104968 0.020222
0.175947 0.103939 0.019194
0.215294 0.102885 0.018139
0.255679 0.101802 0.017056
0.297129 0.100691 0.015945
0.339658 0.099551 0.014805
0.383275 0.098381 0.013636
0.427986 0.097183 0.012437
0.473793 0.095955 0.011209
0.520696 0.094697 0.009952
0.568349 0.093420 0.008674
0.614733 0.092176 0.007431
0.659554 0.090975 0.006229
0.704037 0.089814 0.005069
0.757446 0.088694 0.003948
0.799820 0.087613 0.002867
0.833649 0.086570 0.001825
0.860821 0.085566 0.000821
0.882774 0.084600 0.000000
0.900612 0.083671 0.000000
0.915186 0.082778 0.000000
0.927156 0.081921 0.000000
0.937039 0.081101 0.000000
0.945238 0.080315 0.000000
0.952072 0.079565 0.000000
0.957795 0.078849 0.000000
0.962607 0.078167 0.000000
0.966670 0.077520 0.000000
0.000000 0.137682 0.021434
0.024481 0.136661 0.020414
0.060740 0.135689 0.019441
0.097400 0.134706 0.018459
0.134830 0.133703 0.017455
0.173180 0.132675 0.016427
0.212527 0.131620 0.015372
0.252912 0.130537 0.014290
0.294362 0.129426 0.013178
0.336891 0.128286 0.012038
0.380509 0.127117 0.010869
0.425219 0.125918 0.009670
0.471026 0.124690 0.008442
0.517929 0.123433 0.007185
0.565582 0.122155 0.005907
0.611966 0.120912 0.004664
0.656787 0.119710 0.003462
0.700112 0.118549 0.002302
0.754229 0.117429 0.001181
0.797165 0.116348 0.000100
0.831442 0.115306 0.000000
0.858975 0.114302 0.000000
0.881219 0.113335 0.000000
0.899294 0.112406 0.000000
0.914061 0.111513 0.000000
0.926190 0.110657 0.000000
0.936204 0.109836 0.000000
0.944512 0.109050 0.000000
0.951437 0.108300 0.000000
0.957235 0.107584 0.000000
0.962111 0.106903 0.000000
0.966228 0.106255 0.000000
0.000000 0.167575 0.018556
0.021602 0.166554 0.017535
0.057862 0.165582 0.016563
0.094522 0.164599 0.015580
0.131951 0.163595 0.014577
0.170302 0.162567 0.013549
0.209648 0.161512 0.012494
0.250034 0.160430 0.011411
0.291484 0.159319 0.010300
0.334013 0.158178 0.009160
0.377630 0.157009 0.007991
0.422341 0.155810 0.006792
0.468148 0.154582 0.005564
0.515051 0.153325 0.004307
0.562704 0.152047 0.003029
0.609088 0.150804 0.001785
0.653909 0.149602 0.000584
0.697200 0.148442 0.000000
0.750838 0.147321 0.000000
0.794366 0.146240 0.000000
0.829116 0.145198 0.000000
0.857028 0.144194 0.000000
0.879580 0.143228 0.000000
0.897904 0.142299 0.000000
0.912875 0.141406 0.000000
0.925172 0.140549 0.000000
0.935323 0.139728 0.000000
0.943746 0.138943 0.000000
0.950767 0.138192 0.000000
0.956645 0.137477 0.000000
0.961588 0.136795 0.000000
0.965762 0.136148 0.000000
0.000000 0.198617 0.015567
0.018613 0.197596 0.014546
0.054873 0.196624 0.013574
0.091533 0.195641 0.012591
0.128962 0.194638 0.011588
0.167313 0.193610 0.010560
0.206659 0.192555 0.009505
0.247045 0.191472 0.008422
0.288495 0.190361 0.007311
0.331024 0.189221 0.006171
0.374641 0.188052 0.005002
0.419352 0.186853 0.003803
0.465159 0.185625 0.002575
0.512062 0.184367 0.001317
0.559715 0.183090 0.000040
0.606099 0.181846 0.000000
0.650920 0.180645 0.000000
0.694211 0.179484 0.000000
0.747266 0.178364 0.000000
0.791418 0.177283 0.000000
0.826667 0.176241 0.000000
0.854979 0.175237 0.000000
0.877854 0.174270 0.000000
0.896440 0.173341 0.000000
0.911626 0.172448 0.000000
0.924099 0.171592 0.000000
0.934396 0.170771 0.000000
0.942939 0.169985 0.000000
0.950061 0.169235 0.000000
0.956024 0.168519 0.000000
0.961038 0.167838 0.000000
0.965271 0.167190 0.000000
0.000000 0.230805 0.012468
0.015514 0.229785 0.011447
0.051774 0.228812 0.010475
0.088433 0.227830 0.009492
0.125863 0.226826 0.008488
0.164213 0.225798 0.007460
0.203560 0.224743 0.006406
0.243946 0.223661 0.005323
0.285395 0.222549 0.004212
0.327924 0.221409 0.003071
0.371542 0.220240 0.001902
0.416252 0.219041 0.000704
0.462059 0.217813 0.000000
0.508962 0.216556 0.000000
0.556615 0.215278 0.000000
0.602999 0.214035 0.000000
0.647820 0.212833 0.000000
0.691112 0.211673 0.000000
0.743508 0.210552 0.000000
0.788316 0.209471 0.000000
0.824089 0.208429 0.000000
0.852823 0.207425 0.000000
0.876037 0.206459 0.000000
0.894900 0.205529 0.000000
0.910312 0.204637 0.000000
0.922970 0.203780 0.000000
0.933421 0.202959 0.000000
0.942091 0.202174 0.000000
0.949318 0.201423 0.000000
0.955370 0.200707 0.000000
0.960458 0.200026 0.000000
0.964754 0.199378 0.000000
0.000000 0.264137 0.009258
0.012305 0.263117 0.008237
0.048564 0.262144 0.007265
0.085224 0.261162 0.006282
0.122654 0.260158 0.005279
0.161004 0.259130 0.004251
0.200351 0.258075 0.003196
0.240736 0.256993 0.002113
0.282186 0.255881 0.001002
0.324715 0.254741 0.000000
0.368332 0.253572 0.000000
0.413043 0.252373 0.000000
0.458850 0.251145 0.000000
0.505753 0.249888 0.000000
0.553406 0.248610 0.000000
0.599790 0.247367 0.000000
0.644611 0.246165 0.000000
0.687902 0.245005 0.000000
0.739558 0.243884 0.000000
0.785056 0.242803 0.000000
0.821380 0.241761 0.000000
0.850556 0.240757 0.000000
0.874128 0.239791 0.000000
0.893282 0.238861 0.000000
0.908931 0.237969 0.000000
0.921784 0.237112 0.000000
0.932395 0.236291 0.000000
0.941199 0.235506 0.000000
0.948538 0.234755 0.000000
0.954682 0.234039 0.000000
0.959849 0.233358 0.000000
0.964212 0.232710 0.000000
0.000000 0.298612 0.005939
0.008985 0.297591 0.004918
0.045245 0.296619 0.003946
0.081904 0.295636 0.002963
0.119334 0.294633 0.001959
0.157684 0.293604 0.000931
0.197031 0.292550 0.000000
0.237417 0.291467 0.000000
0.278866 0.290356 0.000000
0.321395 0.289216 0.000000
0.365013 0.288046 0.000000
0.409724 0.286848 0.000000
0.455530 0.285620 0.000000
0.502433 0.284362 0.000000
0.550086 0.283085 0.000000
0.596470 0.281841 0.000000
0.641291 0.280640 0.000000
0.684583 0.279479 0.000000
0.735408 0.278359 0.000000
0.781632 0.277278 0.000000
0.818534 0.276235 0.000000
0.848175 0.275231 0.000000
0.872123 0.274265 0.000000
0.891582 0.273336 0.000000
0.907480 0.272443 0.000000
0.920538 0.271586 0.000000
0.931318 0.270766 0.000000
0.940262 0.269980 0.000000
0.947718 0.269230 0.000000
0.953960 0.268514 0.000000
0.959210 0.267832 0.000000
0.963641 0.267185 0.000000
0.000000 0.334228 0.002509
0.005556 0.333207 0.001488
0.041815 0.332235 0.000516
0.078475 0.331252 0.000000
0.115905 0.330249 0.000000
0.154255 0.329221 0.000000
0.193602 0.328166 0.000000
0.233987 0.327083 0.000000
0.275437 0.325972 0.000000
0.317966 0.324832 0.000000
0.361583 0.323662 0.000000
0.406294 0.322464 0.000000
0.452101 0.321236 0.000000
0.499004 0.319978 0.000000
0.546657 0.318701 0.000000
0.593041 0.317457 0.000000
0.637862 0.316256 0.000000
0.681153 0.315095 0.000000
0.731052 0.313975 0.000000
0.778036 0.312894 0.000000
0.815547 0.311852 0.000000
0.845675 0.310848 0.000000
0.870017 0.309881 0.000000
0.889796 0.308952 0.000000
0.905956 0.308059 0.000000
0.919230 0.307203 0.000000
0.930188 0.306382 0.000000
0.939279 0.305596 0.000000
0.946857 0.304846 0.000000
0.953202 0.304130 0.000000
0.958538 0.303448 0.000000
0.963043 0.302801 0.000000
0.000000 0.370986 0.000000
0.002016 0.369965 0.000000
0.038276 0.368993 0.000000
0.074935 0.368010 0.000000
0.112365 0.367007 0.000000
0.150715 0.365979 0.000000
0.190062 0.364924 0.000000
0.230448 0.363841 0.000000
0.271898 0.362730 0.000000
0.314427 0.361590 0.000000
0.358044 0.360420 0.000000
0.402755 0.359222 0.000000
0.448561 0.357994 0.000000
0.495465 0.356736 0.000000
0.543117 0.355459 0.000000
0.589502 0.354215 0.000000
0.634322 0.353014 0.000000
0.677614 0.351853 0.000000
0.726481 0.350733 0.000000
0.774264 0.349652 0.000000
0.812411 0.348610 0.000000
0.843052 0.347606 0.000000
0.867808 0.346639 0.000000
0.887923 0.345710 0.000000
0.904358 0.344817 0.000000
0.917857 0.343961 0.000000
0.929001 0.343140 0.000000
0.938247 0.342354 0.000000
0.945954 0.341604 0.000000
0.952407 0.340888 0.000000
0.957833 0.340206 0.000000
0.962415 0.339559 0.000000
0.000000 0.408886 0.000000
0.000000 0.407865 0.000000
0.034626 0.406893 0.000000
0.071286 0.405910 0.000000
0.108716 0.404907 0.000000
0.147066 0.403879 0.000000
0.186413 0.402824 0.000000
0.226799 0.401741 0.000000
0.268248 0.400630 0.000000
0.310777 0.399490 0.000000
0.354395 0.398320 0.000000
0.399105 0.397122 0.000000
0.444912 0.395894 0.000000
0.491815 0.394636 0.000000
0.539468 0.393359 0.000000
0.585852 0.392115 0.000000
0.630673 0.390914 0.000000
0.673964 0.389753 0.000000
0.721686 0.388633 0.000000
0.770306 0.387552 0.000000
0.809123 0.386510 0.000000
0.840301 0.385506 0.000000
0.865491 0.384539 0.000000
0.885959 0.383610 0.000000
0.902681 0.382717 0.000000
0.916417 0.381861 0.000000
0.927756 0.381040 0.000000
0.937164 0.380254 0.000000
0.945006 0.379504 0.000000
0.951573 0.378788 0.000000
0.957094 0.378106 0.000000
0.961756 0.377459 0.000000
0.000000 0.447929 0.000000
0.000000 0.446908 0.000000
0.030867 0.445936 0.000000
0.067527 0.444953 0.000000
0.104957 0.443949 0.000000
0.143307 0.442921 0.000000
0.182653 0.441866 0.000000
0.223039 0.440784 0.000000
0.264489 0.439673 0.000000
0.307018 0.438532 0.000000
0.350635 0.437363 0.000000
0.395346 0.436164 0.000000
0.441153 0.434936 0.000000
0.488056 0.433679 0.000000
0.535709 0.432401 0.000000
0.582093 0.431158 0.000000
0.626914 0.429956 0.000000
0.670205 0.428796 0.000000
0.716659 0.427675 0.000000
0.766158 0.426594 0.000000
0.805675 0.425552 0.000000
0.837416 0.424548 0.000000
0.863061 0.423582 0.000000
0.883899 0.422653 0.000000
0.900923 0.421760 0.000000
0.914907 0.420903 0.000000
0.926451 0.420082 0.000000
0.936029 0.419297 0.000000
0.944013 0.418546 0.000000
0.950698 0.417831 0.000000
0.956319 0.417149 0.000000
0.961065 0.416502 0.000000
0.000000 0.488115 0.000000
0.000000 0.487094 0.000000
0.026998 0.486122 0.000000
0.063657 0.485139 0.000000
0.101087 0.484135 0.000000
0.139437 0.483107 0.000000
0.178784 0.482052 0.000000
0.219170 0.480970 0.000000
0.260619 0.479859 0.000000
0.303148 0.478718 0.000000
0.346766 0.477549 0.000000
0.391477 0.476350 0.000000
0.437283 0.475122 0.000000
0.484186 0.473865 0.000000
0.531839 0.472587 0.000000
0.578223 0.471344 0.000000
0.623044 0.470142 0.000000
0.666336 0.468982 0.000000
0.711389 0.467861 0.000000
0.761809 0.466780 0.000000
0.802061 0.465738 0.000000
0.834393 0.464734 0.000000
0.860515 0.463768 0.000000
0.881740 0.462839 0.000000
0.899081 0.461946 0.000000
0.913325 0.461089 0.000000
0.925084 0.460268 0.000000
0.934840 0.459483 0.000000
0.942972 0.458732 0.000000
0.949781 0.458017 0.000000
0.955507 0.457335 0.000000
0.960341 0.456688 0.000000
0.000000 0.529384 0.000000
0.000000 0.528363 0.000000
0.023024 0.527391 0.000000
0.059683 0.526409 0.000000
0.097113 0.525405 0.000000
0.135463 0.524377 0.000000
0.174810 0.523322 0.000000
0.215196 0.522240 0.000000
0.256646 0.521128 0.000000
0.299175 0.519988 0.000000
0.342792 0.518819 0.000000
0.387503 0.517620 0.000000
0.433309 0.516392 0.000000
0.480213 0.515135 0.000000
0.527865 0.513857 0.000000
0.574250 0.512614 0.000000
0.619070 0.511412 0.000000
0.662362 0.510252 0.000000
0.705876 0.509131 0.000000
0.757259 0.508050 0.000000
0.798280 0.507008 0.000000
0.831229 0.506004 0.000000
0.857850 0.505038 0.000000
0.879481 0.504108 0.000000
0.897153 0.503216 0.000000
0.911669 0.502359 0.000000
0.923653 0.501538 0.000000
0.933595 0.500753 0.000000
0.941882 0.500002 0.000000
0.948822 0.499286 0.000000
0.954657 0.498605 0.000000
0.959583 0.497957 0.000000
0.000000 0.570252 0.000000
0.000000 0.569231 0.000000
0.019089 0.568259 0.000000
0.055748 0.567276 0.000000
0.093178 0.566273 0.000000
0.131528 0.565244 0.000000
0.170875 0.564190 0.000000
0.211261 0.563107 0.000000
0.252711 0.561996 0.000000
0.295240 0.560856 0.000000
0.338857 0.559686 0.000000
0.383568 0.558488 0.000000
0.429374 0.557260 0.000000
0.476278 0.556002 0.000000
0.523930 0.554725 0.000000
0.570315 0.553481 0.000000
0.615135 0.552280 0.000000
0.658427 0.551119 0.000000
0.700313 0.549999 0.000000
0.752667 0.548918 0.000000
0.794465 0.547875 0.000000
0.828037 0.546871 0.000000
0.855161 0.545905 0.000000
0.877201 0.544976 0.000000
0.895208 0.544083 0.000000
0.909998 0.543226 0.000000
0.922208 0.542406 0.000000
0.932339 0.541620 0.000000
0.940783 0.540870 0.000000
0.947854 0.540154 0.000000
0.953799 0.539472 0.000000
0.958819 0.538825 0.000000
0.000000 0.610071 0.000000
0.000000 0.609051 0.000000
0.015254 0.608079 0.000000
0.051914 0.607096 0.000000
0.089344 0.606092 0.000000
0.127694 0.605064 0.000000
0.167041 0.604009 0.000000
0.207427 0.602927 0.000000
0.248876 0.601815 0.000000
0.291405 0.600675 0.000000
0.335023 0.599506 0.000000
0.379733 0.598307 0.000000
0.425540 0.597079 0.000000
0.472443 0.595822 0.000000
0.520096 0.594544 0.000000
0.566480 0.593301 0.000000
0.611301 0.592099 0.000000
0.654592 0.590939 0.000000
0.696385 0.589818 0.000000
0.748110 0.588737 0.000000
0.790677 0.587695 0.000000
0.824868 0.586691 0.000000
0.852492 0.585725 0.000000
0.874938 0.584795 0.000000
0.893277 0.583903 0.000000
0.908340 0.583046 0.000000
0.920775 0.582225 0.000000
0.931092 0.581440 0.000000
0.939692 0.580689 0.000000
0.946893 0.579974 0.000000
0.952948 0.579292 0.000000
0.958060 0.578644 0.000000
0.000000 0.648837 0.000000
0.000000 0.647817 0.000000
0.011522 0.646844 0.000000
0.048181 0.645862 0.000000
0.085611 0.644858 0.000000
0.123962 0.643830 0.000000
0.163308 0.642775 0.000000
0.203694 0.641693 0.000000
0.245144 0.640581 0.000000
0.287673 0.639441 0.000000
0.331290 0.638272 0.000000
0.376001 0.637073 0.000000
0.421807 0.635845 0.000000
0.468711 0.634588 0.000000
0.516363 0.633310 0.000000
0.562748 0.632067 0.000000
0.607568 0.630865 0.000000
0.650860 0.629705 0.000000
0.692652 0.628584 0.000000
0.743593 0.627503 0.000000
0.786924 0.626461 0.000000
0.821728 0.625457 0.000000
0.849847 0.624491 0.000000
0.872695 0.623561 0.000000
0.891363 0.622669 0.000000
0.906696 0.621812 0.000000
0.919354 0.620991 0.000000
0.929856 0.620206 0.000000
0.938610 0.619455 0.000000
0.945940 0.618739 0.000000
0.952104 0.618058 0.000000
0.957308 0.617410 0.000000
0.000000 0.686544 0.000000
0.000000 0.685523 0.000000
0.007891 0.684551 0.000000
0.044551 0.683568 0.000000
0.081981 0.682564 0.000000
0.120331 0.681536 0.000000
0.159678 0.680482 0.000000
0.200063 0.679399 0.000000
0.241513 0.678288 0.000000
0.284042 0.677147 0.000000
0.327659 0.675978 0.000000
0.372370 0.674779 0.000000
0.418177 0.673551 0.000000
0.465080 0.672294 0.000000
0.512733 0.671017 0.000000
0.559117 0.669773 0.000000
0.603938 0.668571 0.000000
0.647229 0.667411 0.000000
0.689021 0.666290 0.000000
0.739121 0.665210 0.000000
0.783208 0.664167 0.000000
0.818619 0.663163 0.000000
0.847228 0.662197 0.000000
0.870475 0.661268 0.000000
0.889468 0.660375 0.000000
0.905069 0.659518 0.000000
0.917948 0.658697 0.000000
0.928633 0.657912 0.000000
0.937540 0.657162 0.000000
0.944998 0.656446 0.000000
0.951269 0.655764 0.000000
0.956563 0.655117 0.000000
0.000000 0.731358 0.000000
0.000000 0.730049 0.000000
0.004363 0.728797 0.000000
0.041023 0.727525 0.000000
0.078452 0.726220 0.000000
0.116803 0.724876 0.000000
0.156149 0.723490 0.000000
0.196535 0.722061 0.000000
0.237985 0.720587 0.000000
0.280514 0.719065 0.000000
0.324131 0.717497 0.000000
0.368842 0.715880 0.000000
0.414649 0.714213 0.000000
0.461552 0.712497 0.000000
0.509205 0.710743 0.000000
0.555589 0.709025 0.000000
0.600410 0.707355 0.000000
0.643701 0.705733 0.000000
0.685493 0.704159 0.000000
0.734701 0.702632 0.000000
0.779535 0.701153 0.000000
0.815545 0.699805 0.000000
0.844640 0.698838 0.000000
0.868281 0.697909 0.000000
0.887596 0.697016 0.000000
0.903460 0.696160 0.000000
0.916558 0.695339 0.000000
0.927424 0.694553 0.000000
0.936482 0.693803 0.000000
0.944066 0.693087 0.000000
0.950443 0.692405 0.000000
0.955827 0.691758 0.000000
0.000000 0.773218 0.000000
0.000000 0.772112 0.000000
0.000938 0.771055 0.000000
0.037598 0.769981 0.000000
0.075027 0.768879 0.000000
0.113378 0.767745 0.000000
0.152724 0.766576 0.000000
0.193110 0.765369 0.000000
0.234560 0.764124 0.000000
0.277089 0.762840 0.000000
0.320706 0.761516 0.000000
0.365417 0.760151 0.000000
0.411223 0.758744 0.000000
0.458127 0.757295 0.000000
0.505780 0.755814 0.000000
0.552164 0.754364 0.000000
0.596984 0.752954 0.000000
0.640276 0.751585 0.000000
0.682068 0.750256 0.000000
0.730338 0.748968 0.000000
0.775909 0.747719 0.000000
0.812512 0.746510 0.000000
0.842085 0.745340 0.000000
0.866115 0.744211 0.000000
0.885747 0.743121 0.000000
0.901873 0.742071 0.000000
0.915186 0.741061 0.000000
0.926230 0.740091 0.000000
0.935437 0.739160 0.000000
0.943146 0.738270 0.000000
0.949628 0.737419 0.000000
0.955101 0.736608 0.000000
0.000000 0.807572 0.000000
0.000000 0.806635 0.000000
0.000000 0.805737 0.000000
0.034276 0.804826 0.000000
0.071706 0.803891 0.000000
0.110056 0.802929 0.000000
0.149403 0.801936 0.000000
0.189788 0.800913 0.000000
0.231238 0.799856 0.000000
0.273767 0.798767 0.000000
0.317384 0.797643 0.000000
0.362095 0.796485 0.000000
0.407902 0.795291 0.000000
0.454805 0.794062 0.000000
0.502458 0.792805 0.000000
0.548842 0.791575 0.000000
0.593663 0.790379 0.000000
0.636954 0.789217 0.000000
0.678747 0.788089 0.000000
0.726039 0.786996 0.000000
0.772337 0.785936 0.000000
0.809523 0.784910 0.000000
0.839568 0.783918 0.000000
0.863980 0.782960 0.000000
0.883926 0.782035 0.000000
0.900308 0.781144 0.000000
0.913833 0.780287 0.000000
0.925054 0.779464 0.000000
0.934408 0.778674 0.000000
0.942239 0.777919 0.000000
0.948825 0.777197 0.000000
0.954385 0.776509 0.000000
0.000000 0.835882 0.000000
0.000000 0.835082 0.000000
0.000000 0.834317 0.000000
0.031058 0.833540 0.000000
0.068488 0.832742 0.000000
0.106838 0.831921 0.000000
0.146185 0.831075 0.000000
0.186571 0.830202 0.000000
0.228020 0.829301 0.000000
0.270549 0.828372 0.000000
0.314167 0.827413 0.000000
0.358877 0.826425 0.000000
0.404684 0.825407 0.000000
0.451587 0.824359 0.000000
0.499240 0.823287 0.000000
0.545624 0.822238 0.000000
0.590445 0.821218 0.000000
0.633736 0.820227 0.000000
0.675529 0.819265 0.000000
0.721809 0.818332 0.000000
0.768821 0.817429 0.000000
0.806582 0.816554 0.000000
0.837091 0.815707 0.000000
0.861880 0.814890 0.000000
0.882133 0.814101 0.000000
0.898769 0.813342 0.000000
0.912503 0.812611 0.000000
0.923897 0.811908 0.000000
0.933395 0.811235 0.000000
0.941348 0.810590 0.000000
0.948035 0.809975 0.000000
0.953681 0.809388 0.000000
0.000000 0.859303 0.000000
0.000000 0.858617 0.000000
0.000000 0.857961 0.000000
0.027945 0.857295 0.000000
0.065374 0.856611 0.000000
0.103725 0.855907 0.000000
0.143071 0.855182 0.000000
0.183457 0.854433 0.000000
0.224907 0.853661 0.000000
0.267436 0.852864 0.000000
0.311053 0.852043 0.000000
0.355764 0.851196 0.000000
0.401570 0.850323 0.000000
0.448474 0.849424 0.000000
0.496127 0.848505 0.000000
0.542511 0.847606 0.000000
0.587332 0.846731 0.000000
0.630623 0.845882 0.000000
0.672415 0.845057 0.000000
0.717654 0.844258 0.000000
0.765368 0.843483 0.000000
0.803693 0.842733 0.000000
0.834657 0.842007 0.000000
0.859817 0.841307 0.000000
0.880373 0.840631 0.000000
0.897257 0.839979 0.000000
0.911196 0.839353 0.000000
0.922760 0.838751 0.000000
0.932400 0.838173 0.000000
0.940471 0.837621 0.000000
0.947259 0.837093 0.000000
0.952989 0.836590 0.000000
0.000000 0.878755 0.000000
0.000000 0.878165 0.000000
0.000000 0.877599 0.000000
0.024936 0.877025 0.000000
0.062366 0.876436 0.000000
0.100716 0.875830 0.000000
0.140062 0.875204 0.000000
0.180448 0.874559 0.000000
0.221898 0.873894 0.000000
0.264427 0.873207 0.000000
0.308044 0.872499 0.000000
0.352755 0.871769 0.000000
0.398562 0.871017 0.000000
0.445465 0.870243 0.000000
0.493118 0.869451 0.000000
0.539502 0.868676 0.000000
0.584323 0.867922 0.000000
0.627614 0.867190 0.000000
0.669406 0.866480 0.000000
0.713579 0.865791 0.000000
0.761982 0.865123 0.000000
0.800860 0.864477 0.000000
0.832271 0.863851 0.000000
0.857794 0.863248 0.000000
0.878647 0.862665 0.000000
0.895774 0.862104 0.000000
0.909914 0.861564 0.000000
0.921646 0.861045 0.000000
0.931424 0.860547 0.000000
0.939612 0.860071 0.000000
0.946498 0.859616 0.000000
0.952311 0.859183 0.000000
0.000000 0.894975 0.000000
0.000000 0.894463 0.000000
0.000000 0.893973 0.000000
0.022032 0.893476 0.000000
0.059462 0.892966 0.000000
0.097812 0.892440 0.000000
0.137159 0.891899 0.000000
0.177544 0.891340 0.000000
0.218994 0.890764 0.000000
0.261523 0.890169 0.000000
0.305140 0.889556 0.000000
0.349851 0.888923 0.000000
0.395658 0.888272 0.000000
0.442561 0.887601 0.000000
0.490214 0.886915 0.000000
0.536598 0.886243 0.000000
0.581419 0.885591 0.000000
0.624710 0.884957 0.000000
0.666503 0.884341 0.000000
0.709591 0.883744 0.000000
0.758668 0.883166 0.000000
0.798087 0.882606 0.000000
0.829936 0.882065 0.000000
0.855814 0.881541 0.000000
0.876957 0.881037 0.000000
0.894323 0.880551 0.000000
0.908660 0.880083 0.000000
0.920555 0.879633 0.000000
0.930470 0.879203 0.000000
0.938772 0.878790 0.000000
0.945753 0.878396 0.000000
0.951647 0.878021 0.000000
0.000000 0.908549 0.000000
0.000000 0.908104 0.000000
0.000000 0.907677 0.000000
0.019233 0.907244 0.000000
0.056663 0.906800 0.000000
0.095013 0.906343 0.000000
0.134360 0.905871 0.000000
0.174746 0.905384 0.000000
0.216195 0.904882 0.000000
0.258725 0.904365 0.000000
0.302342 0.903831 0.000000
0.347053 0.903280 0.000000
0.392859 0.902713 0.000000
0.439762 0.902129 0.000000
0.487415 0.901531 0.000000
0.533800 0.900947 0.000000
0.578620 0.900378 0.000000
0.621912 0.899826 0.000000
0.663704 0.899290 0.000000
