assets/luts/clean.cube
# Beauty Camera 3D LUT
# Filter: Clean (clean)
# Category: Natural
TITLE "Clean"
LUT_3D_SIZE 32
DOMAIN_MIN 0.0 0.0 0.0
DOMAIN_MAX 1.0 1.0 1.0
0.000000 0.000000 0.000000
0.031738 0.000000 0.000000
0.068713 0.000000 0.000000
0.104910 0.000000 0.000000
0.140582 0.000000 0.000000
0.175858 0.000000 0.000000
0.210818 0.000000 0.000000
0.245514 0.000000 0.000000
0.279984 0.000000 0.000000
0.314257 0.000000 0.000000
0.348354 0.000000 0.000000
0.382295 0.000000 0.000000
0.416092 0.000000 0.000000
0.449759 0.000000 0.000000
0.483306 0.000000 0.000000
0.516741 0.000000 0.000000
0.550072 0.000000 0.000000
0.583306 0.000000 0.000000
0.616448 0.000000 0.000000
0.649505 0.000000 0.000000
0.682480 0.000000 0.000000
0.715378 0.000000 0.000000
0.748202 0.000000 0.000000
0.780956 0.000000 0.000000
0.813644 0.000000 0.000000
0.846267 0.000000 0.000000
0.878830 0.000000 0.000000
0.911333 0.000000 0.000000
0.943780 0.000000 0.000000
0.976172 0.000000 0.000000
1.000000 0.000000 0.000000
1.000000 0.000000 0.000000
0.000000 0.031738 0.000000
0.031738 0.031738 0.000000
0.068713 0.031738 0.000000
0.104910 0.031738 0.000000
0.140582 0.031738 0.000000
0.175858 0.031738 0.000000
0.210818 0.031738 0.000000
0.245514 0.031738 0.000000
0.279984 0.031738 0.000000
0.314257 0.031738 0.000000
0.348354 0.031738 0.000000
0.382295 0.031738 0.000000
0.416092 0.031738 0.000000
0.449759 0.031738 0.000000
0.483306 0.031738 0.000000
0.516741 0.031738 0.000000
0.550072 0.031738 0.000000
0.583306 0.031738 0.000000
0.616448 0.031738 0.000000
0.649505 0.031738 0.000000
0.682480 0.031738 0.000000
0.715378 0.031738 0.000000
0.748202 0.031738 0.000000
0.780956 0.031738 0.000000
0.813644 0.031738 0.000000
0.846267 0.031738 0.000000
0.878830 0.031738 0.000000
0.911333 0.031738 0.000000
0.943780 0.031738 0.000000
0.976172 0.031738 0.000000
1.000000 0.031738 0.000000
1.000000 0.031738 0.000000
0.000000 0.068713 0.000000
0.031738 0.068713 0.000000
0.068713 0.068713 0.000000
0.104910 0.068713 0.000000
0.140582 0.068713 0.000000
0.175858 0.068713 0.000000
0.210818 0.068713 0.000000
0.245514 0.068713 0.000000
0.279984 0.068713 0.000000
0.314257 0.068713 0.000000
0.348354 0.068713 0.000000
0.382295 0.068713 0.000000
0.416092 0.068713 0.000000
0.449759 0.068713 0.000000
0.483306 0.068713 0.000000
0.516741 0.068713 0.000000
0.550072 0.068713 0.000000
0.583306 0.068713 0.000000
0.616448 0.068713 0.000000
0.649505 0.068713 0.000000
0.682480 0.068713 0.000000
0.715378 0.068713 0.000000
0.748202 0.068713 0.000000
0.780956 0.068713 0.000000
0.813644 0.068713 0.000000
0.846267 0.068713 0.000000
0.878830 0.068713 0.000000
0.911333 0.068713 0.000000
0.943780 0.068713 0.000000
0.976172 0.068713 0.000000
1.000000 0.068713 0.000000
1.000000 0.068713 0.000000
0.000000 0.104910 0.000000
0.031738 0.104910 0.000000
0.068713 0.104910 0.000000
0.104910 0.104910 0.000000
0.140582 0.104910 0.000000
0.175858 0.104910 0.000000
0.210818 0.104910 0.000000
0.245514 0.104910 0.000000
0.279984 0.104910 0.000000
0.314257 0.104910 0.000000
0.348354 0.104910 0.000000
0.382295 0.104910 0.000000
0.416092 0.104910 0.000000
0.449759 0.104910 0.000000
0.483306 0.104910 0.000000
0.516741 0.104910 0.000000
0.550072 0.104910 0.000000
0.583306 0.104910 0.000000
0.616448 0.104910 0.000000
0.649505 0.104910 0.000000
0.682480 0.104910 0.000000
0.715378 0.104910 0.000000
0.748202 0.104910 0.000000
0.780956 0.104910 0.000000
0.813644 0.104910 0.000000
0.846267 0.104910 0.000000
0.878830 0.104910 0.000000
0.911333 0.104910 0.000000
0.943780 0.104910 0.000000
0.976172 0.104910 0.000000
1.000000 0.104910 0.000000
1.000000 0.104910 0.000000
0.000000 0.140582 0.000000
0.031738 0.140582 0.000000
0.068713 0.140582 0.000000
0.104910 0.140582 0.000000
0.140582 0.140582 0.000000
0.175858 0.140582 0.000000
0.210818 0.140582 0.000000
0.245514 0.140582 0.000000
0.279984 0.140582 0.000000
0.314257 0.140582 0.000000
0.348354 0.140582 0.000000
0.382295 0.140582 0.000000
0.416092 0.140582 0.000000
0.449759 0.140582 0.000000
0.483306 0.140582 0.000000
0.516741 0.140582 0.000000
0.550072 0.140582 0.000000
0.583306 0.140582 0.000000
0.616448 0.140582 0.000000
0.649505 0.140582 0.000000
0.682480 0.140582 0.000000
0.715378 0.140582 0.000000
0.748202 0.140582 0.000000
0.780956 0.140582 0.000000
0.813644 0.140582 0.000000
0.846267 0.140582 0.000000
0.878830 0.140582 0.000000
0.911333 0.140582 0.000000
0.943780 0.140582 0.000000
0.976172 0.140582 0.000000
1.000000 0.140582 0.000000
1.000000 0.140582 0.000000
0.000000 0.175858 0.000000
0.031738 0.175858 0.000000
0.068713 0.175858 0.000000
0.104910 0.175858 0.000000
0.140582 0.175858 0.000000
0.175858 0.175858 0.000000
0.210818 0.175858 0.000000
0.245514 0.175858 0.000000
0.279984 0.175858 0.000000
0.314257 0.175858 0.000000
0.348354 0.175858 0.000000
0.382295 0.175858 0.000000
0.416092 0.175858 0.000000
0.449759 0.175858 0.000000
0.483306 0.175858 0.000000
0.516741 0.175858 0.000000
0.550072 0.175858 0.000000
0.583306 0.175858 0.000000
0.616448 0.175858 0.000000
0.649505 0.175858 0.000000
0.682480 0.175858 0.000000
0.715378 0.175858 0.000000
0.748202 0.175858 0.000000
0.780956 0.175858 0.000000
0.813644 0.175858 0.000000
0.846267 0.175858 0.000000
0.878830 0.175858 0.000000
0.911333 0.175858 0.000000
0.943780 0.175858 0.000000
0.976172 0.175858 0.000000
1.000000 0.175858 0.000000
1.000000 0.175858 0.000000
0.000000 0.210818 0.000000
0.031738 0.210818 0.000000
0.068713 0.210818 0.000000
0.104910 0.210818 0.000000
0.140582 0.210818 0.000000
0.175858 0.210818 0.000000
0.210818 0.210818 0.000000
0.245514 0.210818 0.000000
0.279984 0.210818 0.000000
0.314257 0.210818 0.000000
0.348354 0.210818 0.000000
0.382295 0.210818 0.000000
0.416092 0.210818 0.000000
0.449759 0.210818 0.000000
0.483306 0.210818 0.000000
0.516741 0.210818 0.000000
0.550072 0.210818 0.000000
0.583306 0.210818 0.000000
0.616448 0.210818 0.000000
0.649505 0.210818 0.000000
0.682480 0.210818 0.000000
0.715378 0.210818 0.000000
0.748202 0.210818 0.000000
0.780956 0.210818 0.000000
0.813644 0.210818 0.000000
0.846267 0.210818 0.000000
0.878830 0.210818 0.000000
0.911333 0.210818 0.000000
0.943780 0.210818 0.000000
0.976172 0.210818 0.000000
1.000000 0.210818 0.000000
1.000000 0.210818 0.000000
0.000000 0.245514 0.000000
0.031738 0.245514 0.000000
0.068713 0.245514 0.000000
0.104910 0.245514 0.000000
0.140582 0.245514 0.000000
0.175858 0.245514 0.000000
0.210818 0.245514 0.000000
0.245514 0.245514 0.000000
0.279984 0.245514 0.000000
0.314257 0.245514 0.000000
0.348354 0.245514 0.000000
0.382295 0.245514 0.000000
0.416092 0.245514 0.000000
0.449759 0.245514 0.000000
0.483306 0.245514 0.000000
0.516741 0.245514 0.000000
0.550072 0.245514 0.000000
0.583306 0.245514 0.000000
0.616448 0.245514 0.000000
0.649505 0.245514 0.000000
0.682480 0.245514 0.000000
0.715378 0.245514 0.000000
0.748202 0.245514 0.000000
0.780956 0.245514 0.000000
0.813644 0.245514 0.000000
0.846267 0.245514 0.000000
0.878830 0.245514 0.000000
0.911333 0.245514 0.000000
0.943780 0.245514 0.000000
0.976172 0.245514 0.000000
1.000000 0.245514 0.000000
1.000000 0.245514 0.000000
0.000000 0.279984 0.000000
0.031738 0.279984 0.000000
0.068713 0.279984 0.000000
0.104910 0.279984 0.000000
0.140582 0.279984 0.000000
0.175858 0.279984 0.000000
0.210818 0.279984 0.000000
0.245514 0.279984 0.000000
0.279984 0.279984 0.000000
0.314257 0.279984 0.000000
0.348354 0.279984 0.000000
0.382295 0.279984 0.000000
0.416092 0.279984 0.000000
0.449759 0.279984 0.000000
0.483306 0.279984 0.000000
0.516741 0.279984 0.000000
0.550072 0.279984 0.000000
0.583306 0.279984 0.000000
0.616448 0.279984 0.000000
0.649505 0.279984 0.000000
0.682480 0.279984 0.000000
0.715378 0.279984 0.000000
0.748202 0.279984 0.000000
0.780956 0.279984 0.000000
0.813644 0.279984 0.000000
0.846267 0.279984 0.000000
0.878830 0.279984 0.000000
0.911333 0.279984 0.000000
0.943780 0.279984 0.000000
0.976172 0.279984 0.000000
1.000000 0.279984 0.000000
1.000000 0.279984 0.000000
0.000000 0.314257 0.000000
0.031738 0.314257 0.000000
0.068713 0.314257 0.000000
0.104910 0.314257 0.000000
0.140582 0.314257 0.000000
0.175858 0.314257 0.000000
0.210818 0.314257 0.000000
0.245514 0.314257 0.000000
0.279984 0.314257 0.000000
0.314257 0.314257 0.000000
0.348354 0.314257 0.000000
0.382295 0.314257 0.000000
0.416092 0.314257 0.000000
0.449759 0.314257 0.000000
0.483306 0.314257 0.000000
0.516741 0.314257 0.000000
0.550072 0.314257 0.000000
0.583306 0.314257 0.000000
0.616448 0.314257 0.000000
0.649505 0.314257 0.000000
0.682480 0.314257 0.000000
0.715378 0.314257 0.000000
0.748202 0.314257 0.000000
0.780956 0.314257 0.000000
0.813644 0.314257 0.000000
0.846267 0.314257 0.000000
0.878830 0.314257 0.000000
0.911333 0.314257 0.000000
0.943780 0.314257 0.000000
0.976172 0.314257 0.000000
1.000000 0.314257 0.000000
1.000000 0.314257 0.000000
0.000000 0.348354 0.000000
0.031738 0.348354 0.000000
0.068713 0.348354 0.000000
0.104910 0.348354 0.000000
0.140582 0.348354 0.000000
0.175858 0.348354 0.000000
0.210818 0.348354 0.000000
0.245514 0.348354 0.000000
0.279984 0.348354 0.000000
0.314257 0.348354 0.000000
0.348354 0.348354 0.000000
0.382295 0.348354 0.000000
0.416092 0.348354 0.000000
0.449759 0.348354 0.000000
0.483306 0.348354 0.000000
0.516741 0.348354 0.000000
0.550072 0.348354 0.000000
0.583306 0.348354 0.000000
0.616448 0.348354 0.000000
0.649505 0.348354 0.000000
0.682480 0.348354 0.000000
0.715378 0.348354 0.000000
0.748202 0.348354 0.000000
0.780956 0.348354 0.000000
0.813644 0.348354 0.000000
0.846267 0.348354 0.000000
0.878830 0.348354 0.000000
0.911333 0.348354 0.000000
0.943780 0.348354 0.000000
0.976172 0.348354 0.000000
1.000000 0.348354 0.000000
1.000000 0.348354 0.000000
0.000000 0.382295 0.000000
0.031738 0.382295 0.000000
0.068713 0.382295 0.000000
0.104910 0.382295 0.000000
0.140582 0.382295 0.000000
0.175858 0.382295 0.000000
0.210818 0.382295 0.000000
0.245514 0.382295 0.000000
0.279984 0.382295 0.000000
0.314257 0.382295 0.000000
0.348354 0.382295 0.000000
0.382295 0.382295 0.000000
0.416092 0.382295 0.000000
0.449759 0.382295 0.000000
0.483306 0.382295 0.000000
0.516741 0.382295 0.000000
0.550072 0.382295 0.000000
0.583306 0.382295 0.000000
0.616448 0.382295 0.000000
0.649505 0.382295 0.000000
0.682480 0.382295 0.000000
0.715378 0.382295 0.000000
0.748202 0.382295 0.000000
0.780956 0.382295 0.000000
0.813644 0.382295 0.000000
0.846267 0.382295 0.000000
0.878830 0.382295 0.000000
0.911333 0.382295 0.000000
0.943780 0.382295 0.000000
0.976172 0.382295 0.000000
1.000000 0.382295 0.000000
1.000000 0.382295 0.000000
0.000000 0.416092 0.000000
0.031738 0.416092 0.000000
0.068713 0.416092 0.000000
0.104910 0.416092 0.000000
0.140582 0.416092 0.000000
0.175858 0.416092 0.000000
0.210818 0.416092 0.000000
0.245514 0.416092 0.000000
0.279984 0.416092 0.000000
0.314257 0.416092 0.000000
0.348354 0.416092 0.000000
0.382295 0.416092 0.000000
0.416092 0.416092 0.000000
0.449759 0.416092 0.000000
0.483306 0.416092 0.000000
0.516741 0.416092 0.000000
0.550072 0.416092 0.000000
0.583306 0.416092 0.000000
0.616448 0.416092 0.000000
0.649505 0.416092 0.000000
0.682480 0.416092 0.000000
0.715378 0.416092 0.000000
0.748202 0.416092 0.000000
0.780956 0.416092 0.000000
0.813644 0.416092 0.000000
0.846267 0.416092 0.000000
0.878830 0.416092 0.000000
0.911333 0.416092 0.000000
0.943780 0.416092 0.000000
0.976172 0.416092 0.000000
1.000000 0.416092 0.000000
1.000000 0.416092 0.000000
0.000000 0.449759 0.000000
0.031738 0.449759 0.000000
0.068713 0.449759 0.000000
0.104910 0.449759 0.000000
0.140582 0.449759 0.000000
0.175858 0.449759 0.000000
0.210818 0.449759 0.000000
0.245514 0.449759 0.000000
0.279984 0.449759 0.000000
0.314257 0.449759 0.000000
0.348354 0.449759 0.000000
0.382295 0.449759 0.000000
0.416092 0.449759 0.000000
0.449759 0.449759 0.000000
0.483306 0.449759 0.000000
0.516741 0.449759 0.000000
0.550072 0.449759 0.000000
0.583306 0.449759 0.000000
0.616448 0.449759 0.000000
0.649505 0.449759 0.000000
0.682480 0.449759 0.000000
0.715378 0.449759 0.000000
0.748202 0.449759 0.000000
0.780956 0.449759 0.000000
0.813644 0.449759 0.000000
0.846267 0.449759 0.000000
0.878830 0.449759 0.000000
0.911333 0.449759 0.000000
0.943780 0.449759 0.000000
0.976172 0.449759 0.000000
1.000000 0.449759 0.000000
1.000000 0.449759 0.000000
0.000000 0.483306 0.000000
0.031738 0.483306 0.000000
0.068713 0.483306 0.000000
0.104910 0.483306 0.000000
0.140582 0.483306 0.000000
0.175858 0.483306 0.000000
0.210818 0.483306 0.000000
0.245514 0.483306 0.000000
0.279984 0.483306 0.000000
0.314257 0.483306 0.000000
0.348354 0.483306 0.000000
0.382295 0.483306 0.000000
0.416092 0.483306 0.000000
0.449759 0.483306 0.000000
0.483306 0.483306 0.000000
0.516741 0.483306 0.000000
0.550072 0.483306 0.000000
0.583306 0.483306 0.000000
0.616448 0.483306 0.000000
0.649505 0.483306 0.000000
0.682480 0.483306 0.000000
0.715378 0.483306 0.000000
0.748202 0.483306 0.000000
0.780956 0.483306 0.000000
0.813644 0.483306 0.000000
0.846267 0.483306 0.000000
0.878830 0.483306 0.000000
0.911333 0.483306 0.000000
0.943780 0.483306 0.000000
0.976172 0.483306 0.000000
1.000000 0.483306 0.000000
1.000000 0.483306 0.000000
0.000000 0.516741 0.000000
0.031738 0.516741 0.000000
0.068713 0.516741 0.000000
0.104910 0.516741 0.000000
0.140582 0.516741 0.000000
0.175858 0.516741 0.000000
0.210818 0.516741 0.000000
0.245514 0.516741 0.000000
0.279984 0.516741 0.000000
0.314257 0.516741 0.000000
0.348354 0.516741 0.000000
0.382295 0.516741 0.000000
0.416092 0.516741 0.000000
0.449759 0.516741 0.000000
0.483306 0.516741 0.000000
0.516741 0.516741 0.000000
0.550072 0.516741 0.000000
0.583306 0.516741 0.000000
0.616448 0.516741 0.000000
0.649505 0.516741 0.000000
0.682480 0.516741 0.000000
0.715378 0.516741 0.000000
0.748202 0.516741 0.000000
0.780956 0.516741 0.000000
0.813644 0.516741 0.000000
0.846267 0.516741 0.000000
0.878830 0.516741 0.000000
0.911333 0.516741 0.000000
0.943780 0.516741 0.000000
0.976172 0.516741 0.000000
1.000000 0.516741 0.000000
1.000000 0.516741 0.000000
0.000000 0.550072 0.000000
0.031738 0.550072 0.000000
0.068713 0.550072 0.000000
0.104910 0.550072 0.000000
0.140582 0.550072 0.000000
0.175858 0.550072 0.000000
0.210818 0.550072 0.000000
0.245514 0.550072 0.000000
0.279984 0.550072 0.000000
0.314257 0.550072 0.000000
0.348354 0.550072 0.000000
0.382295 0.550072 0.000000
0.416092 0.550072 0.000000
0.449759 0.550072 0.000000
0.483306 0.550072 0.000000
0.516741 0.550072 0.000000
0.550072 0.550072 0.000000
0.583306 0.550072 0.000000
0.616448 0.550072 0.000000
0.649505 0.550072 0.000000
0.682480 0.550072 0.000000
0.715378 0.550072 0.000000
0.748202 0.550072 0.000000
0.780956 0.550072 0.000000
0.813644 0.550072 0.000000
0.846267 0.550072 0.000000
0.878830 0.550072 0.000000
0.911333 0.550072 0.000000
0.943780 0.550072 0.000000
0.976172 0.550072 0.000000
1.000000 0.550072 0.000000
1.000000 0.550072 0.000000
0.000000 0.583306 0.000000
0.031738 0.583306 0.000000
0.068713 0.583306 0.000000
0.104910 0.583306 0.000000
0.140582 0.583306 0.000000
0.175858 0.583306 0.000000
0.210818 0.583306 0.000000
0.245514 0.583306 0.000000
0.279984 0.583306 0.000000
0.314257 0.583306 0.000000
0.348354 0.583306 0.000000
0.382295 0.583306 0.000000
0.416092 0.583306 0.000000
0.449759 0.583306 0.000000
0.483306 0.583306 0.000000
0.516741 0.583306 0.000000
0.550072 0.583306 0.000000
0.583306 0.583306 0.000000
0.616448 0.583306 0.000000
0.649505 0.583306 0.000000
0.682480 0.583306 0.000000
0.715378 0.583306 0.000000
0.748202 0.583306 0.000000
0.780956 0.583306 0.000000
0.813644 0.583306 0.000000
0.846267 0.583306 0.000000
0.878830 0.583306 0.000000
0.911333 0.583306 0.000000
0.943780 0.583306 0.000000
0.976172 0.583306 0.000000
1.000000 0.583306 0.000000
1.000000 0.583306 0.000000
0.000000 0.616448 0.000000
0.031738 0.616448 0.000000
0.068713 0.616448 0.000000
0.104910 0.616448 0.000000
0.140582 0.616448 0.000000
0.175858 0.616448 0.000000
0.210818 0.616448 0.000000
0.245514 0.616448 0.000000
0.279984 0.616448 0.000000
0.314257 0.616448 0.000000
0.348354 0.616448 0.000000
0.382295 0.616448 0.000000
0.416092 0.616448 0.000000
0.449759 0.616448 0.000000
0.483306 0.616448 0.000000
0.516741 0.616448 0.000000
0.550072 0.616448 0.000000
0.583306 0.616448 0.000000
0.616448 0.616448 0.000000
0.649505 0.616448 0.000000
0.682480 0.616448 0.000000
0.715378 0.616448 0.000000
0.748202 0.616448 0.000000
0.780956 0.616448 0.000000
0.813644 0.616448 0.000000
0.846267 0.616448 0.000000
0.878830 0.616448 0.000000
0.911333 0.616448 0.000000
0.943780 0.616448 0.000000
0.976172 0.616448 0.000000
1.000000 0.616448 0.000000
1.000000 0.616448 0.000000
0.000000 0.649505 0.000000
0.031738 0.649505 0.000000
0.068713 0.649505 0.000000
0.104910 0.649505 0.000000
0.140582 0.649505 0.000000
0.175858 0.649505 0.000000
0.210818 0.649505 0.000000
0.245514 0.649505 0.000000
0.279984 0.649505 0.000000
0.314257 0.649505 0.000000
0.348354 0.649505 0.000000
0.382295 0.649505 0.000000
0.416092 0.649505 0.000000
0.449759 0.649505 0.000000
0.483306 0.649505 0.000000
0.516741 0.649505 0.000000
0.550072 0.649505 0.000000
0.583306 0.649505 0.000000
0.616448 0.649505 0.000000
0.649505 0.649505 0.000000
0.682480 0.649505 0.000000
0.715378 0.649505 0.000000
0.748202 0.649505 0.000000
0.780956 0.649505 0.000000
0.813644 0.649505 0.000000
0.846267 0.649505 0.000000
0.878830 0.649505 0.000000
0.911333 0.649505 0.000000
0.943780 0.649505 0.000000
0.976172 0.649505 0.000000
1.000000 0.649505 0.000000
1.000000 0.649505 0.000000
0.000000 0.682480 0.000000
0.031738 0.682480 0.000000
0.068713 0.682480 0.000000
0.104910 0.682480 0.000000
0.140582 0.682480 0.000000
0.175858 0.682480 0.000000
0.210818 0.682480 0.000000
0.245514 0.682480 0.000000
0.279984 0.682480 0.000000
0.314257 0.682480 0.000000
0.348354 0.682480 0.000000
0.382295 0.682480 0.000000
0.416092 0.682480 0.000000
0.449759 0.682480 0.000000
0.483306 0.682480 0.000000
0.516741 0.682480 0.000000
0.550072 0.682480 0.000000
0.583306 0.682480 0.000000
0.616448 0.682480 0.000000
0.649505 0.682480 0.000000
0.682480 0.682480 0.000000
0.715378 0.682480 0.000000
0.748202 0.682480 0.000000
0.780956 0.682480 0.000000
0.813644 0.682480 0.000000
0.846267 0.682480 0.000000
0.878830 0.682480 0.000000
0.911333 0.682480 0.000000
0.943780 0.682480 0.000000
0.976172 0.682480 0.000000
1.000000 0.682480 0.000000
1.000000 0.682480 0.000000
0.000000 0.715378 0.000000
0.031738 0.715378 0.000000
0.068713 0.715378 0.000000
0.104910 0.715378 0.000000
0.140582 0.715378 0.000000
0.175858 0.715378 0.000000
0.210818 0.715378 0.000000
0.245514 0.715378 0.000000
0.279984 0.715378 0.000000
0.314257 0.715378 0.000000
0.348354 0.715378 0.000000
0.382295 0.715378 0.000000
0.416092 0.715378 0.000000
0.449759 0.715378 0.000000
0.483306 0.715378 0.000000
0.516741 0.715378 0.000000
0.550072 0.715378 0.000000
0.583306 0.715378 0.000000
0.616448 0.715378 0.000000
0.649505 0.715378 0.000000
0.682480 0.715378 0.000000
0.715378 0.715378 0.000000
0.748202 0.715378 0.000000
0.780956 0.715378 0.000000
0.813644 0.715378 0.000000
0.846267 0.715378 0.000000
0.878830 0.715378 0.000000
0.911333 0.715378 0.000000
0.943780 0.715378 0.000000
0.976172 0.715378 0.000000
1.000000 0.715378 0.000000
1.000000 0.715378 0.000000
0.000000 0.748202 0.000000
0.031738 0.748202 0.000000
0.068713 0.748202 0.000000
0.104910 0.748202 0.000000
0.140582 0.748202 0.000000
0.175858 0.748202 0.000000
0.210818 0.748202 0.000000
0.245514 0.748202 0.000000
0.279984 0.748202 0.000000
0.314257 0.748202 0.000000
0.348354 0.748202 0.000000
0.382295 0.748202 0.000000
0.416092 0.748202 0.000000
0.449759 0.748202 0.000000
0.483306 0.748202 0.000000
0.516741 0.748202 0.000000
0.550072 0.748202 0.000000
0.583306 0.748202 0.000000
0.616448 0.748202 0.000000
0.649505 0.748202 0.000000
0.682480 0.748202 0.000000
0.715378 0.748202 0.000000
0.748202 0.748202 0.000000
0.780956 0.748202 0.000000
0.813644 0.748202 0.000000
0.846267 0.748202 0.000000
0.878830 0.748202 0.000000
0.911333 0.748202 0.000000
0.943780 0.748202 0.000000
0.976172 0.748202 0.000000
1.000000 0.748202 0.000000
1.000000 0.748202 0.000000
0.000000 0.780956 0.000000
0.031738 0.780956 0.000000
0.068713 0.780956 0.000000
0.104910 0.780956 0.000000
0.140582 0.780956 0.000000
0.175858 0.780956 0.000000
0.210818 0.780956 0.000000
0.245514 0.780956 0.000000
0.279984 0.780956 0.000000
0.314257 0.780956 0.000000
0.348354 0.780956 0.000000
0.382295 0.780956 0.000000
0.416092 0.780956 0.000000
0.449759 0.780956 0.000000
0.483306 0.780956 0.000000
0.516741 0.780956 0.000000
0.550072 0.780956 0.000000
0.583306 0.780956 0.000000
0.616448 0.780956 0.000000
0.649505 0.780956 0.000000
0.682480 0.780956 0.000000
0.715378 0.780956 0.000000
0.748202 0.780956 0.000000
0.780956 0.780956 0.000000
0.813644 0.780956 0.000000
0.846267 0.780956 0.000000
0.878830 0.780956 0.000000
0.911333 0.780956 0.000000
0.943780 0.780956 0.000000
0.976172 0.780956 0.000000
1.000000 0.780956 0.000000
1.000000 0.780956 0.000000
0.000000 0.813644 0.000000
0.031738 0.813644 0.000000
0.068713 0.813644 0.000000
0.104910 0.813644 0.000000
0.140582 0.813644 0.000000
0.175858 0.813644 0.000000
0.210818 0.813644 0.000000
0.245514 0.813644 0.000000
0.279984 0.813644 0.000000
0.314257 0.813644 0.000000
0.348354 0.813644 0.000000
0.382295 0.813644 0.000000
0.416092 0.813644 0.000000
0.449759 0.813644 0.000000
0.483306 0.813644 0.000000
0.516741 0.813644 0.000000
0.550072 0.813644 0.000000
0.583306 0.813644 0.000000
0.616448 0.813644 0.000000
0.649505 0.813644 0.000000
0.682480 0.813644 0.000000
0.715378 0.813644 0.000000
0.748202 0.813644 0.000000
0.780956 0.813644 0.000000
0.813644 0.813644 0.000000
0.846267 0.813644 0.000000
0.878830 0.813644 0.000000
0.911333 0.813644 0.000000
0.943780 0.813644 0.000000
0.976172 0.813644 0.000000
1.000000 0.813644 0.000000
1.000000 0.813644 0.000000
0.000000 0.846267 0.000000
0.031738 0.846267 0.000000
0.068713 0.846267 0.000000
0.104910 0.846267 0.000000
0.140582 0.846267 0.000000
0.175858 0.846267 0.000000
0.210818 0.846267 0.000000
0.245514 0.846267 0.000000
0.279984 0.846267 0.000000
0.314257 0.846267 0.000000
0.348354 0.846267 0.000000
0.382295 0.846267 0.000000
0.416092 0.846267 0.000000
0.449759 0.846267 0.000000
0.483306 0.846267 0.000000
0.516741 0.846267 0.000000
0.550072 0.846267 0.000000
0.583306 0.846267 0.000000
0.616448 0.846267 0.000000
0.649505 0.846267 0.000000
0.682480 0.846267 0.000000
0.715378 0.846267 0.000000
0.748202 0.846267 0.000000
0.780956 0.846267 0.000000
0.813644 0.846267 0.000000
0.846267 0.846267 0.000000
0.878830 0.846267 0.000000
0.911333 0.846267 0.000000
0.943780 0.846267 0.000000
0.976172 0.846267 0.000000
1.000000 0.846267 0.000000
1.000000 0.846267 0.000000
0.000000 0.878830 0.000000
0.031738 0.878830 0.000000
0.068713 0.878830 0.000000
0.104910 0.878830 0.000000
0.140582 0.878830 0.000000
0.175858 0.878830 0.000000
0.210818 0.878830 0.000000
0.245514 0.878830 0.000000
0.279984 0.878830 0.000000
0.314257 0.878830 0.000000
0.348354 0.878830 0.000000
0.382295 0.878830 0.000000
0.416092 0.878830 0.000000
0.449759 0.878830 0.000000
0.483306 0.878830 0.000000
0.516741 0.878830 0.000000
0.550072 0.878830 0.000000
0.583306 0.878830 0.000000
0.616448 0.878830 0.000000
0.649505 0.878830 0.000000
0.682480 0.878830 0.000000
0.715378 0.878830 0.000000
0.748202 0.878830 0.000000
0.780956 0.878830 0.000000
0.813644 0.878830 0.000000
0.846267 0.878830 0.000000
0.878830 0.878830 0.000000
0.911333 0.878830 0.000000
0.943780 0.878830 0.000000
0.976172 0.878830 0.000000
1.000000 0.878830 0.000000
1.000000 0.878830 0.000000
0.000000 0.911333 0.000000
0.031738 0.911333 0.000000
0.068713 0.911333 0.000000
0.104910 0.911333 0.000000
0.140582 0.911333 0.000000
0.175858 0.911333 0.000000
0.210818 0.911333 0.000000
0.245514 0.911333 0.000000
0.279984 0.911333 0.000000
0.314257 0.911333 0.000000
0.348354 0.911333 0.000000
0.382295 0.911333 0.000000
0.416092 0.911333 0.000000
0.449759 0.911333 0.000000
0.483306 0.911333 0.000000
0.516741 0.911333 0.000000
0.550072 0.911333 0.000000
0.583306 0.911333 0.000000
0.616448 0.911333 0.000000
