assets/luts/clear.cube
# Beauty Camera 3D LUT
# Filter: Clear (clear)
# Category: Natural
TITLE "Clear"
LUT_3D_SIZE 8
DOMAIN_MIN 0.000000 0.000000 0.000000
DOMAIN_MAX 0.903226 0.903226 0.903226
0.000000 0.000000 0.000000
0.132553 0.000000 0.000000
0.286221 0.000000 0.000000
0.435491 0.000000 0.000000
0.581954 0.000000 0.000000
0.735385 0.000000 0.000000
0.865928 0.000000 0.000000
0.931635 0.000000 0.000000
0.000000 0.128563 0.000000
0.126875 0.126875 0.000000
0.280543 0.125303 0.000000
0.429813 0.123777 0.000000
0.576275 0.122279 0.000000
0.728132 0.120802 0.000000
0.862253 0.119342 0.000000
0.929761 0.117895 0.000000
0.000000 0.278515 0.000000
0.121588 0.276827 0.000000
0.275256 0.275256 0.000000
0.424526 0.273729 0.000000
0.570988 0.272231 0.000000
0.721200 0.270754 0.000000
0.858741 0.269294 0.000000
0.927971 0.267848 0.000000
0.000000 0.424176 0.000000
0.116452 0.422488 0.000000
0.270120 0.420917 0.000000
0.419390 0.419390 0.000000
0.565853 0.417892 0.000000
0.714298 0.416415 0.000000
0.855244 0.414955 0.000000
0.926187 0.413509 0.000000
0.000000 0.567098 0.000000
0.111413 0.565410 0.000000
0.265081 0.563838 0.000000
0.414351 0.562311 0.000000
0.560813 0.560813 0.000000
0.707359 0.559337 0.000000
0.851728 0.557876 0.000000
0.924395 0.556430 0.000000
0.000000 0.711225 0.000000
0.106445 0.708895 0.000000
0.260113 0.706708 0.000000
0.409383 0.704568 0.000000
0.555845 0.702453 0.000000
0.700354 0.700354 0.000000
0.848178 0.698787 0.000000
0.922585 0.697341 0.000000
0.000000 0.851262 0.000000
0.101533 0.850061 0.000000
0.255200 0.848935 0.000000
0.404470 0.847833 0.000000
0.550933 0.846744 0.000000
0.695335 0.845662 0.000000
0.844585 0.844585 0.000000
0.920753 0.843511 0.000000
0.000000 0.922912 0.000000
0.096666 0.922290 0.000000
0.250334 0.921706 0.000000
0.399604 0.921135 0.000000
0.546067 0.920570 0.000000
0.690469 0.920010 0.000000
0.840942 0.919452 0.000000
0.918895 0.918895 0.000000
0.000000 0.000000 0.133668
0.131980 0.000000 0.131980
0.285648 0.000000 0.130409
0.434918 0.000000 0.128882
0.581381 0.000000 0.127384
0.734661 0.000000 0.125907
0.865561 0.000000 0.124447
0.931448 0.000000 0.123000
0.000000 0.127990 0.127990
0.126302 0.126302 0.126302
0.279969 0.124730 0.124730
0.429240 0.123203 0.123203
0.575702 0.121706 0.121706
0.727389 0.120229 0.120229
0.861876 0.118768 0.118768
0.929569 0.117322 0.117322
0.000000 0.277942 0.122703
0.121015 0.276254 0.121015
0.274682 0.274682 0.119443
0.423953 0.273156 0.117916
0.570415 0.271658 0.116419
0.720438 0.270181 0.114942
0.858355 0.268721 0.113481
0.927774 0.267274 0.112035
0.000000 0.423603 0.117567
0.115879 0.421915 0.115879
0.269547 0.420343 0.114307
0.418817 0.418817 0.112781
0.565279 0.417319 0.111283
0.713517 0.415842 0.109806
0.854848 0.414382 0.108346
0.925986 0.412935 0.106899
0.000000 0.566524 0.112528
0.110840 0.564836 0.110840
0.264508 0.563265 0.109268
0.413778 0.561738 0.107742
0.560240 0.560240 0.106244
0.706560 0.558763 0.104767
0.851323 0.557303 0.103307
0.924188 0.555857 0.101860
0.000000 0.710436 0.107560
0.105872 0.708099 0.105872
0.259539 0.705906 0.104300
0.408810 0.703761 0.102773
0.555272 0.701640 0.101275
0.699674 0.699674 0.099799
0.847763 0.698214 0.098338
0.922373 0.696768 0.096892
0.000000 0.850855 0.102647
0.100959 0.849652 0.100959
0.254627 0.848522 0.099388
0.403897 0.847417 0.097861
0.550360 0.846325 0.096363
0.694762 0.845240 0.094886
0.844160 0.844160 0.093426
0.920536 0.843083 0.091979
0.000000 0.922701 0.097781
0.096093 0.922077 0.096093
0.249761 0.921492 0.094521
0.399031 0.920919 0.092995
0.545493 0.920353 0.091497
0.689896 0.919791 0.090020
0.840507 0.919231 0.088560
0.918673 0.918673 0.087113
0.000000 0.000000 0.288374
0.131446 0.000000 0.286686
0.285114 0.000000 0.285114
0.434384 0.000000 0.283588
0.580847 0.000000 0.282090
0.733986 0.000000 0.280613
0.865219 0.000000 0.279153
0.931274 0.000000 0.277706
0.000000 0.127456 0.282695
0.125768 0.125768 0.281007
0.279436 0.124196 0.279436
0.428706 0.122670 0.277909
0.575168 0.121172 0.276411
0.726695 0.119695 0.274934
0.861525 0.118235 0.273474
0.929390 0.116788 0.272028
0.000000 0.277408 0.277408
0.120481 0.275720 0.275720
0.274149 0.274149 0.274149
0.423419 0.272622 0.272622
0.569881 0.271124 0.271124
0.719727 0.269647 0.269647
0.857994 0.268187 0.268187
0.927590 0.266741 0.266741
0.000000 0.423069 0.272273
0.115345 0.421381 0.270585
0.269013 0.419810 0.269013
0.418283 0.418283 0.267486
0.564746 0.416785 0.265988
0.712788 0.415308 0.264512
0.854478 0.413848 0.263051
0.925797 0.412402 0.261605
0.000000 0.565991 0.267234
0.110306 0.564303 0.265546
0.263974 0.562731 0.263974
0.413244 0.561204 0.262447
0.559706 0.559706 0.260949
0.705813 0.558230 0.259473
0.850944 0.556769 0.258012
0.923995 0.555323 0.256566
0.000000 0.709699 0.262265
0.105338 0.707356 0.260577
0.259006 0.705158 0.259006
0.408276 0.703007 0.257479
0.554738 0.700881 0.255981
0.699141 0.699141 0.254504
0.847376 0.697680 0.253044
0.922176 0.696234 0.251598
0.000000 0.850476 0.257353
0.100426 0.849269 0.255665
0.254093 0.848137 0.254093
0.403363 0.847029 0.252567
0.549826 0.845934 0.251069
0.694228 0.844846 0.249592
0.843764 0.843764 0.248132
0.920334 0.842684 0.246685
0.000000 0.922504 0.252487
0.095559 0.921879 0.250799
0.249227 0.921292 0.249227
0.398497 0.920718 0.247700
0.544960 0.920150 0.246202
0.689362 0.919587 0.244726
0.840101 0.919026 0.243265
0.918466 0.918466 0.241819
0.000000 0.000000 0.438652
0.130928 0.000000 0.436964
0.284596 0.000000 0.435393
0.433866 0.000000 0.433866
0.580328 0.000000 0.432368
0.733329 0.000000 0.430891
0.864886 0.000000 0.429431
0.931104 0.000000 0.427984
0.000000 0.126937 0.432974
0.125250 0.125250 0.431286
0.278917 0.123678 0.429714
0.428187 0.122151 0.428187
0.574650 0.120653 0.426689
0.726019 0.119176 0.425213
0.861182 0.117716 0.423752
0.929216 0.116270 0.422306
0.000000 0.276890 0.427687
0.119962 0.275202 0.425999
0.273630 0.273630 0.424427
0.422900 0.272104 0.422900
0.569363 0.270606 0.421402
0.719034 0.269129 0.419926
0.857643 0.267669 0.418465
0.927411 0.266222 0.417019
0.000000 0.422551 0.422551
0.114827 0.420863 0.420863
0.268495 0.419291 0.419291
0.417765 0.417765 0.417765
0.564227 0.416267 0.416267
0.712078 0.414790 0.414790
0.854119 0.413330 0.413330
0.925614 0.411883 0.411883
0.000000 0.565472 0.417512
0.109788 0.563784 0.415824
0.263455 0.562213 0.414252
0.412726 0.560686 0.412726
0.559188 0.559188 0.411228
0.705086 0.557711 0.409751
0.850576 0.556251 0.408291
0.923807 0.554804 0.406844
0.000000 0.708982 0.412544
0.104819 0.706633 0.410856
0.258487 0.704429 0.409284
0.407757 0.702273 0.407757
0.554220 0.700141 0.406259
0.698622 0.698622 0.404783
0.846999 0.697162 0.403322
0.921983 0.695715 0.401876
0.000000 0.850106 0.407631
0.099907 0.848896 0.405943
0.253575 0.847761 0.404372
0.402845 0.846650 0.402845
0.549307 0.845553 0.401347
0.693710 0.844463 0.399870
0.843377 0.843377 0.398410
0.920137 0.842295 0.396963
0.000000 0.922313 0.402765
0.095041 0.921686 0.401077
0.248709 0.921098 0.399505
0.397979 0.920522 0.397979
0.544441 0.919953 0.396481
0.688844 0.919388 0.395004
0.839706 0.918826 0.393544
0.918265 0.918265 0.392097
0.000000 0.000000 0.586104
0.130419 0.000000 0.584416
0.284087 0.000000 0.582844
0.433357 0.000000 0.581318
0.579820 0.000000 0.579820
0.732682 0.000000 0.578343
0.864558 0.000000 0.576883
0.930937 0.000000 0.575436
0.000000 0.126429 0.580425
0.124741 0.124741 0.578737
0.278409 0.123169 0.577166
0.427679 0.121643 0.575639
0.574141 0.120145 0.574141
0.725355 0.118668 0.572664
0.860846 0.117208 0.571204
0.929044 0.115761 0.569758
0.000000 0.276381 0.575138
0.119454 0.274693 0.573450
0.273122 0.273122 0.571879
0.422392 0.271595 0.570352
0.568854 0.270097 0.568854
0.718353 0.268620 0.567377
0.857298 0.267160 0.565917
0.927235 0.265713 0.564470
0.000000 0.422042 0.570003
0.114318 0.420354 0.568315
0.267986 0.418783 0.566743
0.417256 0.417256 0.565216
0.563718 0.415758 0.563718
0.711380 0.414281 0.562242
0.853765 0.412821 0.560781
0.925434 0.411374 0.559335
0.000000 0.564963 0.564963
0.109279 0.563276 0.563276
0.262947 0.561704 0.561704
0.412217 0.560177 0.560177
0.558679 0.558679 0.558679
0.704370 0.557202 0.557202
0.850214 0.555742 0.555742
0.923623 0.554296 0.554296
0.000000 0.708276 0.559995
0.104311 0.705922 0.558307
0.257979 0.703712 0.556736
0.407249 0.701551 0.555209
0.553711 0.699590 0.553711
0.698113 0.698113 0.552234
0.846628 0.696653 0.550774
0.921794 0.695207 0.549327
0.000000 0.849743 0.555083
0.099398 0.848530 0.553395
0.253066 0.847392 0.551823
0.402336 0.846279 0.550297
0.548799 0.845178 0.548799
0.693201 0.844086 0.547322
0.842998 0.842998 0.545862
0.919943 0.841912 0.544415
0.000000 0.922125 0.550217
0.094532 0.921496 0.548529
0.248200 0.920906 0.546957
0.397470 0.920329 0.545430
0.543932 0.919759 0.543932
0.688335 0.919193 0.542456
0.839317 0.918629 0.540995
0.918066 0.918066 0.539549
0.000000 0.000000 0.741765
0.129918 0.000000 0.739681
0.283586 0.000000 0.737725
0.432856 0.000000 0.735812
0.579318 0.000000 0.733920
0.732043 0.000000 0.732043
0.864234 0.000000 0.730173
0.930772 0.000000 0.728308
0.000000 0.125927 0.734687
0.124239 0.124239 0.732546
0.277907 0.122668 0.730537
0.427177 0.121141 0.728570
0.573640 0.119643 0.726627
0.724698 0.118166 0.724698
0.860513 0.116706 0.722777
0.928874 0.115259 0.720861
0.000000 0.275880 0.727922
0.118952 0.274192 0.725727
0.272620 0.272620 0.723666
0.421890 0.271093 0.721650
0.568353 0.269595 0.719658
0.717679 0.268119 0.717679
0.856957 0.266658 0.715709
0.927061 0.265212 0.713744
0.000000 0.421541 0.721187
0.113817 0.419853 0.718936
0.267484 0.418281 0.716825
0.416754 0.416754 0.714759
0.563217 0.415257 0.712717
0.710690 0.413780 0.710690
0.853415 0.412319 0.708671
0.925255 0.410873 0.706657
0.000000 0.564462 0.714415
0.108777 0.562774 0.712110
0.262445 0.561202 0.709948
0.411715 0.559676 0.707832
0.558178 0.558178 0.705740
0.703663 0.556701 0.703663
0.849855 0.555241 0.701596
0.923440 0.553794 0.699673
0.000000 0.707578 0.707578
0.103809 0.705218 0.705218
0.257477 0.703004 0.703004
0.406747 0.700837 0.700837
0.553210 0.699089 0.699089
0.697612 0.697612 0.697612
0.846261 0.696152 0.696152
0.921607 0.694705 0.694705
0.000000 0.849383 0.700657
0.098897 0.848168 0.698773
0.252565 0.847027 0.697201
0.401835 0.845911 0.695674
0.548297 0.844808 0.694176
0.692700 0.843713 0.692700
0.842622 0.842622 0.691239
0.919752 0.841534 0.689793
0.000000 0.921938 0.695594
0.094031 0.921308 0.693906
0.247698 0.920717 0.692335
0.396968 0.920139 0.690808
0.543431 0.919567 0.689310
0.687833 0.918999 0.687833
0.838933 0.918434 0.686373
0.917870 0.917870 0.684926
0.000000 0.000000 0.869760
0.129422 0.000000 0.868709
0.283090 0.000000 0.867722
0.432360 0.000000 0.866757
0.578822 0.000000 0.865803
0.731409 0.000000 0.864856
0.863913 0.000000 0.863913
0.930608 0.000000 0.862973
0.000000 0.125431 0.866190
0.123743 0.123743 0.865110
0.277411 0.122172 0.864097
0.426681 0.120645 0.863105
0.573144 0.119147 0.862125
0.724047 0.117670 0.861152
0.860183 0.116210 0.860183
0.928706 0.114764 0.859217
0.000000 0.275384 0.862778
0.118456 0.273696 0.861671
0.272124 0.272124 0.860632
0.421394 0.270598 0.859615
0.567857 0.269100 0.858610
0.717012 0.267623 0.857612
0.856618 0.266162 0.856618
0.926889 0.264716 0.855627
0.000000 0.421045 0.859381
0.113321 0.419357 0.858246
0.266988 0.417785 0.857181
0.416259 0.416259 0.856139
0.562721 0.414761 0.855109
0.710006 0.413284 0.854087
0.853069 0.411824 0.853069
0.925078 0.410377 0.852053
0.000000 0.563966 0.855966
0.108282 0.562278 0.854804
0.261949 0.560706 0.853713
0.411219 0.559180 0.852645
0.557682 0.557682 0.851591
0.702963 0.556205 0.850543
0.849500 0.554745 0.849500
0.923259 0.553298 0.848460
0.000000 0.706887 0.852518
0.103313 0.704521 0.851327
0.256981 0.702302 0.850211
0.406251 0.700130 0.849118
0.552714 0.698593 0.848038
0.697116 0.697116 0.846965
0.845897 0.695656 0.845897
0.921422 0.694209 0.844832
0.000000 0.849027 0.849027
0.098401 0.847809 0.847809
0.252069 0.846665 0.846665
0.401339 0.845547 0.845547
0.547801 0.844441 0.844441
0.692204 0.843343 0.843343
0.842250 0.842250 0.842250
0.919562 0.841160 0.841160
0.000000 0.921754 0.845488
0.093535 0.921122 0.844241
0.247202 0.920530 0.843071
0.396473 0.919950 0.841926
0.542935 0.919377 0.840794
0.687337 0.918808 0.839671
0.838552 0.918241 0.838552
0.917676 0.917676 0.837436
0.000000 0.000000 0.933891
0.128931 0.000000 0.933357
0.282598 0.000000 0.932857
0.431868 0.000000 0.932367
0.578331 0.000000 0.931883
0.730780 0.000000 0.931402
0.863595 0.000000 0.930923
0.930446 0.000000 0.930446
0.000000 0.124940 0.932079
0.123252 0.123252 0.931531
0.276920 0.121680 0.931016
0.426190 0.120154 0.930513
0.572652 0.118656 0.930015
0.723401 0.117179 0.929522
0.859856 0.115719 0.929030
0.928539 0.114272 0.928539
0.000000 0.274892 0.930347
0.117965 0.273205 0.929785
0.271633 0.271633 0.929257
0.420903 0.270106 0.928741
0.567365 0.268608 0.928231
0.716349 0.267131 0.927725
0.856283 0.265671 0.927220
0.926717 0.264225 0.926717
0.000000 0.420554 0.928623
0.112829 0.418866 0.928047
0.266497 0.417294 0.927506
0.415767 0.415767 0.926977
0.562230 0.414269 0.926454
0.709326 0.412792 0.925935
0.852725 0.411332 0.925419
0.924903 0.409886 0.924903
0.000000 0.563475 0.926889
0.107790 0.561787 0.926299
0.261458 0.560215 0.925745
0.410728 0.558689 0.925204
0.557191 0.557191 0.924668
0.702267 0.555714 0.924137
0.849148 0.554254 0.923607
0.923079 0.552807 0.923079
0.000000 0.706200 0.925139
0.102822 0.703829 0.924535
0.256490 0.701605 0.923968
0.405760 0.699600 0.923413
0.552222 0.698102 0.922865
0.696625 0.696625 0.922320
0.845536 0.695165 0.921778
0.921238 0.693718 0.921238
0.000000 0.848674 0.923367
0.097910 0.847452 0.922749
0.251577 0.846306 0.922168
0.400848 0.845185 0.921600
0.547310 0.844077 0.921039
0.691712 0.842976 0.920482
0.841881 0.841881 0.919927
0.919374 0.840788 0.919374
0.000000 0.921570 0.921570
0.093043 0.920938 0.920938
0.246711 0.920344 0.920344
0.395981 0.919762 0.919762
0.542444 0.919188 0.919188
0.686846 0.918618 0.918618
0.838174 0.918050 0.918050
0.917483 0.917483 0.917483
