assets/luts/clear.cube
# Beauty Camera 3D LUT
# Filter: Clear (clear)
# Category: Natural
TITLE "Clear"
LUT_3D_SIZE 32
DOMAIN_MIN 0.0 0.0 0.0
DOMAIN_MAX 1.0 1.0 1.0
0.000000 0.000000 0.000000
0.011388 0.000000 0.000000
0.052762 0.000000 0.000000
0.093022 0.000000 0.000000
0.132553 0.000000 0.000000
0.171545 0.000000 0.000000
0.210107 0.000000 0.000000
0.248315 0.000000 0.000000
0.286221 0.000000 0.000000
0.323864 0.000000 0.000000
0.361275 0.000000 0.000000
0.398477 0.000000 0.000000
0.435491 0.000000 0.000000
0.472333 0.000000 0.000000
0.509016 0.000000 0.000000
0.545553 0.000000 0.000000
0.581954 0.000000 0.000000
0.618227 0.000000 0.000000
0.654381 0.000000 0.000000
0.690422 0.000000 0.000000
0.735385 0.000000 0.000000
0.776896 0.000000 0.000000
0.811809 0.000000 0.000000
0.841189 0.000000 0.000000
0.865928 0.000000 0.000000
0.886767 0.000000 0.000000
0.904332 0.000000 0.000000
0.919142 0.000000 0.000000
0.931635 0.000000 0.000000
0.942179 0.000000 0.000000
0.951081 0.000000 0.000000
0.958599 0.000000 0.000000
0.000000 0.010327 0.000000
0.009878 0.009878 0.000000
0.051253 0.009455 0.000000
0.091512 0.009043 0.000000
0.131044 0.008639 0.000000
0.170035 0.008240 0.000000
0.208597 0.007845 0.000000
0.246806 0.007455 0.000000
0.284712 0.007067 0.000000
0.322355 0.006682 0.000000
0.359765 0.006299 0.000000
0.396968 0.005919 0.000000
0.433982 0.005540 0.000000
0.470823 0.005164 0.000000
0.507507 0.004788 0.000000
0.544044 0.004415 0.000000
0.580444 0.004042 0.000000
0.616717 0.003671 0.000000
0.652871 0.003302 0.000000
0.688912 0.002933 0.000000
0.733476 0.002566 0.000000
0.775286 0.002199 0.000000
0.810451 0.001834 0.000000
0.840044 0.001469 0.000000
0.864960 0.001105 0.000000
0.885950 0.000742 0.000000
0.903641 0.000380 0.000000
0.918558 0.000019 0.000000
0.931142 0.000000 0.000000
0.941762 0.000000 0.000000
0.950728 0.000000 0.000000
0.958300 0.000000 0.000000
0.000000 0.050701 0.000000
0.008454 0.050252 0.000000
0.049829 0.049829 0.000000
0.090089 0.049417 0.000000
0.129620 0.049013 0.000000
0.168611 0.048614 0.000000
0.207174 0.048220 0.000000
0.245382 0.047829 0.000000
0.283288 0.047441 0.000000
0.320931 0.047056 0.000000
0.358342 0.046674 0.000000
0.395544 0.046293 0.000000
0.432558 0.045915 0.000000
0.469400 0.045538 0.000000
0.506083 0.045163 0.000000
0.542620 0.044789 0.000000
0.579021 0.044417 0.000000
0.615294 0.044046 0.000000
0.651447 0.043676 0.000000
0.687488 0.043308 0.000000
0.731663 0.042940 0.000000
0.773757 0.042574 0.000000
0.809162 0.042208 0.000000
0.838956 0.041843 0.000000
0.864042 0.041480 0.000000
0.885175 0.041117 0.000000
0.902986 0.040755 0.000000
0.918004 0.040394 0.000000
0.930674 0.040033 0.000000
0.941366 0.039674 0.000000
0.950393 0.039314 0.000000
0.958017 0.038956 0.000000
0.000000 0.089987 0.000000
0.007069 0.089539 0.000000
0.048444 0.089115 0.000000
0.088704 0.088704 0.000000
0.128235 0.088299 0.000000
0.167226 0.087901 0.000000
0.205789 0.087506 0.000000
0.243997 0.087115 0.000000
0.281903 0.086728 0.000000
0.319546 0.086343 0.000000
0.356957 0.085960 0.000000
0.394159 0.085580 0.000000
0.431173 0.085201 0.000000
0.468015 0.084824 0.000000
0.504698 0.084449 0.000000
0.541235 0.084076 0.000000
0.577635 0.083703 0.000000
0.613909 0.083332 0.000000
0.650062 0.082963 0.000000
0.686103 0.082594 0.000000
0.729887 0.082226 0.000000
0.772260 0.081860 0.000000
0.807899 0.081494 0.000000
0.837890 0.081130 0.000000
0.863142 0.080766 0.000000
0.884415 0.080403 0.000000
0.902344 0.080041 0.000000
0.917462 0.079680 0.000000
0.930215 0.079320 0.000000
0.940978 0.078960 0.000000
0.950064 0.078601 0.000000
0.957739 0.078242 0.000000
0.000000 0.128563 0.000000
0.005709 0.128114 0.000000
0.047084 0.127691 0.000000
0.087344 0.127279 0.000000
0.126875 0.126875 0.000000
0.165866 0.126476 0.000000
0.204429 0.126082 0.000000
0.242637 0.125691 0.000000
0.280543 0.125303 0.000000
0.318186 0.124918 0.000000
0.355597 0.124536 0.000000
0.392799 0.124155 0.000000
0.429813 0.123777 0.000000
0.466655 0.123400 0.000000
0.503338 0.123025 0.000000
0.539875 0.122651 0.000000
0.576275 0.122279 0.000000
0.612548 0.121908 0.000000
0.648702 0.121538 0.000000
0.684743 0.121169 0.000000
0.728132 0.120802 0.000000
0.770780 0.120435 0.000000
0.806651 0.120070 0.000000
0.836837 0.119705 0.000000
0.862253 0.119342 0.000000
0.883664 0.118979 0.000000
0.901709 0.118617 0.000000
0.916926 0.118256 0.000000
0.929761 0.117895 0.000000
0.940594 0.117535 0.000000
0.949740 0.117176 0.000000
0.957464 0.116818 0.000000
0.000000 0.166611 0.000000
0.004368 0.166163 0.000000
0.045742 0.165739 0.000000
0.086002 0.165328 0.000000
0.125533 0.164923 0.000000
0.164525 0.164525 0.000000
0.203087 0.164130 0.000000
0.241295 0.163739 0.000000
0.279201 0.163352 0.000000
0.316844 0.162967 0.000000
0.354255 0.162584 0.000000
0.391457 0.162204 0.000000
0.428471 0.161825 0.000000
0.465313 0.161448 0.000000
0.501996 0.161073 0.000000
0.538533 0.160699 0.000000
0.574934 0.160327 0.000000
0.611207 0.159956 0.000000
0.647361 0.159586 0.000000
0.683402 0.159218 0.000000
0.726390 0.158850 0.000000
0.769311 0.158484 0.000000
0.805411 0.158118 0.000000
0.835791 0.157754 0.000000
0.861370 0.157390 0.000000
0.882918 0.157027 0.000000
0.901079 0.156665 0.000000
0.916393 0.156304 0.000000
0.929311 0.155944 0.000000
0.940213 0.155584 0.000000
0.949418 0.155225 0.000000
0.957192 0.154866 0.000000
0.000000 0.204242 0.000000
0.003041 0.203793 0.000000
0.044416 0.203370 0.000000
0.084675 0.202958 0.000000
0.124207 0.202554 0.000000
0.163198 0.202155 0.000000
0.201760 0.201760 0.000000
0.239968 0.201370 0.000000
0.277874 0.200982 0.000000
0.315518 0.200597 0.000000
0.352928 0.200214 0.000000
0.390131 0.199834 0.000000
0.427145 0.199455 0.000000
0.463986 0.199079 0.000000
0.500670 0.198703 0.000000
0.537206 0.198330 0.000000
0.573607 0.197957 0.000000
0.609880 0.197586 0.000000
0.646034 0.197217 0.000000
0.682075 0.196848 0.000000
0.724655 0.196481 0.000000
0.767849 0.196114 0.000000
0.804178 0.195749 0.000000
0.834750 0.195384 0.000000
0.860491 0.195020 0.000000
0.882176 0.194657 0.000000
0.900452 0.194295 0.000000
0.915863 0.193934 0.000000
0.928863 0.193574 0.000000
0.939835 0.193214 0.000000
0.949097 0.192855 0.000000
0.956920 0.192497 0.000000
0.000000 0.241526 0.000000
0.001726 0.241077 0.000000
0.043101 0.240654 0.000000
0.083361 0.240242 0.000000
0.122892 0.239838 0.000000
0.161883 0.239439 0.000000
0.200446 0.239045 0.000000
0.238654 0.238654 0.000000
0.276560 0.238266 0.000000
0.314203 0.237881 0.000000
0.351614 0.237499 0.000000
0.388816 0.237118 0.000000
0.425830 0.236740 0.000000
0.462672 0.236363 0.000000
0.499355 0.235988 0.000000
0.535892 0.235614 0.000000
0.572292 0.235242 0.000000
0.608566 0.234871 0.000000
0.644719 0.234501 0.000000
0.680760 0.234132 0.000000
0.722926 0.233765 0.000000
0.766392 0.233398 0.000000
0.802948 0.233033 0.000000
0.833712 0.232668 0.000000
0.859615 0.232305 0.000000
0.881436 0.231942 0.000000
0.899827 0.231580 0.000000
0.915335 0.231218 0.000000
0.928417 0.230858 0.000000
0.939457 0.230498 0.000000
0.948777 0.230139 0.000000
0.956650 0.229781 0.000000
0.000000 0.278515 0.000000
0.000422 0.278067 0.000000
0.041797 0.277643 0.000000
0.082057 0.277232 0.000000
0.121588 0.276827 0.000000
0.160579 0.276429 0.000000
0.199142 0.276034 0.000000
0.237350 0.275643 0.000000
0.275256 0.275256 0.000000
0.312899 0.274871 0.000000
0.350310 0.274488 0.000000
0.387512 0.274108 0.000000
0.424526 0.273729 0.000000
0.461368 0.273352 0.000000
0.498051 0.272977 0.000000
0.534588 0.272603 0.000000
0.570988 0.272231 0.000000
0.607261 0.271860 0.000000
0.643415 0.271490 0.000000
0.679456 0.271122 0.000000
0.721200 0.270754 0.000000
0.764936 0.270388 0.000000
0.801721 0.270022 0.000000
0.832677 0.269658 0.000000
0.858741 0.269294 0.000000
0.880698 0.268931 0.000000
0.899203 0.268569 0.000000
0.914807 0.268208 0.000000
0.927971 0.267848 0.000000
0.939080 0.267488 0.000000
0.948458 0.267129 0.000000
0.956380 0.266770 0.000000
0.000000 0.315248 0.000000
0.000000 0.314800 0.000000
0.040502 0.314376 0.000000
0.080761 0.313965 0.000000
0.120293 0.313560 0.000000
0.159284 0.313162 0.000000
0.197847 0.312767 0.000000
0.236055 0.312376 0.000000
0.273961 0.311989 0.000000
0.311604 0.311604 0.000000
0.349014 0.311221 0.000000
0.386217 0.310841 0.000000
0.423231 0.310462 0.000000
0.460072 0.310085 0.000000
0.496756 0.309710 0.000000
0.533293 0.309336 0.000000
0.569693 0.308964 0.000000
0.605966 0.308593 0.000000
0.642120 0.308223 0.000000
0.678161 0.307855 0.000000
0.719476 0.307487 0.000000
0.763482 0.307121 0.000000
0.800494 0.306755 0.000000
0.831641 0.306391 0.000000
0.857867 0.306027 0.000000
0.879960 0.305664 0.000000
0.898580 0.305302 0.000000
0.914280 0.304941 0.000000
0.927525 0.304581 0.000000
0.938703 0.304221 0.000000
0.948140 0.303862 0.000000
0.956110 0.303503 0.000000
0.000000 0.351755 0.000000
0.000000 0.351306 0.000000
0.039215 0.350883 0.000000
0.079474 0.350471 0.000000
0.119006 0.350067 0.000000
0.157997 0.349668 0.000000
0.196559 0.349273 0.000000
0.234767 0.348883 0.000000
0.272673 0.348495 0.000000
0.310317 0.348110 0.000000
0.347727 0.347727 0.000000
0.384930 0.347347 0.000000
0.421944 0.346968 0.000000
0.458785 0.346591 0.000000
0.495469 0.346216 0.000000
0.532005 0.345843 0.000000
0.568406 0.345470 0.000000
0.604679 0.345099 0.000000
0.640833 0.344730 0.000000
0.676874 0.344361 0.000000
0.717751 0.343993 0.000000
0.762028 0.343627 0.000000
0.799268 0.343261 0.000000
0.830606 0.342897 0.000000
0.856993 0.342533 0.000000
0.879222 0.342170 0.000000
0.897956 0.341808 0.000000
0.913753 0.341447 0.000000
0.927080 0.341087 0.000000
0.938326 0.340727 0.000000
0.947821 0.340368 0.000000
0.955840 0.340009 0.000000
0.000000 0.388057 0.000000
0.000000 0.387609 0.000000
0.037935 0.387185 0.000000
0.078194 0.386774 0.000000
0.117726 0.386369 0.000000
0.156717 0.385971 0.000000
0.195279 0.385576 0.000000
0.233488 0.385185 0.000000
0.271394 0.384798 0.000000
0.309037 0.384413 0.000000
0.346447 0.384030 0.000000
0.383650 0.383650 0.000000
0.420664 0.383271 0.000000
0.457505 0.382894 0.000000
0.494189 0.382519 0.000000
0.530726 0.382146 0.000000
0.567126 0.381773 0.000000
0.603399 0.381402 0.000000
0.639553 0.381033 0.000000
0.675594 0.380664 0.000000
0.716025 0.380296 0.000000
0.760573 0.379930 0.000000
0.798041 0.379564 0.000000
0.829571 0.379200 0.000000
0.856119 0.378836 0.000000
0.878483 0.378473 0.000000
0.897332 0.378111 0.000000
0.913226 0.377750 0.000000
0.926634 0.377390 0.000000
0.937949 0.377030 0.000000
0.947502 0.376671 0.000000
0.955570 0.376312 0.000000
0.000000 0.424176 0.000000
0.000000 0.423728 0.000000
0.036661 0.423304 0.000000
0.076921 0.422893 0.000000
0.116452 0.422488 0.000000
0.155443 0.422090 0.000000
0.194006 0.421695 0.000000
0.232214 0.421304 0.000000
0.270120 0.420917 0.000000
0.307763 0.420532 0.000000
0.345174 0.420149 0.000000
0.382376 0.419769 0.000000
0.419390 0.419390 0.000000
0.456232 0.419013 0.000000
0.492915 0.418638 0.000000
0.529452 0.418264 0.000000
0.565853 0.417892 0.000000
0.602126 0.417521 0.000000
0.638279 0.417151 0.000000
0.674320 0.416783 0.000000
0.714298 0.416415 0.000000
0.759117 0.416049 0.000000
0.796812 0.415683 0.000000
0.828534 0.415319 0.000000
0.855244 0.414955 0.000000
0.877744 0.414592 0.000000
0.896708 0.414230 0.000000
0.912698 0.413869 0.000000
0.926187 0.413509 0.000000
0.937571 0.413149 0.000000
0.947182 0.412790 0.000000
0.955300 0.412431 0.000000
0.000000 0.460127 0.000000
0.000000 0.459679 0.000000
0.035394 0.459255 0.000000
0.075653 0.458844 0.000000
0.115185 0.458439 0.000000
0.154176 0.458041 0.000000
0.192738 0.457646 0.000000
0.230946 0.457255 0.000000
0.268852 0.456868 0.000000
0.306496 0.456483 0.000000
0.343906 0.456100 0.000000
0.381109 0.455720 0.000000
0.418123 0.455341 0.000000
0.454964 0.454964 0.000000
0.491648 0.454589 0.000000
0.528184 0.454215 0.000000
0.564585 0.453843 0.000000
0.600858 0.453472 0.000000
0.637012 0.453102 0.000000
0.673053 0.452734 0.000000
0.712568 0.452366 0.000000
0.757658 0.452000 0.000000
0.795582 0.451634 0.000000
0.827496 0.451270 0.000000
0.854367 0.450906 0.000000
0.877004 0.450543 0.000000
0.896083 0.450181 0.000000
0.912170 0.449820 0.000000
0.925741 0.449459 0.000000
0.937193 0.449100 0.000000
0.946863 0.448741 0.000000
0.955029 0.448382 0.000000
0.000000 0.495924 0.000000
0.000000 0.495475 0.000000
0.034132 0.495052 0.000000
0.074391 0.494640 0.000000
0.113923 0.494236 0.000000
0.152914 0.493837 0.000000
0.191476 0.493443 0.000000
0.229684 0.493052 0.000000
0.267590 0.492664 0.000000
0.305234 0.492279 0.000000
0.342644 0.491897 0.000000
0.379847 0.491516 0.000000
0.416860 0.491137 0.000000
0.453702 0.490761 0.000000
0.490386 0.490386 0.000000
0.526922 0.490012 0.000000
0.563323 0.489640 0.000000
0.599596 0.489269 0.000000
0.635750 0.488899 0.000000
0.671791 0.488530 0.000000
0.710836 0.488163 0.000000
0.756198 0.487796 0.000000
0.794350 0.487431 0.000000
0.826456 0.487066 0.000000
0.853489 0.486702 0.000000
0.876262 0.486340 0.000000
0.895456 0.485978 0.000000
0.911640 0.485616 0.000000
0.925293 0.485256 0.000000
0.936815 0.484896 0.000000
0.946542 0.484537 0.000000
0.954758 0.484179 0.000000
0.000000 0.531577 0.000000
0.000000 0.531128 0.000000
0.032874 0.530705 0.000000
0.073134 0.530293 0.000000
0.112665 0.529889 0.000000
0.151657 0.529490 0.000000
0.190219 0.529096 0.000000
0.228427 0.528705 0.000000
0.266333 0.528318 0.000000
0.303976 0.527933 0.000000
0.341387 0.527550 0.000000
0.378590 0.527169 0.000000
0.415603 0.526791 0.000000
0.452445 0.526414 0.000000
0.489128 0.526039 0.000000
0.525665 0.525665 0.000000
0.562066 0.525293 0.000000
0.598339 0.524922 0.000000
0.634493 0.524552 0.000000
0.670534 0.524184 0.000000
0.709099 0.523816 0.000000
0.754734 0.523450 0.000000
0.793115 0.523084 0.000000
0.825414 0.522720 0.000000
0.852610 0.522356 0.000000
0.875520 0.521993 0.000000
0.894828 0.521631 0.000000
0.911110 0.521270 0.000000
0.924844 0.520909 0.000000
0.936435 0.520550 0.000000
0.946221 0.520191 0.000000
0.954486 0.519832 0.000000
0.000000 0.567098 0.000000
0.000000 0.566649 0.000000
0.031622 0.566226 0.000000
0.071882 0.565814 0.000000
0.111413 0.565410 0.000000
0.150404 0.565011 0.000000
0.188967 0.564616 0.000000
0.227175 0.564226 0.000000
0.265081 0.563838 0.000000
0.302724 0.563453 0.000000
0.340135 0.563070 0.000000
0.377337 0.562690 0.000000
0.414351 0.562311 0.000000
0.451193 0.561935 0.000000
0.487876 0.561559 0.000000
0.524413 0.561186 0.000000
0.560813 0.560813 0.000000
0.597087 0.560442 0.000000
0.633240 0.560073 0.000000
0.669281 0.559704 0.000000
0.707359 0.559337 0.000000
0.753267 0.558970 0.000000
0.791877 0.558605 0.000000
0.824370 0.558240 0.000000
0.851728 0.557876 0.000000
0.874775 0.557514 0.000000
0.894199 0.557152 0.000000
0.910578 0.556790 0.000000
0.924395 0.556430 0.000000
0.936055 0.556070 0.000000
0.945900 0.555711 0.000000
0.954214 0.555353 0.000000
0.000000 0.602494 0.000000
0.000000 0.602045 0.000000
0.030374 0.601622 0.000000
0.070634 0.601210 0.000000
0.110165 0.600806 0.000000
0.149156 0.600407 0.000000
0.187719 0.600013 0.000000
0.225927 0.599622 0.000000
0.263833 0.599234 0.000000
0.301476 0.598849 0.000000
0.338887 0.598467 0.000000
0.376089 0.598086 0.000000
0.413103 0.597708 0.000000
0.449945 0.597331 0.000000
0.486628 0.596956 0.000000
0.523165 0.596582 0.000000
0.559565 0.596210 0.000000
0.595839 0.595839 0.000000
0.631992 0.595469 0.000000
0.668033 0.595100 0.000000
0.705615 0.594733 0.000000
0.751796 0.594366 0.000000
0.790637 0.594001 0.000000
0.823323 0.593636 0.000000
0.850844 0.593273 0.000000
0.874029 0.592910 0.000000
0.893569 0.592548 0.000000
0.910045 0.592186 0.000000
0.923944 0.591826 0.000000
0.935674 0.591466 0.000000
0.945577 0.591107 0.000000
0.953941 0.590749 0.000000
0.000000 0.637773 0.000000
0.000000 0.637324 0.000000
0.029130 0.636901 0.000000
0.069390 0.636490 0.000000
0.108921 0.636085 0.000000
0.147912 0.635686 0.000000
0.186475 0.635292 0.000000
0.224683 0.634901 0.000000
0.262589 0.634514 0.000000
0.300232 0.634129 0.000000
0.337643 0.633746 0.000000
0.374845 0.633366 0.000000
0.411859 0.632987 0.000000
0.448701 0.632610 0.000000
0.485384 0.632235 0.000000
0.521921 0.631861 0.000000
0.558322 0.631489 0.000000
0.594595 0.631118 0.000000
0.630748 0.630748 0.000000
0.666789 0.630380 0.000000
0.703866 0.630012 0.000000
0.750322 0.629646 0.000000
0.789393 0.629280 0.000000
0.822273 0.628916 0.000000
0.849958 0.628552 0.000000
0.873280 0.628189 0.000000
0.892936 0.627827 0.000000
0.909511 0.627466 0.000000
0.923492 0.627105 0.000000
0.935292 0.626746 0.000000
0.945254 0.626387 0.000000
0.953668 0.626028 0.000000
0.000000 0.672943 0.000000
0.000000 0.672494 0.000000
0.027890 0.672071 0.000000
0.068150 0.671659 0.000000
0.107681 0.671255 0.000000
0.146672 0.670856 0.000000
0.185235 0.670462 0.000000
0.223443 0.670071 0.000000
0.261349 0.669683 0.000000
0.298992 0.669298 0.000000
0.336403 0.668916 0.000000
0.373605 0.668535 0.000000
0.410619 0.668157 0.000000
0.447461 0.667780 0.000000
0.484144 0.667405 0.000000
0.520681 0.667031 0.000000
0.557082 0.666659 0.000000
0.593355 0.666288 0.000000
0.629508 0.665918 0.000000
0.665549 0.665549 0.000000
0.702112 0.665182 0.000000
0.748843 0.664815 0.000000
0.788146 0.664450 0.000000
0.821221 0.664085 0.000000
0.849070 0.663722 0.000000
0.872530 0.663359 0.000000
0.892302 0.662997 0.000000
0.908975 0.662636 0.000000
0.923039 0.662275 0.000000
0.934909 0.661915 0.000000
0.944930 0.661556 0.000000
0.953393 0.661198 0.000000
0.000000 0.711225 0.000000
0.000000 0.710608 0.000000
0.026654 0.710024 0.000000
0.066914 0.709455 0.000000
0.106445 0.708895 0.000000
0.145436 0.708342 0.000000
0.183999 0.707793 0.000000
0.222207 0.707249 0.000000
0.260113 0.706708 0.000000
0.297756 0.706170 0.000000
0.335167 0.705634 0.000000
0.372369 0.705100 0.000000
0.409383 0.704568 0.000000
0.446224 0.704038 0.000000
0.482908 0.703508 0.000000
0.519445 0.702980 0.000000
0.555845 0.702453 0.000000
0.592118 0.701927 0.000000
0.628272 0.701402 0.000000
0.664313 0.700877 0.000000
0.700354 0.700354 0.000000
0.747360 0.699881 0.000000
0.786895 0.699516 0.000000
0.820165 0.699151 0.000000
0.848178 0.698787 0.000000
0.871777 0.698425 0.000000
0.891666 0.698063 0.000000
0.908437 0.697701 0.000000
0.922585 0.697341 0.000000
0.934524 0.696981 0.000000
0.944604 0.696622 0.000000
0.953118 0.696264 0.000000
0.000000 0.755520 0.000000
0.000000 0.754997 0.000000
0.025421 0.754502 0.000000
0.065681 0.754021 0.000000
0.105212 0.753547 0.000000
0.144203 0.753078 0.000000
0.182766 0.752614 0.000000
0.220974 0.752153 0.000000
0.258880 0.751695 0.000000
0.296523 0.751240 0.000000
0.333934 0.750786 0.000000
0.371136 0.750334 0.000000
0.408150 0.749884 0.000000
0.444992 0.749434 0.000000
0.481675 0.748986 0.000000
0.518212 0.748539 0.000000
0.554612 0.748093 0.000000
0.590886 0.747648 0.000000
0.627039 0.747203 0.000000
0.663080 0.746759 0.000000
0.699015 0.746315 0.000000
0.745872 0.745872 0.000000
0.785640 0.745430 0.000000
0.819106 0.744987 0.000000
0.847284 0.744545 0.000000
0.871022 0.744103 0.000000
0.891029 0.743662 0.000000
0.907898 0.743221 0.000000
0.922129 0.742779 0.000000
0.934139 0.742338 0.000000
0.944278 0.741898 0.000000
0.952842 0.741457 0.000000
0.000000 0.792928 0.000000
0.000000 0.792485 0.000000
0.024191 0.792066 0.000000
0.064451 0.791658 0.000000
0.103982 0.791256 0.000000
0.142974 0.790860 0.000000
0.181536 0.790467 0.000000
0.219744 0.790076 0.000000
0.257650 0.789688 0.000000
0.295293 0.789302 0.000000
0.332704 0.788918 0.000000
0.369906 0.788535 0.000000
0.406920 0.788154 0.000000
0.443762 0.787773 0.000000
0.480445 0.787394 0.000000
0.516982 0.787015 0.000000
0.553383 0.786637 0.000000
0.589656 0.786260 0.000000
0.625810 0.785884 0.000000
0.661851 0.785507 0.000000
0.697785 0.785132 0.000000
0.744380 0.784756 0.000000
0.784381 0.784381 0.000000
0.818044 0.784007 0.000000
0.846388 0.783632 0.000000
0.870265 0.783258 0.000000
0.890389 0.782884 0.000000
0.907357 0.782510 0.000000
0.921672 0.782137 0.000000
0.933752 0.781763 0.000000
0.943951 0.781390 0.000000
0.952565 0.781016 0.000000
0.000000 0.824537 0.000000
0.000000 0.824162 0.000000
0.022965 0.823807 0.000000
0.063225 0.823462 0.000000
0.102756 0.823121 0.000000
0.141747 0.822785 0.000000
0.180310 0.822452 0.000000
0.218518 0.822121 0.000000
0.256424 0.821793 0.000000
0.294067 0.821466 0.000000
0.331478 0.821140 0.000000
0.368680 0.820816 0.000000
0.405694 0.820492 0.000000
0.442536 0.820170 0.000000
0.479219 0.819848 0.000000
0.515756 0.819528 0.000000
0.552156 0.819207 0.000000
0.588429 0.818888 0.000000
0.624583 0.818569 0.000000
0.660624 0.818250 0.000000
0.696559 0.817931 0.000000
0.742883 0.817613 0.000000
0.783118 0.817296 0.000000
0.816978 0.816978 0.000000
0.845488 0.816661 0.000000
0.869505 0.816344 0.000000
0.889747 0.816027 0.000000
0.906815 0.815710 0.000000
0.921213 0.815394 0.000000
0.933364 0.815077 0.000000
0.943623 0.814761 0.000000
0.952287 0.814444 0.000000
0.000000 0.851262 0.000000
0.000000 0.850944 0.000000
0.021741 0.850643 0.000000
0.062001 0.850350 0.000000
0.101533 0.850061 0.000000
0.140524 0.849776 0.000000
0.179086 0.849494 0.000000
0.217294 0.849214 0.000000
0.255200 0.848935 0.000000
0.292843 0.848658 0.000000
0.330254 0.848382 0.000000
0.367457 0.848107 0.000000
0.404470 0.847833 0.000000
0.441312 0.847560 0.000000
0.477995 0.847287 0.000000
0.514532 0.847015 0.000000
0.550933 0.846744 0.000000
0.587206 0.846473 0.000000
0.623360 0.846202 0.000000
0.659401 0.845932 0.000000
0.695335 0.845662 0.000000
0.741380 0.845392 0.000000
0.781851 0.845123 0.000000
0.815909 0.844854 0.000000
0.844585 0.844585 0.000000
0.868742 0.844316 0.000000
0.889102 0.844048 0.000000
0.906270 0.843779 0.000000
0.920753 0.843511 0.000000
0.932975 0.843242 0.000000
0.943293 0.842974 0.000000
0.952008 0.842706 0.000000
0.000000 0.873867 0.000000
0.000000 0.873597 0.000000
0.020521 0.873342 0.000000
0.060781 0.873094 0.000000
0.100312 0.872849 0.000000
0.139303 0.872607 0.000000
0.177866 0.872368 0.000000
0.216074 0.872130 0.000000
0.253980 0.871894 0.000000
0.291623 0.871659 0.000000
0.329034 0.871425 0.000000
0.366236 0.871192 0.000000
0.403250 0.870959 0.000000
0.440092 0.870727 0.000000
0.476775 0.870496 0.000000
0.513312 0.870266 0.000000
0.549712 0.870035 0.000000
0.585985 0.869806 0.000000
0.622139 0.869576 0.000000
0.658180 0.869347 0.000000
0.694115 0.869118 0.000000
0.739873 0.868890 0.000000
0.780580 0.868661 0.000000
0.814836 0.868433 0.000000
0.843679 0.868205 0.000000
0.867977 0.867977 0.000000
0.888456 0.867749 0.000000
0.905724 0.867522 0.000000
0.920291 0.867294 0.000000
0.932584 0.867066 0.000000
0.942963 0.866839 0.000000
0.951729 0.866612 0.000000
0.000000 0.892997 0.000000
0.000000 0.892768 0.000000
0.019303 0.892552 0.000000
0.059563 0.892341 0.000000
0.099094 0.892133 0.000000
0.138085 0.891928 0.000000
0.176648 0.891725 0.000000
0.214856 0.891524 0.000000
0.252762 0.891323 0.000000
0.290405 0.891124 0.000000
0.327816 0.890925 0.000000
0.365018 0.890727 0.000000
0.402032 0.890530 0.000000
0.438874 0.890334 0.000000
0.475557 0.890138 0.000000
0.512094 0.889942 0.000000
0.548494 0.889747 0.000000
0.584768 0.889552 0.000000
0.620921 0.889357 0.000000
0.656962 0.889163 0.000000
0.692897 0.888969 0.000000
0.738360 0.888775 0.000000
0.779303 0.888581 0.000000
0.813759 0.888387 0.000000
0.842770 0.888194 0.000000
0.867209 0.888000 0.000000
0.887807 0.887807 0.000000
0.905176 0.887614 0.000000
0.919827 0.887421 0.000000
0.932192 0.887228 0.000000
0.942631 0.887035 0.000000
0.951448 0.886842 0.000000
0.000000 0.909193 0.000000
0.000000 0.908999 0.000000
0.018088 0.908816 0.000000
0.058348 0.908637 0.000000
0.097879 0.908461 0.000000
0.136870 0.908287 0.000000
0.175433 0.908114 0.000000
0.213641 0.907943 0.000000
0.251547 0.907773 0.000000
0.289190 0.907604 0.000000
0.326601 0.907435 0.000000
0.363803 0.907267 0.000000
0.400817 0.907100 0.000000
0.437658 0.906933 0.000000
0.474342 0.906767 0.000000
0.510879 0.906601 0.000000
0.547279 0.906435 0.000000
0.583552 0.906270 0.000000
0.619706 0.906104 0.000000
