assets/luts/clean.cube
# Beauty Camera 3D LUT
# Filter: Clean (clean)
# Category: Natural
TITLE "Clean"
LUT_3D_SIZE 5
DOMAIN_MIN 0.000000 0.000000 0.000000
DOMAIN_MAX 0.903226 0.903226 0.903226
0.000000 0.000000 0.000000
0.245514 0.000000 0.000000
0.483306 0.000000 0.000000
0.715378 0.000000 0.000000
0.943780 0.000000 0.000000
0.000000 0.245514 0.000000
0.245514 0.245514 0.000000
0.483306 0.245514 0.000000
0.715378 0.245514 0.000000
0.943780 0.245514 0.000000
0.000000 0.483306 0.000000
0.245514 0.483306 0.000000
0.483306 0.483306 0.000000
0.715378 0.483306 0.000000
0.943780 0.483306 0.000000
0.000000 0.715378 0.000000
0.245514 0.715378 0.000000
0.483306 0.715378 0.000000
0.715378 0.715378 0.000000
0.943780 0.715378 0.000000
0.000000 0.943780 0.000000
0.245514 0.943780 0.000000
0.483306 0.943780 0.000000
0.715378 0.943780 0.000000
0.943780 0.943780 0.000000
0.000000 0.000000 0.245514
0.245514 0.000000 0.245514
0.483306 0.000000 0.245514
0.715378 0.000000 0.245514
0.943780 0.000000 0.245514
0.000000 0.245514 0.245514
0.245514 0.245514 0.245514
0.483306 0.245514 0.245514
0.715378 0.245514 0.245514
0.943780 0.245514 0.245514
0.000000 0.483306 0.245514
0.245514 0.483306 0.245514
0.483306 0.483306 0.245514
0.715378 0.483306 0.245514
0.943780 0.483306 0.245514
0.000000 0.715378 0.245514
0.245514 0.715378 0.245514
0.483306 0.715378 0.245514
0.715378 0.715378 0.245514
0.943780 0.715378 0.245514
0.000000 0.943780 0.245514
0.245514 0.943780 0.245514
0.483306 0.943780 0.245514
0.715378 0.943780 0.245514
0.943780 0.943780 0.245514
0.000000 0.000000 0.483306
0.245514 0.000000 0.483306
0.483306 0.000000 0.483306
0.715378 0.000000 0.483306
0.943780 0.000000 0.483306
0.000000 0.245514 0.483306
0.245514 0.245514 0.483306
0.483306 0.245514 0.483306
0.715378 0.245514 0.483306
0.943780 0.245514 0.483306
0.000000 0.483306 0.483306
0.245514 0.483306 0.483306
0.483306 0.483306 0.483306
0.715378 0.483306 0.483306
0.943780 0.483306 0.483306
0.000000 0.715378 0.483306
0.245514 0.715378 0.483306
0.483306 0.715378 0.483306
0.715378 0.715378 0.483306
0.943780 0.715378 0.483306
0.000000 0.943780 0.483306
0.245514 0.943780 0.483306
0.483306 0.943780 0.483306
0.715378 0.943780 0.483306
0.943780 0.943780 0.483306
0.000000 0.000000 0.715378
0.245514 0.000000 0.715378
0.483306 0.000000 0.715378
0.715378 0.000000 0.715378
0.943780 0.000000 0.715378
0.000000 0.245514 0.715378
0.245514 0.245514 0.715378
0.483306 0.245514 0.715378
0.715378 0.245514 0.715378
0.943780 0.245514 0.715378
0.000000 0.483306 0.715378
0.245514 0.483306 0.715378
0.483306 0.483306 0.715378
0.715378 0.483306 0.715378
0.943780 0.483306 0.715378
0.000000 0.715378 0.715378
0.245514 0.715378 0.715378
0.483306 0.715378 0.715378
0.715378 0.715378 0.715378
0.943780 0.715378 0.715378
0.000000 0.943780 0.715378
0.245514 0.943780 0.715378
0.483306 0.943780 0.715378
0.715378 0.943780 0.715378
0.943780 0.943780 0.715378
0.000000 0.000000 0.943780
0.245514 0.000000 0.943780
0.483306 0.000000 0.943780
0.715378 0.000000 0.943780
0.943780 0.000000 0.943780
0.000000 0.245514 0.943780
0.245514 0.245514 0.943780
0.483306 0.245514 0.943780
0.715378 0.245514 0.943780
0.943780 0.245514 0.943780
0.000000 0.483306 0.943780
0.245514 0.483306 0.943780
0.483306 0.483306 0.943780
0.715378 0.483306 0.943780
0.943780 0.483306 0.943780
0.000000 0.715378 0.943780
0.245514 0.715378 0.943780
0.483306 0.715378 0.943780
0.715378 0.715378 0.943780
0.943780 0.715378 0.943780
0.000000 0.943780 0.943780
0.245514 0.943780 0.943780
0.483306 0.943780 0.943780
0.715378 0.943780 0.943780
0.943780 0.943780 0.943780
