assets/luts/clear.cube
# Beauty Camera 3D LUT
# Filter: Clear (clear)
# Category: Natural
TITLE "Clear"
LUT_3D_SIZE 5
DOMAIN_MIN 0.000000 0.000000 0.000000
DOMAIN_MAX 0.903226 0.903226 0.903226
0.000000 0.000000 0.000000
0.248315 0.000000 0.000000
0.509016 0.000000 0.000000
0.776896 0.000000 0.000000
0.931635 0.000000 0.000000
0.000000 0.241526 0.000000
0.238654 0.238654 0.000000
0.499355 0.235988 0.000000
0.766392 0.233398 0.000000
0.928417 0.230858 0.000000
0.000000 0.495924 0.000000
0.229684 0.493052 0.000000
0.490386 0.490386 0.000000
0.756198 0.487796 0.000000
0.925293 0.485256 0.000000
0.000000 0.755520 0.000000
0.220974 0.752153 0.000000
0.481675 0.748986 0.000000
0.745872 0.745872 0.000000
0.922129 0.742779 0.000000
0.000000 0.922912 0.000000
0.212428 0.921850 0.000000
0.473129 0.920852 0.000000
0.735317 0.919870 0.000000
0.918895 0.918895 0.000000
0.000000 0.000000 0.250212
0.247340 0.000000 0.247340
0.508041 0.000000 0.244674
0.775857 0.000000 0.242084
0.931317 0.000000 0.239544
0.000000 0.240551 0.240551
0.237679 0.237679 0.237679
0.498380 0.235012 0.235012
0.765304 0.232423 0.232423
0.928083 0.229883 0.229883
0.000000 0.494948 0.231581
0.228709 0.492076 0.228709
0.489410 0.489410 0.226043
0.755063 0.486821 0.223453
0.924945 0.484281 0.220913
0.000000 0.754382 0.222870
0.219998 0.750999 0.219998
0.480700 0.747818 0.217332
0.744689 0.744689 0.214743
0.921767 0.741582 0.212203
0.000000 0.922553 0.214325
0.211453 0.921487 0.211453
0.472154 0.920483 0.208786
0.734085 0.919497 0.206197
0.918517 0.918517 0.203657
0.000000 0.000000 0.512674
0.246434 0.000000 0.509802
0.507136 0.000000 0.507136
0.774888 0.000000 0.504546
0.931020 0.000000 0.502006
0.000000 0.239645 0.503012
0.236773 0.236773 0.500141
0.497474 0.234107 0.497474
0.764290 0.231518 0.494885
0.927773 0.228977 0.492345
0.000000 0.494043 0.494043
0.227804 0.491171 0.491171
0.488505 0.488505 0.488505
0.754004 0.485915 0.485915
0.924621 0.483375 0.483375
0.000000 0.753320 0.485332
0.219093 0.749924 0.482460
0.479794 0.746728 0.479794
0.743586 0.743586 0.477205
0.921428 0.740465 0.474665
0.000000 0.922218 0.476787
0.210547 0.921147 0.473915
0.471248 0.920140 0.471248
0.732936 0.919149 0.468659
0.918165 0.918165 0.466119
0.000000 0.000000 0.782526
0.245555 0.000000 0.779531
0.506256 0.000000 0.776714
0.773944 0.000000 0.773944
0.930731 0.000000 0.771193
0.000000 0.238766 0.772287
0.235894 0.235894 0.769151
0.496595 0.233227 0.766201
0.763301 0.230638 0.763301
0.927470 0.228098 0.760420
0.000000 0.493164 0.762350
0.226924 0.490292 0.759078
0.487625 0.487625 0.755999
0.752972 0.485036 0.752972
0.924305 0.482496 0.749966
0.000000 0.752285 0.752285
0.218214 0.748874 0.748874
0.478915 0.745665 0.745665
0.742510 0.742510 0.742510
0.921099 0.739376 0.739376
0.000000 0.921892 0.741997
0.209668 0.920816 0.738444
0.470369 0.919805 0.735102
0.731816 0.918810 0.731816
0.917822 0.917822 0.728552
0.000000 0.000000 0.933891
0.244692 0.000000 0.932980
0.505394 0.000000 0.932124
0.773013 0.000000 0.931282
0.930446 0.000000 0.930446
0.000000 0.237903 0.930778
0.235031 0.235031 0.929825
0.495732 0.232365 0.928928
0.762327 0.229775 0.928047
0.927171 0.227235 0.927171
0.000000 0.492301 0.927758
0.226062 0.489429 0.926763
0.486763 0.486763 0.925827
0.751955 0.484173 0.924907
0.923993 0.481633 0.923993
0.000000 0.751265 0.924698
0.217351 0.747840 0.923661
0.478052 0.744618 0.922686
0.741450 0.741450 0.921727
0.920774 0.738303 0.920774
0.000000 0.921570 0.921570
0.208805 0.920491 0.920491
0.469506 0.919475 0.919475
0.730712 0.918476 0.918476
0.917483 0.917483 0.917483
