assets/luts/clean.cube
# Beauty Camera 3D LUT
# Filter: Clean (clean)
# Category: Natural
TITLE "Clean"
LUT_3D_SIZE 8
DOMAIN_MIN 0.000000 0.000000 0.000000
DOMAIN_MAX 0.903226 0.903226 0.903226
0.000000 0.000000 0.000000
0.140582 0.000000 0.000000
0.279984 0.000000 0.000000
0.416092 0.000000 0.000000
0.550072 0.000000 0.000000
0.682480 0.000000 0.000000
0.813644 0.000000 0.000000
0.943780 0.000000 0.000000
0.000000 0.140582 0.000000
0.140582 0.140582 0.000000
0.279984 0.140582 0.000000
0.416092 0.140582 0.000000
0.550072 0.140582 0.000000
0.682480 0.140582 0.000000
0.813644 0.140582 0.000000
0.943780 0.140582 0.000000
0.000000 0.279984 0.000000
0.140582 0.279984 0.000000
0.279984 0.279984 0.000000
0.416092 0.279984 0.000000
0.550072 0.279984 0.000000
0.682480 0.279984 0.000000
0.813644 0.279984 0.000000
0.943780 0.279984 0.000000
0.000000 0.416092 0.000000
0.140582 0.416092 0.000000
0.279984 0.416092 0.000000
0.416092 0.416092 0.000000
0.550072 0.416092 0.000000
0.682480 0.416092 0.000000
0.813644 0.416092 0.000000
0.943780 0.416092 0.000000
0.000000 0.550072 0.000000
0.140582 0.550072 0.000000
0.279984 0.550072 0.000000
0.416092 0.550072 0.000000
0.550072 0.550072 0.000000
0.682480 0.550072 0.000000
0.813644 0.550072 0.000000
0.943780 0.550072 0.000000
0.000000 0.682480 0.000000
0.140582 0.682480 0.000000
0.279984 0.682480 0.000000
0.416092 0.682480 0.000000
0.550072 0.682480 0.000000
0.682480 0.682480 0.000000
0.813644 0.682480 0.000000
0.943780 0.682480 0.000000
0.000000 0.813644 0.000000
0.140582 0.813644 0.000000
0.279984 0.813644 0.000000
0.416092 0.813644 0.000000
0.550072 0.813644 0.000000
0.682480 0.813644 0.000000
0.813644 0.813644 0.000000
0.943780 0.813644 0.000000
0.000000 0.943780 0.000000
0.140582 0.943780 0.000000
0.279984 0.943780 0.000000
0.416092 0.943780 0.000000
0.550072 0.943780 0.000000
0.682480 0.943780 0.000000
0.813644 0.943780 0.000000
0.943780 0.943780 0.000000
0.000000 0.000000 0.140582
0.140582 0.000000 0.140582
0.279984 0.000000 0.140582
0.416092 0.000000 0.140582
0.550072 0.000000 0.140582
0.682480 0.000000 0.140582
0.813644 0.000000 0.140582
0.943780 0.000000 0.140582
0.000000 0.140582 0.140582
0.140582 0.140582 0.140582
0.279984 0.140582 0.140582
0.416092 0.140582 0.140582
0.550072 0.140582 0.140582
0.682480 0.140582 0.140582
0.813644 0.140582 0.140582
0.943780 0.140582 0.140582
0.000000 0.279984 0.140582
0.140582 0.279984 0.140582
0.279984 0.279984 0.140582
0.416092 0.279984 0.140582
0.550072 0.279984 0.140582
0.682480 0.279984 0.140582
0.813644 0.279984 0.140582
0.943780 0.279984 0.140582
0.000000 0.416092 0.140582
0.140582 0.416092 0.140582
0.279984 0.416092 0.140582
0.416092 0.416092 0.140582
0.550072 0.416092 0.140582
0.682480 0.416092 0.140582
0.813644 0.416092 0.140582
0.943780 0.416092 0.140582
0.000000 0.550072 0.140582
0.140582 0.550072 0.140582
0.279984 0.550072 0.140582
0.416092 0.550072 0.140582
0.550072 0.550072 0.140582
0.682480 0.550072 0.140582
0.813644 0.550072 0.140582
0.943780 0.550072 0.140582
0.000000 0.682480 0.140582
0.140582 0.682480 0.140582
0.279984 0.682480 0.140582
0.416092 0.682480 0.140582
0.550072 0.682480 0.140582
0.682480 0.682480 0.140582
0.813644 0.682480 0.140582
0.943780 0.682480 0.140582
0.000000 0.813644 0.140582
0.140582 0.813644 0.140582
0.279984 0.813644 0.140582
0.416092 0.813644 0.140582
0.550072 0.813644 0.140582
0.682480 0.813644 0.140582
0.813644 0.813644 0.140582
0.943780 0.813644 0.140582
0.000000 0.943780 0.140582
0.140582 0.943780 0.140582
0.279984 0.943780 0.140582
0.416092 0.943780 0.140582
0.550072 0.943780 0.140582
0.682480 0.943780 0.140582
0.813644 0.943780 0.140582
0.943780 0.943780 0.140582
0.000000 0.000000 0.279984
0.140582 0.000000 0.279984
0.279984 0.000000 0.279984
0.416092 0.000000 0.279984
0.550072 0.000000 0.279984
0.682480 0.000000 0.279984
0.813644 0.000000 0.279984
0.943780 0.000000 0.279984
0.000000 0.140582 0.279984
0.140582 0.140582 0.279984
0.279984 0.140582 0.279984
0.416092 0.140582 0.279984
0.550072 0.140582 0.279984
0.682480 0.140582 0.279984
0.813644 0.140582 0.279984
0.943780 0.140582 0.279984
0.000000 0.279984 0.279984
0.140582 0.279984 0.279984
0.279984 0.279984 0.279984
0.416092 0.279984 0.279984
0.550072 0.279984 0.279984
0.682480 0.279984 0.279984
0.813644 0.279984 0.279984
0.943780 0.279984 0.279984
0.000000 0.416092 0.279984
0.140582 0.416092 0.279984
0.279984 0.416092 0.279984
0.416092 0.416092 0.279984
0.550072 0.416092 0.279984
0.682480 0.416092 0.279984
0.813644 0.416092 0.279984
0.943780 0.416092 0.279984
0.000000 0.550072 0.279984
0.140582 0.550072 0.279984
0.279984 0.550072 0.279984
0.416092 0.550072 0.279984
0.550072 0.550072 0.279984
0.682480 0.550072 0.279984
0.813644 0.550072 0.279984
0.943780 0.550072 0.279984
0.000000 0.682480 0.279984
0.140582 0.682480 0.279984
0.279984 0.682480 0.279984
0.416092 0.682480 0.279984
0.550072 0.682480 0.279984
0.682480 0.682480 0.279984
0.813644 0.682480 0.279984
0.943780 0.682480 0.279984
0.000000 0.813644 0.279984
0.140582 0.813644 0.279984
0.279984 0.813644 0.279984
0.416092 0.813644 0.279984
0.550072 0.813644 0.279984
0.682480 0.813644 0.279984
0.813644 0.813644 0.279984
0.943780 0.813644 0.279984
0.000000 0.943780 0.279984
0.140582 0.943780 0.279984
0.279984 0.943780 0.279984
0.416092 0.943780 0.279984
0.550072 0.943780 0.279984
0.682480 0.943780 0.279984
0.813644 0.943780 0.279984
0.943780 0.943780 0.279984
0.000000 0.000000 0.416092
0.140582 0.000000 0.416092
0.279984 0.000000 0.416092
0.416092 0.000000 0.416092
0.550072 0.000000 0.416092
0.682480 0.000000 0.416092
0.813644 0.000000 0.416092
0.943780 0.000000 0.416092
0.000000 0.140582 0.416092
0.140582 0.140582 0.416092
0.279984 0.140582 0.416092
0.416092 0.140582 0.416092
0.550072 0.140582 0.416092
0.682480 0.140582 0.416092
0.813644 0.140582 0.416092
0.943780 0.140582 0.416092
0.000000 0.279984 0.416092
0.140582 0.279984 0.416092
0.279984 0.279984 0.416092
0.416092 0.279984 0.416092
0.550072 0.279984 0.416092
0.682480 0.279984 0.416092
0.813644 0.279984 0.416092
0.943780 0.279984 0.416092
0.000000 0.416092 0.416092
0.140582 0.416092 0.416092
0.279984 0.416092 0.416092
0.416092 0.416092 0.416092
0.550072 0.416092 0.416092
0.682480 0.416092 0.416092
0.813644 0.416092 0.416092
0.943780 0.416092 0.416092
0.000000 0.550072 0.416092
0.140582 0.550072 0.416092
0.279984 0.550072 0.416092
0.416092 0.550072 0.416092
0.550072 0.550072 0.416092
0.682480 0.550072 0.416092
0.813644 0.550072 0.416092
0.943780 0.550072 0.416092
0.000000 0.682480 0.416092
0.140582 0.682480 0.416092
0.279984 0.682480 0.416092
0.416092 0.682480 0.416092
0.550072 0.682480 0.416092
0.682480 0.682480 0.416092
0.813644 0.682480 0.416092
0.943780 0.682480 0.416092
0.000000 0.813644 0.416092
0.140582 0.813644 0.416092
0.279984 0.813644 0.416092
0.416092 0.813644 0.416092
0.550072 0.813644 0.416092
0.682480 0.813644 0.416092
0.813644 0.813644 0.416092
0.943780 0.813644 0.416092
0.000000 0.943780 0.416092
0.140582 0.943780 0.416092
0.279984 0.943780 0.416092
0.416092 0.943780 0.416092
0.550072 0.943780 0.416092
0.682480 0.943780 0.416092
0.813644 0.943780 0.416092
0.943780 0.943780 0.416092
0.000000 0.000000 0.550072
0.140582 0.000000 0.550072
0.279984 0.000000 0.550072
0.416092 0.000000 0.550072
0.550072 0.000000 0.550072
0.682480 0.000000 0.550072
0.813644 0.000000 0.550072
0.943780 0.000000 0.550072
0.000000 0.140582 0.550072
0.140582 0.140582 0.550072
0.279984 0.140582 0.550072
0.416092 0.140582 0.550072
0.550072 0.140582 0.550072
0.682480 0.140582 0.550072
0.813644 0.140582 0.550072
0.943780 0.140582 0.550072
0.000000 0.279984 0.550072
0.140582 0.279984 0.550072
0.279984 0.279984 0.550072
0.416092 0.279984 0.550072
0.550072 0.279984 0.550072
0.682480 0.279984 0.550072
0.813644 0.279984 0.550072
0.943780 0.279984 0.550072
0.000000 0.416092 0.550072
0.140582 0.416092 0.550072
0.279984 0.416092 0.550072
0.416092 0.416092 0.550072
0.550072 0.416092 0.550072
0.682480 0.416092 0.550072
0.813644 0.416092 0.550072
0.943780 0.416092 0.550072
0.000000 0.550072 0.550072
0.140582 0.550072 0.550072
0.279984 0.550072 0.550072
0.416092 0.550072 0.550072
0.550072 0.550072 0.550072
0.682480 0.550072 0.550072
0.813644 0.550072 0.550072
0.943780 0.550072 0.550072
0.000000 0.682480 0.550072
0.140582 0.682480 0.550072
0.279984 0.682480 0.550072
0.416092 0.682480 0.550072
0.550072 0.682480 0.550072
0.682480 0.682480 0.550072
0.813644 0.682480 0.550072
0.943780 0.682480 0.550072
0.000000 0.813644 0.550072
0.140582 0.813644 0.550072
0.279984 0.813644 0.550072
0.416092 0.813644 0.550072
0.550072 0.813644 0.550072
0.682480 0.813644 0.550072
0.813644 0.813644 0.550072
0.943780 0.813644 0.550072
0.000000 0.943780 0.550072
0.140582 0.943780 0.550072
0.279984 0.943780 0.550072
0.416092 0.943780 0.550072
0.550072 0.943780 0.550072
0.682480 0.943780 0.550072
0.813644 0.943780 0.550072
0.943780 0.943780 0.550072
0.000000 0.000000 0.682480
0.140582 0.000000 0.682480
0.279984 0.000000 0.682480
0.416092 0.000000 0.682480
0.550072 0.000000 0.682480
0.682480 0.000000 0.682480
0.813644 0.000000 0.682480
0.943780 0.000000 0.682480
0.000000 0.140582 0.682480
0.140582 0.140582 0.682480
0.279984 0.140582 0.682480
0.416092 0.140582 0.682480
0.550072 0.140582 0.682480
0.682480 0.140582 0.682480
0.813644 0.140582 0.682480
0.943780 0.140582 0.682480
0.000000 0.279984 0.682480
0.140582 0.279984 0.682480
0.279984 0.279984 0.682480
0.416092 0.279984 0.682480
0.550072 0.279984 0.682480
0.682480 0.279984 0.682480
0.813644 0.279984 0.682480
0.943780 0.279984 0.682480
0.000000 0.416092 0.682480
0.140582 0.416092 0.682480
0.279984 0.416092 0.682480
0.416092 0.416092 0.682480
0.550072 0.416092 0.682480
0.682480 0.416092 0.682480
0.813644 0.416092 0.682480
0.943780 0.416092 0.682480
0.000000 0.550072 0.682480
0.140582 0.550072 0.682480
0.279984 0.550072 0.682480
0.416092 0.550072 0.682480
0.550072 0.550072 0.682480
0.682480 0.550072 0.682480
0.813644 0.550072 0.682480
0.943780 0.550072 0.682480
0.000000 0.682480 0.682480
0.140582 0.682480 0.682480
0.279984 0.682480 0.682480
0.416092 0.682480 0.682480
0.550072 0.682480 0.682480
0.682480 0.682480 0.682480
0.813644 0.682480 0.682480
0.943780 0.682480 0.682480
0.000000 0.813644 0.682480
0.140582 0.813644 0.682480
0.279984 0.813644 0.682480
0.416092 0.813644 0.682480
0.550072 0.813644 0.682480
0.682480 0.813644 0.682480
0.813644 0.813644 0.682480
0.943780 0.813644 0.682480
0.000000 0.943780 0.682480
0.140582 0.943780 0.682480
0.279984 0.943780 0.682480
0.416092 0.943780 0.682480
0.550072 0.943780 0.682480
0.682480 0.943780 0.682480
0.813644 0.943780 0.682480
0.943780 0.943780 0.682480
0.000000 0.000000 0.813644
0.140582 0.000000 0.813644
0.279984 0.000000 0.813644
0.416092 0.000000 0.813644
0.550072 0.000000 0.813644
0.682480 0.000000 0.813644
0.813644 0.000000 0.813644
0.943780 0.000000 0.813644
0.000000 0.140582 0.813644
0.140582 0.140582 0.813644
0.279984 0.140582 0.813644
0.416092 0.140582 0.813644
0.550072 0.140582 0.813644
0.682480 0.140582 0.813644
0.813644 0.140582 0.813644
0.943780 0.140582 0.813644
0.000000 0.279984 0.813644
0.140582 0.279984 0.813644
0.279984 0.279984 0.813644
0.416092 0.279984 0.813644
0.550072 0.279984 0.813644
0.682480 0.279984 0.813644
0.813644 0.279984 0.813644
0.943780 0.279984 0.813644
0.000000 0.416092 0.813644
0.140582 0.416092 0.813644
0.279984 0.416092 0.813644
0.416092 0.416092 0.813644
0.550072 0.416092 0.813644
0.682480 0.416092 0.813644
0.813644 0.416092 0.813644
0.943780 0.416092 0.813644
0.000000 0.550072 0.813644
0.140582 0.550072 0.813644
0.279984 0.550072 0.813644
0.416092 0.550072 0.813644
0.550072 0.550072 0.813644
0.682480 0.550072 0.813644
0.813644 0.550072 0.813644
0.943780 0.550072 0.813644
0.000000 0.682480 0.813644
0.140582 0.682480 0.813644
0.279984 0.682480 0.813644
0.416092 0.682480 0.813644
0.550072 0.682480 0.813644
0.682480 0.682480 0.813644
0.813644 0.682480 0.813644
0.943780 0.682480 0.813644
0.000000 0.813644 0.813644
0.140582 0.813644 0.813644
0.279984 0.813644 0.813644
0.416092 0.813644 0.813644
0.550072 0.813644 0.813644
0.682480 0.813644 0.813644
0.813644 0.813644 0.813644
0.943780 0.813644 0.813644
0.000000 0.943780 0.813644
0.140582 0.943780 0.813644
0.279984 0.943780 0.813644
0.416092 0.943780 0.813644
0.550072 0.943780 0.813644
0.682480 0.943780 0.813644
0.813644 0.943780 0.813644
0.943780 0.943780 0.813644
0.000000 0.000000 0.943780
0.140582 0.000000 0.943780
0.279984 0.000000 0.943780
0.416092 0.000000 0.943780
0.550072 0.000000 0.943780
0.682480 0.000000 0.943780
0.813644 0.000000 0.943780
0.943780 0.000000 0.943780
0.000000 0.140582 0.943780
0.140582 0.140582 0.943780
0.279984 0.140582 0.943780
0.416092 0.140582 0.943780
0.550072 0.140582 0.943780
0.682480 0.140582 0.943780
0.813644 0.140582 0.943780
0.943780 0.140582 0.943780
0.000000 0.279984 0.943780
0.140582 0.279984 0.943780
0.279984 0.279984 0.943780
0.416092 0.279984 0.943780
0.550072 0.279984 0.943780
0.682480 0.279984 0.943780
0.813644 0.279984 0.943780
0.943780 0.279984 0.943780
0.000000 0.416092 0.943780
0.140582 0.416092 0.943780
0.279984 0.416092 0.943780
0.416092 0.416092 0.943780
0.550072 0.416092 0.943780
0.682480 0.416092 0.943780
0.813644 0.416092 0.943780
0.943780 0.416092 0.943780
0.000000 0.550072 0.943780
0.140582 0.550072 0.943780
0.279984 0.550072 0.943780
0.416092 0.550072 0.943780
0.550072 0.550072 0.943780
0.682480 0.550072 0.943780
0.813644 0.550072 0.943780
0.943780 0.550072 0.943780
0.000000 0.682480 0.943780
0.140582 0.682480 0.943780
0.279984 0.682480 0.943780
0.416092 0.682480 0.943780
0.550072 0.682480 0.943780
0.682480 0.682480 0.943780
0.813644 0.682480 0.943780
0.943780 0.682480 0.943780
0.000000 0.813644 0.943780
0.140582 0.813644 0.943780
0.279984 0.813644 0.943780
0.416092 0.813644 0.943780
0.550072 0.813644 0.943780
0.682480 0.813644 0.943780
0.813644 0.813644 0.943780
0.943780 0.813644 0.943780
0.000000 0.943780 0.943780
0.140582 0.943780 0.943780
0.279984 0.943780 0.943780
0.416092 0.943780 0.943780
0.550072 0.943780 0.943780
0.682480 0.943780 0.943780
0.813644 0.943780 0.943780
0.943780 0.943780 0.943780
