assets/luts/cool.cube
# Beauty Camera 3D LUT
# Filter: Cool (cool)
# Category: Cool
TITLE "Cool"
LUT_3D_SIZE 5
DOMAIN_MIN 0.000000 0.000000 0.000000
DOMAIN_MAX 0.903226 0.903226 0.903226
0.000000 0.000000 0.014351
0.196189 0.000000 0.013403
0.429058 0.000000 0.012428
0.664425 0.000000 0.011443
0.901431 0.000000 0.010451
0.000000 0.226110 0.010873
0.192711 0.225163 0.009925
0.425580 0.224188 0.008951
0.660948 0.223203 0.007965
0.897953 0.222210 0.006973
0.000000 0.464757 0.007479
0.189317 0.463809 0.006531
0.422186 0.462834 0.005556
0.657553 0.461849 0.004571
0.894559 0.460857 0.003579
0.000000 0.701024 0.004119
0.185956 0.700077 0.003171
0.418825 0.699102 0.002196
0.654193 0.698117 0.001211
0.891198 0.697124 0.000219
0.000000 0.935747 0.000780
0.182618 0.934799 0.000000
0.415487 0.933824 0.000000
0.650855 0.932839 0.000000
0.887860 0.931847 0.000000
0.000000 0.000000 0.285752
0.195804 0.000000 0.284804
0.428673 0.000000 0.283829
0.664041 0.000000 0.282844
0.901046 0.000000 0.281852
0.000000 0.225726 0.282274
0.192326 0.224778 0.281326
0.425195 0.223803 0.280352
0.660563 0.222818 0.279366
0.897568 0.221826 0.278374
0.000000 0.464372 0.278880
0.188932 0.463424 0.277932
0.421801 0.462450 0.276957
0.657169 0.461464 0.275972
0.894174 0.460472 0.274980
0.000000 0.700640 0.275520
0.185572 0.699692 0.274572
0.418441 0.698717 0.273597
0.653808 0.697732 0.272612
0.890814 0.696740 0.271620
0.000000 0.935362 0.272181
0.182233 0.934414 0.271233
0.415102 0.933439 0.270258
0.650470 0.932454 0.269273
0.887475 0.931462 0.268281
0.000000 0.000000 0.536496
0.195448 0.000000 0.535548
0.428317 0.000000 0.534574
0.663685 0.000000 0.533588
0.900690 0.000000 0.532596
0.000000 0.225370 0.533019
0.191971 0.224422 0.532071
0.424840 0.223448 0.531096
0.660207 0.222462 0.530111
0.897213 0.221470 0.529119
0.000000 0.464017 0.529624
0.188577 0.463069 0.528676
0.421445 0.462094 0.527702
0.656813 0.461109 0.526716
0.893818 0.460117 0.525724
0.000000 0.700284 0.526264
0.185216 0.699336 0.525316
0.418085 0.698362 0.524341
0.653453 0.697376 0.523356
0.890458 0.696384 0.522364
0.000000 0.935006 0.522925
0.181878 0.934059 0.521978
0.414747 0.933084 0.521003
0.650114 0.932099 0.520018
0.887120 0.931106 0.519025
0.000000 0.000000 0.778348
0.195106 0.000000 0.777400
0.427974 0.000000 0.776425
0.663342 0.000000 0.775440
0.900347 0.000000 0.774448
0.000000 0.225027 0.774870
0.191628 0.224079 0.773922
0.424497 0.223105 0.772947
0.659865 0.222119 0.771962
0.896870 0.221127 0.770970
0.000000 0.463674 0.771476
0.188234 0.462726 0.770528
0.421103 0.461751 0.769553
0.656470 0.460766 0.768568
0.893476 0.459774 0.767576
0.000000 0.699941 0.768115
0.184873 0.698994 0.767167
0.417742 0.698019 0.766193
0.653110 0.697033 0.765207
0.890115 0.696041 0.764215
0.000000 0.934664 0.764777
0.181535 0.933716 0.763829
0.414404 0.932741 0.762854
0.649771 0.931756 0.761869
0.886777 0.930764 0.760877
0.000000 0.000000 1.000000
0.194771 0.000000 1.000000
0.427640 0.000000 1.000000
0.663007 0.000000 1.000000
0.900013 0.000000 1.000000
0.000000 0.224693 1.000000
0.191293 0.223745 1.000000
0.424162 0.222770 1.000000
0.659530 0.221785 1.000000
0.896535 0.220793 1.000000
0.000000 0.463339 1.000000
0.187899 0.462391 1.000000
0.420768 0.461416 1.000000
0.656136 0.460431 1.000000
0.893141 0.459439 1.000000
0.000000 0.699607 1.000000
0.184538 0.698659 1.000000
0.417407 0.697684 1.000000
0.652775 0.696699 1.000000
0.889780 0.695707 1.000000
0.000000 0.934329 1.000000
0.181200 0.933381 0.999934
0.414069 0.932406 0.998959
0.649437 0.931421 0.997974
0.886442 0.930429 0.996982
