assets/luts/cool.cube
# Beauty Camera 3D LUT
# Filter: Cool (cool)
# Category: Cool
TITLE "Cool"
LUT_3D_SIZE 8
DOMAIN_MIN 0.000000 0.000000 0.000000
DOMAIN_MAX 0.903226 0.903226 0.903226
0.000000 0.000000 0.014351
0.097683 0.000000 0.013815
0.229240 0.000000 0.013265
0.362209 0.000000 0.012708
0.496102 0.000000 0.012148
0.630688 0.000000 0.011584
0.765828 0.000000 0.011018
0.901431 0.000000 0.010451
0.000000 0.122595 0.012346
0.095678 0.122060 0.011810
0.227235 0.121509 0.011259
0.360203 0.120952 0.010703
0.494097 0.120392 0.010142
0.628683 0.119828 0.009579
0.763823 0.119263 0.009013
0.899425 0.118695 0.008446
0.000000 0.260409 0.010385
0.093718 0.259873 0.009850
0.225275 0.259323 0.009299
0.358243 0.258766 0.008743
0.492137 0.258206 0.008182
0.626723 0.257642 0.007619
0.761863 0.257076 0.007053
0.897465 0.256509 0.006485
0.000000 0.396873 0.008444
0.091777 0.396337 0.007909
0.223334 0.395787 0.007358
0.356302 0.395230 0.006802
0.490196 0.394670 0.006241
0.624782 0.394106 0.005678
0.759922 0.393541 0.005112
0.895524 0.392973 0.004544
0.000000 0.532455 0.006516
0.089849 0.531919 0.005981
0.221405 0.531368 0.005430
0.354374 0.530812 0.004873
0.488268 0.530251 0.004313
0.622853 0.529688 0.003749
0.757993 0.529122 0.003184
0.893596 0.528555 0.002616
0.000000 0.667379 0.004597
0.087929 0.666844 0.004062
0.219486 0.666293 0.003511
0.352455 0.665736 0.002954
0.486349 0.665176 0.002394
0.620934 0.664612 0.001830
0.756074 0.664047 0.001265
0.891677 0.663479 0.000697
0.000000 0.801780 0.002685
0.086018 0.801245 0.002150
0.217575 0.800694 0.001599
0.350543 0.800138 0.001043
0.484437 0.799577 0.000482
0.619023 0.799014 0.000000
0.754163 0.798448 0.000000
0.889765 0.797880 0.000000
0.000000 0.935747 0.000780
0.084113 0.935211 0.000245
0.215669 0.934661 0.000000
0.348638 0.934104 0.000000
0.482532 0.933543 0.000000
0.617117 0.932980 0.000000
0.752257 0.932414 0.000000
0.887860 0.931847 0.000000
0.000000 0.000000 0.173689
0.097457 0.000000 0.173154
0.229014 0.000000 0.172603
0.361983 0.000000 0.172047
0.495876 0.000000 0.171486
0.630462 0.000000 0.170923
0.765602 0.000000 0.170357
0.901205 0.000000 0.169789
0.000000 0.122369 0.171684
0.095452 0.121834 0.171149
0.227009 0.121283 0.170598
0.359977 0.120726 0.170041
0.493871 0.120166 0.169481
0.628457 0.119602 0.168917
0.763597 0.119037 0.168352
0.899199 0.118469 0.167784
0.000000 0.260183 0.169724
0.093492 0.259647 0.169188
0.225049 0.259097 0.168638
0.358017 0.258540 0.168081
0.491911 0.257980 0.167521
0.626497 0.257416 0.166957
0.761637 0.256851 0.166392
0.897239 0.256283 0.165824
0.000000 0.396647 0.167783
0.091551 0.396112 0.167248
0.223108 0.395561 0.166697
0.356076 0.395004 0.166140
0.489970 0.394444 0.165580
0.624556 0.393880 0.165016
0.759696 0.393315 0.164451
0.895298 0.392747 0.163883
0.000000 0.532229 0.165855
0.089623 0.531693 0.165319
0.221180 0.531142 0.164768
0.354148 0.530586 0.164212
0.488042 0.530025 0.163651
0.622628 0.529462 0.163088
0.757767 0.528896 0.162522
0.893370 0.528329 0.161955
0.000000 0.667153 0.163936
0.087704 0.666618 0.163400
0.219260 0.666067 0.162849
0.352229 0.665510 0.162293
0.486123 0.664950 0.161732
0.620708 0.664387 0.161169
0.755848 0.663821 0.160603
0.891451 0.663253 0.160036
0.000000 0.801554 0.162024
0.085792 0.801019 0.161489
0.217349 0.800468 0.160938
0.350317 0.799912 0.160381
0.484211 0.799351 0.159821
0.618797 0.798788 0.159257
0.753937 0.798222 0.158692
0.889539 0.797654 0.158124
0.000000 0.935521 0.160119
0.083887 0.934985 0.159583
0.215444 0.934435 0.159032
0.348412 0.933878 0.158476
0.482306 0.933318 0.157915
0.616891 0.932754 0.157352
0.752031 0.932188 0.156786
0.887634 0.931621 0.156219
0.000000 0.000000 0.322342
0.097247 0.000000 0.321807
0.228804 0.000000 0.321256
0.361772 0.000000 0.320699
0.495666 0.000000 0.320139
0.630252 0.000000 0.319575
0.765391 0.000000 0.319010
0.900994 0.000000 0.318442
0.000000 0.122158 0.320337
0.095241 0.121623 0.319801
0.226798 0.121072 0.319251
0.359767 0.120516 0.318694
0.493660 0.119955 0.318133
0.628246 0.119392 0.317570
0.763386 0.118826 0.317004
0.898989 0.118258 0.316437
0.000000 0.259972 0.318377
0.093281 0.259437 0.317841
0.224838 0.258886 0.317290
0.357807 0.258329 0.316734
0.491700 0.257769 0.316173
0.626286 0.257205 0.315610
0.761426 0.256640 0.315044
0.897029 0.256072 0.314477
0.000000 0.396436 0.316436
0.091340 0.395901 0.315900
0.222897 0.395350 0.315350
0.355866 0.394793 0.314793
0.489759 0.394233 0.314232
0.624345 0.393670 0.313669
0.759485 0.393104 0.313103
0.895088 0.392536 0.312536
0.000000 0.532018 0.314507
0.089412 0.531482 0.313972
0.220969 0.530932 0.313421
0.353937 0.530375 0.312865
0.487831 0.529815 0.312304
0.622417 0.529251 0.311741
0.757557 0.528686 0.311175
0.893159 0.528118 0.310607
0.000000 0.666942 0.312588
0.087493 0.666407 0.312053
0.219050 0.665856 0.311502
0.352018 0.665300 0.310945
0.485912 0.664739 0.310385
0.620498 0.664176 0.309822
0.755638 0.663610 0.309256
0.891240 0.663043 0.308688
0.000000 0.801344 0.310677
0.085581 0.800808 0.310141
0.217138 0.800258 0.309591
0.350107 0.799701 0.309034
0.484000 0.799140 0.308473
0.618586 0.798577 0.307910
0.753726 0.798011 0.307344
0.889329 0.797444 0.306777
0.000000 0.935310 0.308771
0.083676 0.934775 0.308236
0.215233 0.934224 0.307685
0.348201 0.933667 0.307128
0.482095 0.933107 0.306568
0.616681 0.932543 0.306005
0.751821 0.931978 0.305439
0.887423 0.931410 0.304871
0.000000 0.000000 0.465980
0.097043 0.000000 0.465444
0.228600 0.000000 0.464894
0.361568 0.000000 0.464337
0.495462 0.000000 0.463776
0.630048 0.000000 0.463213
0.765188 0.000000 0.462647
0.900790 0.000000 0.462080
0.000000 0.121955 0.463974
0.095038 0.121419 0.463439
0.226595 0.120869 0.462888
0.359563 0.120312 0.462332
0.493457 0.119751 0.461771
0.628043 0.119188 0.461208
0.763183 0.118622 0.460642
0.898785 0.118055 0.460074
0.000000 0.259769 0.462014
0.093078 0.259233 0.461479
0.224634 0.258682 0.460928
0.357603 0.258126 0.460372
0.491497 0.257565 0.459811
0.626082 0.257002 0.459248
0.761222 0.256436 0.458682
0.896825 0.255869 0.458114
0.000000 0.396233 0.460073
0.091137 0.395697 0.459538
0.222694 0.395146 0.458987
0.355662 0.394590 0.458431
0.489556 0.394029 0.457870
0.624142 0.393466 0.457307
0.759281 0.392900 0.456741
0.894884 0.392333 0.456173
0.000000 0.531814 0.458145
0.089208 0.531279 0.457610
0.220765 0.530728 0.457059
0.353734 0.530171 0.456502
0.487627 0.529611 0.455942
0.622213 0.529048 0.455378
0.757353 0.528482 0.454813
0.892956 0.527914 0.454245
0.000000 0.666739 0.456226
0.087289 0.666203 0.455691
0.218846 0.665653 0.455140
0.351815 0.665096 0.454583
0.485708 0.664536 0.454023
0.620294 0.663972 0.453459
0.755434 0.663407 0.452894
0.891037 0.662839 0.452326
0.000000 0.801140 0.454314
0.085378 0.800605 0.453779
0.216935 0.800054 0.453228
0.349903 0.799497 0.452672
0.483797 0.798937 0.452111
0.618383 0.798373 0.451548
0.753522 0.797808 0.450982
0.889125 0.797240 0.450414
0.000000 0.935106 0.452409
0.083472 0.934571 0.451874
0.215029 0.934020 0.451323
0.347998 0.933464 0.450766
0.481891 0.932903 0.450206
0.616477 0.932340 0.449642
0.751617 0.931774 0.449077
0.887220 0.931206 0.448509
0.000000 0.000000 0.606315
0.096844 0.000000 0.605780
0.228401 0.000000 0.605229
0.361369 0.000000 0.604673
0.495263 0.000000 0.604112
0.629849 0.000000 0.603549
0.764989 0.000000 0.602983
0.900591 0.000000 0.602415
0.000000 0.121756 0.604310
0.094839 0.121220 0.603775
0.226396 0.120670 0.603224
0.359364 0.120113 0.602667
0.493258 0.119552 0.602107
0.627844 0.118989 0.601544
0.762984 0.118423 0.600978
0.898586 0.117856 0.600410
0.000000 0.259570 0.602350
0.092879 0.259034 0.601815
0.224435 0.258483 0.601264
0.357404 0.257927 0.600707
0.491298 0.257366 0.600147
0.625883 0.256803 0.599583
0.761023 0.256237 0.599018
0.896626 0.255670 0.598450
0.000000 0.396034 0.600409
0.090938 0.395498 0.599874
0.222495 0.394948 0.599323
0.355463 0.394391 0.598766
0.489357 0.393830 0.598206
0.623943 0.393267 0.597642
0.759083 0.392701 0.597077
0.894685 0.392134 0.596509
0.000000 0.531615 0.598481
0.089009 0.531080 0.597945
0.220566 0.530529 0.597395
0.353535 0.529973 0.596838
0.487428 0.529412 0.596277
0.622014 0.528849 0.595714
0.757154 0.528283 0.595148
0.892757 0.527715 0.594581
0.000000 0.666540 0.596562
0.087090 0.666004 0.596026
0.218647 0.665454 0.595476
0.351616 0.664897 0.594919
0.485509 0.664337 0.594358
0.620095 0.663773 0.593795
0.755235 0.663208 0.593229
0.890838 0.662640 0.592662
0.000000 0.800941 0.594650
0.085179 0.800406 0.594115
0.216736 0.799855 0.593564
0.349704 0.799298 0.593007
0.483598 0.798738 0.592447
0.618184 0.798174 0.591883
0.753324 0.797609 0.591318
0.888926 0.797041 0.590750
0.000000 0.934907 0.592745
0.083273 0.934372 0.592209
0.214830 0.933821 0.591659
0.347799 0.933265 0.591102
0.481692 0.932704 0.590541
0.616278 0.932141 0.589978
0.751418 0.931575 0.589412
0.887021 0.931007 0.588845
0.000000 0.000000 0.744197
0.096649 0.000000 0.743661
0.228205 0.000000 0.743111
0.361174 0.000000 0.742554
0.495068 0.000000 0.741994
0.629653 0.000000 0.741430
0.764793 0.000000 0.740865
0.900396 0.000000 0.740297
0.000000 0.121560 0.742192
0.094643 0.121025 0.741656
0.226200 0.120474 0.741105
0.359169 0.119918 0.740549
0.493062 0.119357 0.739988
0.627648 0.118794 0.739425
0.762788 0.118228 0.738859
0.898391 0.117660 0.738292
0.000000 0.259374 0.740231
0.092683 0.258839 0.739696
0.224240 0.258288 0.739145
0.357209 0.257731 0.738589
0.491102 0.257171 0.738028
0.625688 0.256607 0.737465
0.760828 0.256042 0.736899
0.896430 0.255474 0.736331
0.000000 0.395838 0.738291
0.090742 0.395303 0.737755
0.222299 0.394752 0.737204
0.355268 0.394195 0.736648
0.489161 0.393635 0.736087
0.623747 0.393072 0.735524
0.758887 0.392506 0.734958
0.894490 0.391938 0.734391
0.000000 0.531420 0.736362
0.088814 0.530884 0.735827
0.220371 0.530334 0.735276
0.353339 0.529777 0.734719
0.487233 0.529217 0.734159
0.621819 0.528653 0.733595
0.756959 0.528087 0.733030
0.892561 0.527520 0.732462
0.000000 0.666344 0.734443
0.086895 0.665809 0.733908
0.218452 0.665258 0.733357
0.351420 0.664702 0.732800
0.485314 0.664141 0.732240
0.619900 0.663578 0.731676
0.755040 0.663012 0.731111
0.890642 0.662444 0.730543
0.000000 0.800746 0.732532
0.084983 0.800210 0.731996
0.216540 0.799659 0.731445
0.349509 0.799103 0.730889
0.483402 0.798542 0.730328
0.617988 0.797979 0.729765
0.753128 0.797413 0.729199
0.888731 0.796846 0.728632
0.000000 0.934712 0.730626
0.083078 0.934177 0.730091
0.214635 0.933626 0.729540
0.347603 0.933069 0.728983
0.481497 0.932509 0.728423
0.616083 0.931945 0.727859
0.751223 0.931380 0.727294
0.886825 0.930812 0.726726
0.000000 0.000000 0.880130
0.096456 0.000000 0.879595
0.228013 0.000000 0.879044
0.360981 0.000000 0.878488
0.494875 0.000000 0.877927
0.629461 0.000000 0.877364
0.764601 0.000000 0.876798
0.900203 0.000000 0.876230
0.000000 0.121368 0.878125
0.094451 0.120832 0.877590
0.226007 0.120281 0.877039
0.358976 0.119725 0.876482
0.492870 0.119164 0.875922
0.627455 0.118601 0.875359
0.762595 0.118035 0.874793
0.898198 0.117468 0.874225
0.000000 0.259181 0.876165
0.092490 0.258646 0.875630
0.224047 0.258095 0.875079
0.357016 0.257539 0.874522
0.490910 0.256978 0.873962
0.625495 0.256415 0.873398
0.760635 0.255849 0.872833
0.896238 0.255281 0.872265
0.000000 0.395645 0.874224
0.090549 0.395110 0.873689
0.222106 0.394559 0.873138
0.355075 0.394003 0.872581
0.488969 0.393442 0.872021
0.623554 0.392879 0.871457
0.758694 0.392313 0.870892
0.894297 0.391745 0.870324
0.000000 0.531227 0.872296
0.088621 0.530692 0.871760
0.220178 0.530141 0.871210
0.353147 0.529584 0.870653
0.487040 0.529024 0.870092
0.621626 0.528460 0.869529
0.756766 0.527895 0.868963
0.892368 0.527327 0.868396
0.000000 0.666152 0.870377
0.086702 0.665616 0.869841
0.218259 0.665066 0.869291
0.351228 0.664509 0.868734
0.485121 0.663948 0.868173
0.619707 0.663385 0.867610
0.754847 0.662819 0.867044
0.890449 0.662252 0.866477
0.000000 0.800553 0.868465
0.084790 0.800017 0.867930
0.216347 0.799467 0.867379
0.349316 0.798910 0.866822
0.483210 0.798350 0.866262
0.617795 0.797786 0.865698
0.752935 0.797221 0.865133
0.888538 0.796653 0.864565
0.000000 0.934519 0.866560
0.082885 0.933984 0.866024
0.214442 0.933433 0.865474
0.347411 0.932877 0.864917
0.481304 0.932316 0.864356
0.615890 0.931753 0.863793
0.751030 0.931187 0.863227
0.886632 0.930619 0.862660
0.000000 0.000000 1.000000
0.096265 0.000000 1.000000
0.227822 0.000000 1.000000
0.360791 0.000000 1.000000
0.494685 0.000000 1.000000
0.629270 0.000000 1.000000
0.764410 0.000000 1.000000
0.900013 0.000000 1.000000
0.000000 0.121177 1.000000
0.094260 0.120642 1.000000
0.225817 0.120091 1.000000
0.358786 0.119534 1.000000
0.492679 0.118974 1.000000
0.627265 0.118410 1.000000
0.762405 0.117845 1.000000
0.898007 0.117277 1.000000
0.000000 0.258991 1.000000
0.092300 0.258455 1.000000
0.223857 0.257905 1.000000
0.356825 0.257348 1.000000
0.490719 0.256788 1.000000
0.625305 0.256224 1.000000
0.760445 0.255659 1.000000
0.896047 0.255091 1.000000
0.000000 0.395455 1.000000
0.090359 0.394920 1.000000
0.221916 0.394369 1.000000
0.354884 0.393812 1.000000
0.488778 0.393252 1.000000
0.623364 0.392688 1.000000
0.758504 0.392123 1.000000
0.894106 0.391555 1.000000
0.000000 0.531037 1.000000
0.088431 0.530501 1.000000
0.219988 0.529951 1.000000
0.352956 0.529394 1.000000
0.486850 0.528833 1.000000
0.621436 0.528270 1.000000
0.756576 0.527704 1.000000
0.892178 0.527137 1.000000
0.000000 0.665961 1.000000
0.086512 0.665426 1.000000
0.218069 0.664875 1.000000
0.351037 0.664319 1.000000
0.484931 0.663758 1.000000
0.619517 0.663195 1.000000
0.754656 0.662629 1.000000
0.890259 0.662061 1.000000
0.000000 0.800363 1.000000
0.084600 0.799827 1.000000
0.216157 0.799276 1.000000
0.349126 0.798720 1.000000
0.483019 0.798159 1.000000
0.617605 0.797596 1.000000
0.752745 0.797030 0.999455
0.888347 0.796463 0.998887
0.000000 0.934329 1.000000
0.082695 0.933793 1.000000
0.214252 0.933243 0.999796
0.347220 0.932686 0.999239
0.481114 0.932126 0.998679
0.615700 0.931562 0.998115
0.750839 0.930997 0.997550
0.886442 0.930429 0.996982
