assets/luts/cool.cube
# Beauty Camera 3D LUT
# Filter: Cool (cool)
# Category: Cool
TITLE "Cool"
LUT_3D_SIZE 32
DOMAIN_MIN 0.0 0.0 0.0
DOMAIN_MAX 1.0 1.0 1.0
0.000000 0.000000 0.014351
0.000857 0.000000 0.014221
0.032829 0.000000 0.014087
0.065144 0.000000 0.013952
0.097683 0.000000 0.013815
0.130391 0.000000 0.013678
0.163234 0.000000 0.013541
0.196189 0.000000 0.013403
0.229240 0.000000 0.013265
0.262376 0.000000 0.013126
0.295588 0.000000 0.012987
0.328867 0.000000 0.012848
0.362209 0.000000 0.012708
0.395607 0.000000 0.012568
0.429058 0.000000 0.012428
0.462557 0.000000 0.012288
0.496102 0.000000 0.012148
0.529690 0.000000 0.012007
0.563319 0.000000 0.011866
0.596985 0.000000 0.011725
0.630688 0.000000 0.011584
0.664425 0.000000 0.011443
0.698195 0.000000 0.011302
0.731997 0.000000 0.011160
0.765828 0.000000 0.011018
0.799688 0.000000 0.010877
0.833576 0.000000 0.010735
0.867491 0.000000 0.010593
0.901431 0.000000 0.010451
0.935395 0.000000 0.010309
0.969384 0.000000 0.010166
1.000000 0.000000 0.010024
0.000000 0.017510 0.013840
0.000346 0.017380 0.013710
0.032318 0.017246 0.013576
0.064633 0.017111 0.013441
0.097173 0.016975 0.013305
0.129880 0.016838 0.013168
0.162723 0.016700 0.013030
0.195678 0.016562 0.012892
0.228729 0.016424 0.012754
0.261866 0.016285 0.012615
0.295077 0.016146 0.012476
0.328357 0.016007 0.012337
0.361698 0.015867 0.012197
0.395096 0.015728 0.012058
0.428547 0.015587 0.011918
0.462046 0.015447 0.011777
0.495592 0.015307 0.011637
0.529180 0.015166 0.011496
0.562808 0.015025 0.011356
0.596475 0.014885 0.011215
0.630177 0.014743 0.011073
0.663915 0.014602 0.010932
0.697685 0.014461 0.010791
0.731486 0.014319 0.010649
0.765317 0.014178 0.010508
0.799178 0.014036 0.010366
0.833065 0.013894 0.010224
0.866980 0.013752 0.010082
0.900920 0.013610 0.009940
0.934885 0.013468 0.009798
0.968874 0.013326 0.009656
1.000000 0.013183 0.009513
0.000000 0.052814 0.013338
0.000000 0.052684 0.013208
0.031816 0.052550 0.013074
0.064131 0.052414 0.012939
0.096670 0.052278 0.012803
0.129378 0.052141 0.012666
0.162221 0.052004 0.012528
0.195176 0.051866 0.012390
0.228227 0.051728 0.012252
0.261363 0.051589 0.012113
0.294575 0.051450 0.011974
0.327855 0.051311 0.011835
0.361196 0.051171 0.011695
0.394594 0.051031 0.011555
0.428045 0.050891 0.011415
0.461544 0.050751 0.011275
0.495090 0.050610 0.011135
0.528678 0.050470 0.010994
0.562306 0.050329 0.010853
0.595973 0.050188 0.010712
0.629675 0.050047 0.010571
0.663413 0.049906 0.010430
0.697183 0.049764 0.010289
0.730984 0.049623 0.010147
0.764815 0.049481 0.010006
0.798675 0.049340 0.009864
0.832563 0.049198 0.009722
0.866478 0.049056 0.009580
0.900418 0.048914 0.009438
0.934383 0.048772 0.009296
0.968371 0.048629 0.009154
1.000000 0.048487 0.009011
0.000000 0.087809 0.012840
0.000000 0.087679 0.012710
0.031318 0.087545 0.012576
0.063633 0.087410 0.012441
0.096173 0.087274 0.012305
0.128881 0.087137 0.012168
0.161723 0.086999 0.012030
0.194678 0.086861 0.011892
0.227730 0.086723 0.011754
0.260866 0.086584 0.011615
0.294077 0.086445 0.011476
0.327357 0.086306 0.011337
0.360698 0.086166 0.011198
0.394096 0.086027 0.011058
0.427547 0.085887 0.010918
0.461047 0.085746 0.010777
0.494592 0.085606 0.010637
0.528180 0.085465 0.010496
0.561808 0.085325 0.010356
0.595475 0.085184 0.010215
0.629178 0.085043 0.010074
0.662915 0.084901 0.009932
0.696685 0.084760 0.009791
0.730486 0.084619 0.009650
0.764318 0.084477 0.009508
0.798178 0.084335 0.009366
0.832066 0.084193 0.009224
0.865980 0.084051 0.009082
0.899920 0.083909 0.008940
0.933885 0.083767 0.008798
0.967874 0.083625 0.008656
1.000000 0.083482 0.008513
0.000000 0.122595 0.012346
0.000000 0.122465 0.012215
0.030823 0.122331 0.012082
0.063138 0.122196 0.011946
0.095678 0.122060 0.011810
0.128386 0.121923 0.011673
0.161228 0.121785 0.011536
0.194183 0.121647 0.011398
0.227235 0.121509 0.011259
0.260371 0.121370 0.011121
0.293583 0.121231 0.010982
0.326862 0.121092 0.010842
0.360203 0.120952 0.010703
0.393602 0.120812 0.010563
0.427052 0.120672 0.010423
0.460552 0.120532 0.010283
0.494097 0.120392 0.010142
0.527685 0.120251 0.010002
0.561313 0.120110 0.009861
0.594980 0.119969 0.009720
0.628683 0.119828 0.009579
0.662420 0.119687 0.009438
0.696190 0.119546 0.009296
0.729991 0.119404 0.009155
0.763823 0.119263 0.009013
0.797683 0.119121 0.008871
0.831571 0.118979 0.008730
0.865485 0.118837 0.008588
0.899425 0.118695 0.008446
0.933390 0.118553 0.008303
0.967379 0.118411 0.008161
1.000000 0.118268 0.008019
0.000000 0.157221 0.011853
0.000000 0.157091 0.011723
0.030331 0.156958 0.011589
0.062646 0.156822 0.011454
0.095185 0.156686 0.011318
0.127893 0.156549 0.011181
0.160736 0.156412 0.011043
0.193691 0.156274 0.010905
0.226742 0.156135 0.010767
0.259879 0.155997 0.010628
0.293090 0.155858 0.010489
0.326370 0.155718 0.010350
0.359711 0.155579 0.010210
0.393109 0.155439 0.010070
0.426560 0.155299 0.009930
0.460059 0.155159 0.009790
0.493605 0.155018 0.009650
0.527193 0.154878 0.009509
0.560821 0.154737 0.009368
0.594488 0.154596 0.009227
0.628190 0.154455 0.009086
0.661928 0.154314 0.008945
0.695698 0.154172 0.008804
0.729499 0.154031 0.008662
0.763330 0.153889 0.008521
0.797190 0.153747 0.008379
0.831078 0.153606 0.008237
0.864993 0.153464 0.008095
0.898933 0.153321 0.007953
0.932898 0.153179 0.007811
0.966886 0.153037 0.007669
1.000000 0.152895 0.007526
0.000000 0.191720 0.011362
0.000000 0.191590 0.011232
0.029840 0.191456 0.011098
0.062155 0.191320 0.010963
0.094695 0.191184 0.010827
0.127403 0.191047 0.010690
0.160245 0.190910 0.010553
0.193200 0.190772 0.010415
0.226252 0.190634 0.010276
0.259388 0.190495 0.010137
0.292599 0.190356 0.009998
0.325879 0.190216 0.009859
0.359220 0.190077 0.009720
0.392618 0.189937 0.009580
0.426069 0.189797 0.009440
0.459569 0.189657 0.009300
0.493114 0.189516 0.009159
0.526702 0.189376 0.009018
0.560330 0.189235 0.008878
0.593997 0.189094 0.008737
0.627700 0.188953 0.008596
0.661437 0.188812 0.008454
0.695207 0.188670 0.008313
0.729008 0.188529 0.008172
0.762840 0.188387 0.008030
0.796700 0.188246 0.007888
0.830588 0.188104 0.007746
0.864502 0.187962 0.007604
0.898442 0.187820 0.007462
0.932407 0.187677 0.007320
0.966396 0.187535 0.007178
1.000000 0.187393 0.007036
0.000000 0.226110 0.010873
0.000000 0.225980 0.010743
0.029351 0.225846 0.010609
0.061666 0.225711 0.010474
0.094206 0.225575 0.010338
0.126914 0.225438 0.010201
0.159756 0.225301 0.010063
0.192711 0.225163 0.009925
0.225763 0.225024 0.009787
0.258899 0.224886 0.009648
0.292110 0.224747 0.009509
0.325390 0.224607 0.009370
0.358731 0.224468 0.009230
0.392129 0.224328 0.009091
0.425580 0.224188 0.008951
0.459080 0.224048 0.008810
0.492625 0.223907 0.008670
0.526213 0.223767 0.008529
0.559841 0.223626 0.008389
0.593508 0.223485 0.008248
0.627211 0.223344 0.008107
0.660948 0.223203 0.007965
0.694718 0.223061 0.007824
0.728519 0.222920 0.007682
0.762350 0.222778 0.007541
0.796211 0.222636 0.007399
0.830098 0.222494 0.007257
0.864013 0.222352 0.007115
0.897953 0.222210 0.006973
0.931918 0.222068 0.006831
0.965907 0.221926 0.006689
0.999919 0.221784 0.006546
0.000000 0.260409 0.010385
0.000000 0.260279 0.010255
0.028863 0.260145 0.010121
0.061178 0.260010 0.009986
0.093718 0.259873 0.009850
0.126426 0.259736 0.009713
0.159268 0.259599 0.009576
0.192223 0.259461 0.009438
0.225275 0.259323 0.009299
0.258411 0.259184 0.009161
0.291622 0.259045 0.009022
0.324902 0.258906 0.008882
0.358243 0.258766 0.008743
0.391641 0.258626 0.008603
0.425092 0.258486 0.008463
0.458592 0.258346 0.008323
0.492137 0.258206 0.008182
0.525725 0.258065 0.008042
0.559353 0.257924 0.007901
0.593020 0.257783 0.007760
0.626723 0.257642 0.007619
0.660460 0.257501 0.007478
0.694230 0.257360 0.007336
0.728031 0.257218 0.007195
0.761863 0.257076 0.007053
0.795723 0.256935 0.006911
0.829611 0.256793 0.006769
0.863525 0.256651 0.006627
0.897465 0.256509 0.006485
0.931430 0.256367 0.006343
0.965419 0.256224 0.006201
0.999431 0.256082 0.006059
0.000000 0.294626 0.009899
0.000000 0.294496 0.009769
0.028377 0.294362 0.009635
0.060691 0.294227 0.009499
0.093231 0.294091 0.009363
0.125939 0.293954 0.009226
0.158782 0.293816 0.009089
0.191737 0.293678 0.008951
0.224788 0.293540 0.008813
0.257924 0.293401 0.008674
0.291136 0.293262 0.008535
0.324415 0.293123 0.008396
0.357757 0.292983 0.008256
0.391155 0.292844 0.008116
0.424605 0.292704 0.007976
0.458105 0.292563 0.007836
0.491650 0.292423 0.007695
0.525238 0.292282 0.007555
0.558867 0.292142 0.007414
0.592533 0.292001 0.007273
0.626236 0.291859 0.007132
0.659973 0.291718 0.006991
0.693743 0.291577 0.006849
0.727545 0.291435 0.006708
0.761376 0.291294 0.006566
0.795236 0.291152 0.006425
0.829124 0.291010 0.006283
0.863038 0.290868 0.006141
0.896979 0.290726 0.005999
0.930943 0.290584 0.005857
0.964932 0.290442 0.005714
0.998944 0.290299 0.005572
0.000000 0.328771 0.009413
0.000000 0.328641 0.009283
0.027891 0.328507 0.009149
0.060206 0.328372 0.009014
0.092746 0.328236 0.008878
0.125453 0.328099 0.008741
0.158296 0.327962 0.008603
0.191251 0.327824 0.008465
0.224302 0.327685 0.008327
0.257439 0.327547 0.008188
0.290650 0.327408 0.008049
0.323930 0.327268 0.007910
0.357271 0.327129 0.007770
0.390669 0.326989 0.007630
0.424120 0.326849 0.007490
0.457619 0.326709 0.007350
0.491165 0.326568 0.007210
0.524753 0.326428 0.007069
0.558381 0.326287 0.006928
0.592048 0.326146 0.006788
0.625750 0.326005 0.006646
0.659488 0.325864 0.006505
0.693258 0.325722 0.006364
0.727059 0.325581 0.006222
0.760890 0.325439 0.006081
0.794751 0.325297 0.005939
0.828638 0.325155 0.005797
0.862553 0.325013 0.005655
0.896493 0.324871 0.005513
0.930458 0.324729 0.005371
0.964446 0.324587 0.005229
0.998458 0.324445 0.005086
0.000000 0.362852 0.008928
0.000000 0.362722 0.008798
0.027406 0.362588 0.008664
0.059721 0.362452 0.008529
0.092261 0.362316 0.008393
0.124969 0.362179 0.008256
0.157811 0.362042 0.008119
0.190766 0.361904 0.007981
0.223818 0.361766 0.007842
0.256954 0.361627 0.007703
0.290165 0.361488 0.007564
0.323445 0.361348 0.007425
0.356786 0.361209 0.007286
0.390184 0.361069 0.007146
0.423635 0.360929 0.007006
0.457135 0.360789 0.006866
0.490680 0.360648 0.006725
0.524268 0.360508 0.006584
0.557896 0.360367 0.006444
0.591563 0.360226 0.006303
0.625266 0.360085 0.006162
0.659003 0.359944 0.006020
0.692773 0.359802 0.005879
0.726574 0.359661 0.005738
0.760406 0.359519 0.005596
0.794266 0.359378 0.005454
0.828154 0.359236 0.005312
0.862068 0.359094 0.005170
0.896008 0.358952 0.005028
0.929973 0.358810 0.004886
0.963962 0.358667 0.004744
0.997974 0.358525 0.004602
0.000000 0.396873 0.008444
0.000000 0.396743 0.008314
0.026922 0.396609 0.008181
0.059237 0.396474 0.008045
0.091777 0.396337 0.007909
0.124485 0.396201 0.007772
0.157327 0.396063 0.007635
0.190282 0.395925 0.007497
0.223334 0.395787 0.007358
0.256470 0.395648 0.007220
0.289681 0.395509 0.007081
0.322961 0.395370 0.006941
0.356302 0.395230 0.006802
0.389701 0.395090 0.006662
0.423151 0.394950 0.006522
0.456651 0.394810 0.006382
0.490196 0.394670 0.006241
0.523784 0.394529 0.006101
0.557412 0.394388 0.005960
0.591079 0.394247 0.005819
0.624782 0.394106 0.005678
0.658519 0.393965 0.005537
0.692289 0.393824 0.005395
0.726090 0.393682 0.005254
0.759922 0.393541 0.005112
0.793782 0.393399 0.004970
0.827670 0.393257 0.004829
0.861584 0.393115 0.004687
0.895524 0.392973 0.004544
0.929489 0.392831 0.004402
0.963478 0.392688 0.004260
0.997490 0.392546 0.004118
0.000000 0.430840 0.007961
0.000000 0.430710 0.007831
0.026439 0.430576 0.007697
0.058754 0.430441 0.007562
0.091294 0.430304 0.007426
0.124002 0.430168 0.007289
0.156844 0.430030 0.007152
0.189799 0.429892 0.007014
0.222851 0.429754 0.006875
0.255987 0.429615 0.006736
0.289198 0.429476 0.006597
0.322478 0.429337 0.006458
0.355819 0.429197 0.006319
0.389217 0.429057 0.006179
0.422668 0.428917 0.006039
0.456168 0.428777 0.005899
0.489713 0.428637 0.005758
0.523301 0.428496 0.005617
0.556929 0.428355 0.005477
0.590596 0.428214 0.005336
0.624299 0.428073 0.005195
0.658036 0.427932 0.005053
0.691806 0.427791 0.004912
0.725607 0.427649 0.004771
0.759439 0.427508 0.004629
0.793299 0.427366 0.004487
0.827187 0.427224 0.004345
0.861101 0.427082 0.004203
0.895041 0.426940 0.004061
0.929006 0.426798 0.003919
0.962995 0.426655 0.003777
0.997007 0.426513 0.003635
0.000000 0.464757 0.007479
0.000000 0.464627 0.007349
0.025957 0.464493 0.007215
0.058272 0.464358 0.007080
0.090811 0.464221 0.006944
0.123519 0.464085 0.006807
0.156362 0.463947 0.006669
0.189317 0.463809 0.006531
0.222368 0.463671 0.006393
0.255504 0.463532 0.006254
0.288716 0.463393 0.006115
0.321995 0.463254 0.005976
0.355337 0.463114 0.005836
0.388735 0.462974 0.005696
0.422186 0.462834 0.005556
0.455685 0.462694 0.005416
0.489230 0.462554 0.005276
0.522819 0.462413 0.005135
0.556447 0.462272 0.004994
0.590113 0.462131 0.004853
0.623816 0.461990 0.004712
0.657553 0.461849 0.004571
0.691323 0.461708 0.004430
0.725125 0.461566 0.004288
0.758956 0.461425 0.004147
0.792816 0.461283 0.004005
0.826704 0.461141 0.003863
0.860619 0.460999 0.003721
0.894559 0.460857 0.003579
0.928524 0.460715 0.003437
0.962512 0.460572 0.003295
0.996524 0.460430 0.003152
0.000000 0.498627 0.006997
0.000000 0.498497 0.006867
0.025475 0.498363 0.006733
0.057790 0.498228 0.006598
0.090330 0.498092 0.006462
0.123038 0.497955 0.006325
0.155880 0.497818 0.006187
0.188835 0.497680 0.006049
0.221887 0.497541 0.005911
0.255023 0.497403 0.005772
0.288234 0.497264 0.005633
0.321514 0.497124 0.005494
0.354855 0.496985 0.005354
0.388253 0.496845 0.005215
0.421704 0.496705 0.005075
0.455204 0.496565 0.004934
0.488749 0.496424 0.004794
0.522337 0.496284 0.004653
0.555965 0.496143 0.004513
0.589632 0.496002 0.004372
0.623335 0.495861 0.004231
0.657072 0.495720 0.004089
0.690842 0.495578 0.003948
0.724643 0.495437 0.003806
0.758474 0.495295 0.003665
0.792335 0.495153 0.003523
0.826222 0.495011 0.003381
0.860137 0.494869 0.003239
0.894077 0.494727 0.003097
0.928042 0.494585 0.002955
0.962031 0.494443 0.002813
0.996042 0.494301 0.002670
0.000000 0.532455 0.006516
0.000000 0.532324 0.006386
0.024994 0.532191 0.006252
0.057309 0.532055 0.006117
0.089849 0.531919 0.005981
0.122556 0.531782 0.005844
0.155399 0.531645 0.005706
0.188354 0.531507 0.005568
0.221405 0.531368 0.005430
0.254542 0.531230 0.005291
0.287753 0.531091 0.005152
0.321033 0.530951 0.005013
0.354374 0.530812 0.004873
0.387772 0.530672 0.004734
0.421223 0.530532 0.004593
0.454722 0.530392 0.004453
0.488268 0.530251 0.004313
0.521856 0.530111 0.004172
0.555484 0.529970 0.004031
0.589151 0.529829 0.003891
0.622853 0.529688 0.003749
0.656591 0.529547 0.003608
0.690361 0.529405 0.003467
0.724162 0.529264 0.003325
0.757993 0.529122 0.003184
0.791854 0.528980 0.003042
0.825741 0.528839 0.002900
0.859656 0.528697 0.002758
0.893596 0.528555 0.002616
0.927561 0.528412 0.002474
0.961549 0.528270 0.002332
0.995561 0.528128 0.002189
0.000000 0.566241 0.006036
0.000000 0.566111 0.005905
0.024513 0.565977 0.005772
0.056828 0.565842 0.005636
0.089368 0.565706 0.005500
0.122076 0.565569 0.005363
0.154918 0.565431 0.005226
0.187873 0.565293 0.005088
0.220925 0.565155 0.004949
0.254061 0.565016 0.004811
0.287273 0.564877 0.004672
0.320552 0.564738 0.004532
0.353893 0.564598 0.004393
0.387292 0.564458 0.004253
0.420742 0.564318 0.004113
0.454242 0.564178 0.003973
0.487787 0.564038 0.003832
0.521375 0.563897 0.003692
0.555004 0.563756 0.003551
0.588670 0.563615 0.003410
0.622373 0.563474 0.003269
0.656110 0.563333 0.003128
0.689880 0.563192 0.002986
0.723681 0.563050 0.002845
0.757513 0.562909 0.002703
0.791373 0.562767 0.002561
0.825261 0.562625 0.002420
0.859175 0.562483 0.002278
0.893115 0.562341 0.002136
0.927080 0.562199 0.001993
0.961069 0.562057 0.001851
0.995081 0.561914 0.001709
0.000000 0.599989 0.005556
0.000000 0.599859 0.005425
0.024033 0.599725 0.005292
0.056348 0.599590 0.005156
0.088888 0.599454 0.005020
0.121596 0.599317 0.004883
0.154438 0.599179 0.004746
0.187393 0.599041 0.004608
0.220445 0.598903 0.004469
0.253581 0.598764 0.004331
0.286793 0.598625 0.004192
0.320072 0.598486 0.004052
0.353413 0.598346 0.003913
0.386812 0.598207 0.003773
0.420262 0.598067 0.003633
0.453762 0.597926 0.003493
0.487307 0.597786 0.003352
0.520895 0.597645 0.003212
0.554524 0.597505 0.003071
0.588190 0.597364 0.002930
0.621893 0.597223 0.002789
0.655630 0.597081 0.002648
0.689400 0.596940 0.002506
0.723201 0.596798 0.002365
0.757033 0.596657 0.002223
0.790893 0.596515 0.002081
0.824781 0.596373 0.001940
0.858695 0.596231 0.001798
0.892635 0.596089 0.001656
0.926600 0.595947 0.001513
0.960589 0.595805 0.001371
0.994601 0.595662 0.001229
0.000000 0.633701 0.005076
0.000000 0.633571 0.004946
0.023554 0.633437 0.004812
0.055869 0.633302 0.004677
0.088408 0.633166 0.004541
0.121116 0.633029 0.004404
0.153959 0.632891 0.004266
0.186914 0.632753 0.004128
0.219965 0.632615 0.003990
0.253102 0.632476 0.003851
0.286313 0.632337 0.003712
0.319593 0.632198 0.003573
0.352934 0.632059 0.003433
0.386332 0.631919 0.003293
0.419783 0.631779 0.003153
0.453282 0.631638 0.003013
0.486828 0.631498 0.002873
0.520416 0.631357 0.002732
0.554044 0.631217 0.002591
0.587711 0.631076 0.002450
0.621413 0.630935 0.002309
0.655151 0.630793 0.002168
0.688921 0.630652 0.002027
0.722722 0.630511 0.001885
0.756553 0.630369 0.001744
0.790413 0.630227 0.001602
0.824301 0.630085 0.001460
0.858216 0.629943 0.001318
0.892156 0.629801 0.001176
0.926121 0.629659 0.001034
0.960109 0.629517 0.000892
0.994121 0.629374 0.000749
0.000000 0.667379 0.004597
0.000000 0.667249 0.004467
0.023075 0.667115 0.004333
0.055390 0.666980 0.004198
0.087929 0.666844 0.004062
0.120637 0.666707 0.003925
0.153480 0.666569 0.003787
0.186435 0.666431 0.003649
0.219486 0.666293 0.003511
0.252623 0.666154 0.003372
0.285834 0.666015 0.003233
0.319114 0.665876 0.003094
0.352455 0.665736 0.002954
0.385853 0.665597 0.002814
0.419304 0.665457 0.002674
0.452803 0.665316 0.002534
0.486349 0.665176 0.002394
0.519937 0.665035 0.002253
0.553565 0.664894 0.002112
0.587232 0.664754 0.001971
0.620934 0.664612 0.001830
0.654672 0.664471 0.001689
0.688442 0.664330 0.001548
0.722243 0.664188 0.001406
0.756074 0.664047 0.001265
0.789934 0.663905 0.001123
0.823822 0.663763 0.000981
0.857737 0.663621 0.000839
0.891677 0.663479 0.000697
0.925642 0.663337 0.000555
0.959630 0.663195 0.000413
0.993642 0.663052 0.000270
0.000000 0.701024 0.004119
0.000000 0.700894 0.003988
0.022596 0.700761 0.003855
0.054911 0.700625 0.003719
0.087451 0.700489 0.003583
0.120159 0.700352 0.003446
0.153001 0.700215 0.003309
0.185956 0.700077 0.003171
0.219008 0.699938 0.003032
0.252144 0.699800 0.002894
0.285356 0.699661 0.002755
0.318635 0.699521 0.002615
0.351976 0.699382 0.002476
0.385375 0.699242 0.002336
0.418825 0.699102 0.002196
0.452325 0.698962 0.002056
0.485870 0.698821 0.001915
0.519458 0.698681 0.001775
0.553086 0.698540 0.001634
0.586753 0.698399 0.001493
0.620456 0.698258 0.001352
0.654193 0.698117 0.001211
0.687963 0.697975 0.001069
0.721764 0.697834 0.000928
0.755596 0.697692 0.000786
0.789456 0.697550 0.000644
0.823344 0.697409 0.000503
0.857258 0.697267 0.000361
0.891198 0.697124 0.000219
0.925163 0.696982 0.000076
0.959152 0.696840 0.000000
0.993164 0.696698 0.000000
0.000000 0.734639 0.003640
0.000000 0.734509 0.003510
0.022118 0.734375 0.003376
0.054433 0.734240 0.003241
0.086973 0.734103 0.003105
0.119681 0.733967 0.002968
0.152523 0.733829 0.002831
0.185478 0.733691 0.002693
0.218530 0.733553 0.002554
0.251666 0.733414 0.002416
0.284877 0.733275 0.002277
0.318157 0.733136 0.002137
0.351498 0.732996 0.001998
0.384896 0.732856 0.001858
0.418347 0.732716 0.001718
0.451847 0.732576 0.001578
0.485392 0.732436 0.001437
0.518980 0.732295 0.001297
0.552608 0.732154 0.001156
0.586275 0.732013 0.001015
0.619978 0.731872 0.000874
0.653715 0.731731 0.000733
0.687485 0.731590 0.000591
0.721286 0.731448 0.000450
0.755118 0.731307 0.000308
0.788978 0.731165 0.000166
0.822866 0.731023 0.000024
0.856780 0.730881 0.000000
0.890720 0.730739 0.000000
0.924685 0.730597 0.000000
0.958674 0.730454 0.000000
0.992686 0.730312 0.000000
0.000000 0.768224 0.003163
0.000000 0.768094 0.003033
0.021641 0.767960 0.002899
0.053956 0.767824 0.002764
0.086495 0.767688 0.002627
0.119203 0.767551 0.002490
0.152046 0.767414 0.002353
0.185001 0.767276 0.002215
0.218052 0.767138 0.002077
0.251188 0.766999 0.001938
0.284400 0.766860 0.001799
0.317679 0.766721 0.001660
0.351021 0.766581 0.001520
0.384419 0.766441 0.001380
0.417870 0.766301 0.001240
0.451369 0.766161 0.001100
0.484914 0.766020 0.000959
0.518502 0.765880 0.000819
0.552131 0.765739 0.000678
0.585797 0.765598 0.000537
0.619500 0.765457 0.000396
0.653237 0.765316 0.000255
0.687007 0.765174 0.000114
0.720809 0.765033 0.000000
0.754640 0.764891 0.000000
0.788500 0.764750 0.000000
0.822388 0.764608 0.000000
0.856302 0.764466 0.000000
0.890243 0.764324 0.000000
0.924207 0.764182 0.000000
0.958196 0.764039 0.000000
0.992208 0.763897 0.000000
0.000000 0.801780 0.002685
0.000000 0.801650 0.002555
0.021163 0.801516 0.002422
0.053478 0.801381 0.002286
0.086018 0.801245 0.002150
0.118726 0.801108 0.002013
0.151568 0.800970 0.001876
0.184523 0.800833 0.001738
0.217575 0.800694 0.001599
0.250711 0.800555 0.001461
0.283922 0.800416 0.001322
0.317202 0.800277 0.001182
0.350543 0.800138 0.001043
0.383942 0.799998 0.000903
0.417392 0.799858 0.000763
0.450892 0.799718 0.000623
0.484437 0.799577 0.000482
0.518025 0.799436 0.000342
0.551653 0.799296 0.000201
0.585320 0.799155 0.000060
0.619023 0.799014 0.000000
0.652760 0.798872 0.000000
0.686530 0.798731 0.000000
0.720331 0.798590 0.000000
0.754163 0.798448 0.000000
0.788023 0.798306 0.000000
0.821911 0.798164 0.000000
0.855825 0.798022 0.000000
0.889765 0.797880 0.000000
0.923730 0.797738 0.000000
0.957719 0.797596 0.000000
0.991731 0.797454 0.000000
0.000000 0.835310 0.002209
0.000000 0.835180 0.002078
0.020687 0.835046 0.001945
0.053001 0.834911 0.001809
0.085541 0.834774 0.001673
0.118249 0.834638 0.001536
0.151091 0.834500 0.001399
0.184046 0.834362 0.001261
0.217098 0.834224 0.001122
0.250234 0.834085 0.000984
0.283446 0.833946 0.000845
0.316725 0.833807 0.000705
0.350066 0.833667 0.000566
0.383465 0.833527 0.000426
0.416915 0.833387 0.000286
0.450415 0.833247 0.000146
0.483960 0.833107 0.000005
0.517548 0.832966 0.000000
0.551177 0.832825 0.000000
0.584843 0.832684 0.000000
0.618546 0.832543 0.000000
0.652283 0.832402 0.000000
0.686053 0.832261 0.000000
0.719854 0.832119 0.000000
0.753686 0.831978 0.000000
0.787546 0.831836 0.000000
0.821434 0.831694 0.000000
0.855348 0.831552 0.000000
0.889288 0.831410 0.000000
0.923253 0.831268 0.000000
0.957242 0.831125 0.000000
0.991254 0.830983 0.000000
0.000000 0.868813 0.001732
0.000000 0.868683 0.001602
0.020210 0.868550 0.001468
0.052525 0.868414 0.001333
0.085064 0.868278 0.001197
0.117772 0.868141 0.001060
0.150615 0.868004 0.000922
0.183570 0.867866 0.000784
0.216621 0.867727 0.000646
0.249758 0.867589 0.000507
0.282969 0.867450 0.000368
0.316249 0.867310 0.000229
0.349590 0.867171 0.000089
0.382988 0.867031 0.000000
0.416439 0.866891 0.000000
0.449938 0.866751 0.000000
0.483484 0.866610 0.000000
0.517072 0.866470 0.000000
0.550700 0.866329 0.000000
0.584367 0.866188 0.000000
0.618069 0.866047 0.000000
0.651807 0.865906 0.000000
0.685577 0.865764 0.000000
0.719378 0.865623 0.000000
0.753209 0.865481 0.000000
0.787069 0.865339 0.000000
0.820957 0.865198 0.000000
0.854872 0.865056 0.000000
0.888812 0.864913 0.000000
0.922777 0.864771 0.000000
0.956765 0.864629 0.000000
0.990777 0.864487 0.000000
0.000000 0.902292 0.001256
0.000000 0.902162 0.001126
0.019734 0.902028 0.000992
0.052049 0.901893 0.000857
0.084588 0.901757 0.000720
0.117296 0.901620 0.000584
0.150139 0.901482 0.000446
0.183094 0.901344 0.000308
0.216145 0.901206 0.000170
0.249281 0.901067 0.000031
0.282493 0.900928 0.000000
0.315772 0.900789 0.000000
0.349114 0.900649 0.000000
0.382512 0.900510 0.000000
0.415963 0.900369 0.000000
0.449462 0.900229 0.000000
0.483007 0.900089 0.000000
0.516595 0.899948 0.000000
0.550224 0.899807 0.000000
