assets/luts/cream.cube
# Beauty Camera 3D LUT
# Filter: Cream (cream)
# Category: Korean
TITLE "Cream"
LUT_3D_SIZE 32
DOMAIN_MIN 0.0 0.0 0.0
DOMAIN_MAX 1.0 1.0 1.0
0.049520 0.048043 0.031359
0.085232 0.048438 0.031754
0.119552 0.048818 0.032134
0.153007 0.049188 0.032504
0.185834 0.049552 0.032867
0.218171 0.049909 0.033225
0.250107 0.050263 0.033579
0.281703 0.050612 0.033928
0.313006 0.050959 0.034275
0.344051 0.051302 0.034618
0.374865 0.051643 0.034959
0.405471 0.051982 0.035298
0.435888 0.052319 0.035634
0.466131 0.052653 0.035969
0.496214 0.052986 0.036302
0.526149 0.053317 0.036633
0.555945 0.053647 0.036963
0.585611 0.053975 0.037291
0.615154 0.054302 0.037618
0.644583 0.054628 0.037944
0.673902 0.054952 0.038268
0.703118 0.055276 0.038591
0.732235 0.055598 0.038914
0.761259 0.055919 0.039235
0.790193 0.056239 0.039555
0.819041 0.056558 0.039874
0.847807 0.056877 0.040193
0.876494 0.057194 0.040510
0.905105 0.057511 0.040827
0.933643 0.057827 0.041142
0.962111 0.058142 0.041457
0.990510 0.058456 0.041772
0.050814 0.083703 0.032653
0.086525 0.084098 0.033048
0.120846 0.084478 0.033428
0.154300 0.084848 0.033798
0.187128 0.085211 0.034161
0.219465 0.085569 0.034519
0.251400 0.085923 0.034872
0.282997 0.086272 0.035222
0.314300 0.086619 0.035568
0.345344 0.086962 0.035912
0.376158 0.087303 0.036253
0.406764 0.087642 0.036591
0.437181 0.087978 0.036928
0.467425 0.088313 0.037263
0.497508 0.088646 0.037596
0.527443 0.088977 0.037927
0.557238 0.089307 0.038257
0.586904 0.089635 0.038585
0.616448 0.089962 0.038912
0.645876 0.090288 0.039237
0.675196 0.090612 0.039562
0.704411 0.090936 0.039885
0.733529 0.091258 0.040207
0.762552 0.091579 0.040528
0.791486 0.091899 0.040849
0.820335 0.092218 0.041168
0.849101 0.092537 0.041486
0.877788 0.092854 0.041804
0.906399 0.093171 0.042120
0.934937 0.093486 0.042436
0.963404 0.093801 0.042751
0.991804 0.094116 0.043065
0.052063 0.118134 0.033902
0.087774 0.118529 0.034297
0.122095 0.118908 0.034677
0.155549 0.119279 0.035047
0.188377 0.119642 0.035410
0.220714 0.120000 0.035768
0.252649 0.120353 0.036121
0.284246 0.120703 0.036471
0.315549 0.121049 0.036817
0.346593 0.121393 0.037161
0.377407 0.121734 0.037502
0.408013 0.122072 0.037840
0.438430 0.122409 0.038177
0.468674 0.122744 0.038512
0.498757 0.123076 0.038845
0.528692 0.123408 0.039176
0.558487 0.123737 0.039506
0.588153 0.124066 0.039834
0.617697 0.124393 0.040161
0.647125 0.124718 0.040486
0.676445 0.125043 0.040811
0.705660 0.125366 0.041134
0.734778 0.125688 0.041456
0.763801 0.126009 0.041777
0.792735 0.126330 0.042098
0.821584 0.126649 0.042417
0.850350 0.126967 0.042735
0.879037 0.127285 0.043053
0.907648 0.127601 0.043369
0.936186 0.127917 0.043685
0.964653 0.128232 0.044000
0.993053 0.128546 0.044314
0.053284 0.151796 0.035123
0.088996 0.152191 0.035518
0.123316 0.152571 0.035898
0.156770 0.152941 0.036268
0.189598 0.153304 0.036631
0.221935 0.153662 0.036989
0.253871 0.154015 0.037342
0.285467 0.154365 0.037692
0.316770 0.154711 0.038038
0.347814 0.155055 0.038382
0.378628 0.155396 0.038723
0.409235 0.155734 0.039062
0.439652 0.156071 0.039398
0.469895 0.156406 0.039733
0.499978 0.156739 0.040066
0.529913 0.157070 0.040397
0.559708 0.157400 0.040727
0.589374 0.157728 0.041055
0.618918 0.158055 0.041382
0.648346 0.158380 0.041708
0.677666 0.158705 0.042032
0.706882 0.159028 0.042355
0.735999 0.159350 0.042677
0.765023 0.159671 0.042999
0.793957 0.159992 0.043319
0.822805 0.160311 0.043638
0.851571 0.160629 0.043956
0.880258 0.160947 0.044274
0.908869 0.161263 0.044590
0.937407 0.161579 0.044906
0.965875 0.161894 0.045221
0.994274 0.162208 0.045535
0.054485 0.184900 0.036324
0.090196 0.185295 0.036719
0.124517 0.185675 0.037099
0.157971 0.186045 0.037469
0.190799 0.186408 0.037832
0.223136 0.186766 0.038190
0.255072 0.187119 0.038543
0.286668 0.187469 0.038893
0.317971 0.187816 0.039239
0.349015 0.188159 0.039583
0.379829 0.188500 0.039924
0.410435 0.188839 0.040262
0.440852 0.189175 0.040599
0.471096 0.189510 0.040934
0.501179 0.189843 0.041267
0.531114 0.190174 0.041598
0.560909 0.190504 0.041928
0.590575 0.190832 0.042256
0.620119 0.191159 0.042583
0.649547 0.191485 0.042908
0.678867 0.191809 0.043233
0.708082 0.192132 0.043556
0.737200 0.192455 0.043878
0.766224 0.192776 0.044200
0.795158 0.193096 0.044520
0.824006 0.193415 0.044839
0.852772 0.193733 0.045157
0.881459 0.194051 0.045475
0.910070 0.194367 0.045791
0.938608 0.194683 0.046107
0.967076 0.194998 0.046422
0.995475 0.195313 0.046736
0.055670 0.217567 0.037509
0.091382 0.217962 0.037904
0.125702 0.218342 0.038284
0.159156 0.218712 0.038654
0.191984 0.219076 0.039017
0.224321 0.219433 0.039375
0.256257 0.219787 0.039728
0.287853 0.220136 0.040078
0.319156 0.220483 0.040424
0.350200 0.220826 0.040768
0.381014 0.221167 0.041109
0.411621 0.221506 0.041448
0.442038 0.221843 0.041784
0.472281 0.222177 0.042119
0.502364 0.222510 0.042452
0.532299 0.222841 0.042783
0.562094 0.223171 0.043113
0.591760 0.223499 0.043441
0.621304 0.223826 0.043768
0.650732 0.224152 0.044093
0.680052 0.224476 0.044418
0.709268 0.224800 0.044741
0.738385 0.225122 0.045063
0.767409 0.225443 0.045385
0.796343 0.225763 0.045705
0.825191 0.226082 0.046024
0.853957 0.226401 0.046342
0.882644 0.226718 0.046660
0.911255 0.227035 0.046976
0.939793 0.227351 0.047292
0.968261 0.227666 0.047607
0.996660 0.227980 0.047921
0.056842 0.249876 0.038681
0.092554 0.250271 0.039076
0.126874 0.250651 0.039456
0.160328 0.251021 0.039826
0.193156 0.251384 0.040189
0.225493 0.251742 0.040547
0.257429 0.252096 0.040900
0.289025 0.252445 0.041250
0.320328 0.252792 0.041596
0.351372 0.253135 0.041940
0.382186 0.253476 0.042281
0.412793 0.253815 0.042620
0.443210 0.254151 0.042956
0.473453 0.254486 0.043291
0.503536 0.254819 0.043624
0.533471 0.255150 0.043955
0.563266 0.255480 0.044285
0.592932 0.255808 0.044613
0.622476 0.256135 0.044940
0.651904 0.256461 0.045266
0.681224 0.256785 0.045590
0.710440 0.257109 0.045913
0.739557 0.257431 0.046235
0.768581 0.257752 0.046557
0.797515 0.258072 0.046877
0.826363 0.258391 0.047196
0.855129 0.258710 0.047514
0.883816 0.259027 0.047832
0.912427 0.259344 0.048148
0.940965 0.259659 0.048464
0.969433 0.259974 0.048779
0.997832 0.260289 0.049093
0.058003 0.281882 0.039842
0.093715 0.282277 0.040237
0.128035 0.282656 0.040617
0.161489 0.283027 0.040987
0.194317 0.283390 0.041350
0.226654 0.283748 0.041708
0.258590 0.284101 0.042061
0.290186 0.284451 0.042411
0.321489 0.284797 0.042757
0.352533 0.285141 0.043101
0.383347 0.285482 0.043442
0.413954 0.285820 0.043781
0.444371 0.286157 0.044117
0.474614 0.286492 0.044452
0.504697 0.286824 0.044785
0.534632 0.287156 0.045116
0.564428 0.287485 0.045446
0.594093 0.287814 0.045774
0.623637 0.288141 0.046101
0.653065 0.288466 0.046427
0.682385 0.288791 0.046751
0.711601 0.289114 0.047074
0.740718 0.289436 0.047397
0.769742 0.289757 0.047718
0.798676 0.290078 0.048038
0.827524 0.290397 0.048357
0.856290 0.290715 0.048675
0.884977 0.291033 0.048993
0.913588 0.291349 0.049309
0.942126 0.291665 0.049625
0.970594 0.291980 0.049940
0.998993 0.292294 0.050254
0.059155 0.313624 0.040993
0.094866 0.314019 0.041389
0.129187 0.314399 0.041768
0.162641 0.314769 0.042138
0.195468 0.315133 0.042502
0.227805 0.315490 0.042860
0.259741 0.315844 0.043213
0.291338 0.316194 0.043563
0.322640 0.316540 0.043909
0.353685 0.316883 0.044253
0.384499 0.317224 0.044593
0.415105 0.317563 0.044932
0.445522 0.317900 0.045269
0.475766 0.318234 0.045603
0.505849 0.318567 0.045936
0.535783 0.318898 0.046268
0.565579 0.319228 0.046597
0.595245 0.319556 0.046926
0.624789 0.319883 0.047252
0.654217 0.320209 0.047578
0.683536 0.320533 0.047903
0.712752 0.320857 0.048226
0.741870 0.321179 0.048548
0.770893 0.321500 0.048869
0.799827 0.321820 0.049189
0.828675 0.322140 0.049509
0.857441 0.322458 0.049827
0.886128 0.322775 0.050144
0.914740 0.323092 0.050461
0.943278 0.323408 0.050777
0.971745 0.323723 0.051092
1.000000 0.324037 0.051406
0.060298 0.345136 0.042136
0.096009 0.345531 0.042532
0.130330 0.345911 0.042911
0.163784 0.346281 0.043282
0.196611 0.346644 0.043645
0.228949 0.347002 0.044003
0.260884 0.347355 0.044356
0.292481 0.347705 0.044706
0.323784 0.348051 0.045052
0.354828 0.348395 0.045396
0.385642 0.348736 0.045737
0.416248 0.349074 0.046075
0.446665 0.349411 0.046412
0.476909 0.349746 0.046747
0.506992 0.350079 0.047079
0.536926 0.350410 0.047411
0.566722 0.350739 0.047740
0.596388 0.351068 0.048069
0.625932 0.351395 0.048396
0.655360 0.351720 0.048721
0.684679 0.352045 0.049046
0.713895 0.352368 0.049369
0.743013 0.352690 0.049691
0.772036 0.353011 0.050012
0.800970 0.353332 0.050332
0.829819 0.353651 0.050652
0.858585 0.353969 0.050970
0.887272 0.354287 0.051287
0.915883 0.354603 0.051604
0.944421 0.354919 0.051920
0.972888 0.355234 0.052235
1.000000 0.355548 0.052549
0.061433 0.376440 0.043272
0.097145 0.376835 0.043667
0.131465 0.377215 0.044047
0.164920 0.377585 0.044417
0.197747 0.377949 0.044780
0.230084 0.378306 0.045138
0.262020 0.378660 0.045492
0.293616 0.379009 0.045841
0.324919 0.379356 0.046188
0.355964 0.379699 0.046531
0.386778 0.380040 0.046872
0.417384 0.380379 0.047211
0.447801 0.380716 0.047548
0.478044 0.381050 0.047882
0.508128 0.381383 0.048215
0.538062 0.381714 0.048546
0.567858 0.382044 0.048876
0.597524 0.382372 0.049204
0.627067 0.382699 0.049531
0.656496 0.383025 0.049857
0.685815 0.383349 0.050181
0.715031 0.383673 0.050505
0.744148 0.383995 0.050827
0.773172 0.384316 0.051148
0.802106 0.384636 0.051468
0.830954 0.384955 0.051787
0.859720 0.385274 0.052106
0.888407 0.385591 0.052423
0.917018 0.385908 0.052740
0.945556 0.386224 0.053055
0.974024 0.386539 0.053371
1.000000 0.386853 0.053685
0.062562 0.407558 0.044401
0.098274 0.407953 0.044796
0.132594 0.408333 0.045176
0.166049 0.408703 0.045546
0.198876 0.409067 0.045909
0.231213 0.409424 0.046267
0.263149 0.409778 0.046621
0.294745 0.410127 0.046970
0.326048 0.410474 0.047317
0.357093 0.410817 0.047660
0.387907 0.411158 0.048001
0.418513 0.411497 0.048340
0.448930 0.411834 0.048676
0.479173 0.412168 0.049011
0.509256 0.412501 0.049344
0.539191 0.412832 0.049675
0.568987 0.413162 0.050005
0.598652 0.413490 0.050333
0.628196 0.413817 0.050660
0.657625 0.414143 0.050986
0.686944 0.414467 0.051310
0.716160 0.414791 0.051633
0.745277 0.415113 0.051956
0.774301 0.415434 0.052277
0.803235 0.415754 0.052597
0.832083 0.416073 0.052916
0.860849 0.416392 0.053235
0.889536 0.416709 0.053552
0.918147 0.417026 0.053869
0.946685 0.417342 0.054184
0.975153 0.417657 0.054499
1.000000 0.417971 0.054814
0.063685 0.438506 0.045524
0.099396 0.438901 0.045919
0.133717 0.439281 0.046299
0.167171 0.439651 0.046669
0.199999 0.440015 0.047032
0.232336 0.440372 0.047390
0.264271 0.440726 0.047743
0.295868 0.441076 0.048093
0.327171 0.441422 0.048439
0.358215 0.441765 0.048783
0.389029 0.442106 0.049124
0.419635 0.442445 0.049462
0.450052 0.442782 0.049799
0.480296 0.443116 0.050134
0.510379 0.443449 0.050467
0.540314 0.443780 0.050798
0.570109 0.444110 0.051128
0.599775 0.444438 0.051456
0.629319 0.444765 0.051783
0.658747 0.445091 0.052108
0.688067 0.445415 0.052433
0.717282 0.445739 0.052756
0.746400 0.446061 0.053078
0.775424 0.446382 0.053399
0.804358 0.446702 0.053720
0.833206 0.447022 0.054039
0.861972 0.447340 0.054357
0.890659 0.447657 0.054675
0.919270 0.447974 0.054991
0.947808 0.448290 0.055307
0.976275 0.448605 0.055622
1.000000 0.448919 0.055936
0.064802 0.469298 0.046641
0.100513 0.469693 0.047036
0.134834 0.470073 0.047416
0.168288 0.470443 0.047786
0.201116 0.470807 0.048149
0.233453 0.471165 0.048507
0.265389 0.471518 0.048860
0.296985 0.471868 0.049210
0.328288 0.472214 0.049556
0.359332 0.472557 0.049900
0.390146 0.472898 0.050241
0.420752 0.473237 0.050579
0.451169 0.473574 0.050916
0.481413 0.473908 0.051251
0.511496 0.474241 0.051584
0.541431 0.474573 0.051915
0.571226 0.474902 0.052245
0.600892 0.475231 0.052573
0.630436 0.475557 0.052900
0.659864 0.475883 0.053225
0.689184 0.476208 0.053550
0.718399 0.476531 0.053873
0.747517 0.476853 0.054195
0.776541 0.477174 0.054517
0.805475 0.477494 0.054837
0.834323 0.477814 0.055156
0.863089 0.478132 0.055474
0.891776 0.478449 0.055792
0.920387 0.478766 0.056108
0.948925 0.479082 0.056424
0.977393 0.479397 0.056739
1.000000 0.479711 0.057053
0.065914 0.499946 0.047752
0.101625 0.500341 0.048148
0.135946 0.500721 0.048527
0.169400 0.501091 0.048898
0.202227 0.501455 0.049261
0.234565 0.501813 0.049619
0.266500 0.502166 0.049972
0.298097 0.502516 0.050322
0.329400 0.502862 0.050668
0.360444 0.503205 0.051012
0.391258 0.503546 0.051353
0.421864 0.503885 0.051691
0.452281 0.504222 0.052028
0.482525 0.504556 0.052363
0.512608 0.504889 0.052695
0.542542 0.505220 0.053027
0.572338 0.505550 0.053356
0.602004 0.505878 0.053685
0.631548 0.506205 0.054012
0.660976 0.506531 0.054337
0.690295 0.506855 0.054662
0.719511 0.507179 0.054985
0.748629 0.507501 0.055307
0.777652 0.507822 0.055628
0.806586 0.508142 0.055948
0.835435 0.508462 0.056268
0.864201 0.508780 0.056586
0.892888 0.509097 0.056903
0.921499 0.509414 0.057220
0.950037 0.509730 0.057536
0.978504 0.510045 0.057851
1.000000 0.510359 0.058165
0.067021 0.530460 0.048859
0.102732 0.530856 0.049255
0.137053 0.531235 0.049634
0.170507 0.531606 0.050005
0.203334 0.531969 0.050368
0.235672 0.532327 0.050726
0.267607 0.532680 0.051079
0.299204 0.533030 0.051429
0.330506 0.533376 0.051775
0.361551 0.533720 0.052119
0.392365 0.534061 0.052460
0.422971 0.534399 0.052798
0.453388 0.534736 0.053135
0.483632 0.535070 0.053469
0.513715 0.535403 0.053802
0.543649 0.535735 0.054134
0.573445 0.536064 0.054463
0.603111 0.536393 0.054792
0.632655 0.536719 0.055119
0.662083 0.537045 0.055444
0.691402 0.537370 0.055769
0.720618 0.537693 0.056092
0.749736 0.538015 0.056414
0.778759 0.538336 0.056735
0.807693 0.538656 0.057055
0.836542 0.538976 0.057375
0.865308 0.539294 0.057693
0.893995 0.539611 0.058010
0.922606 0.539928 0.058327
0.951144 0.540244 0.058643
0.979611 0.540559 0.058958
1.000000 0.540873 0.059272
0.068123 0.560850 0.049962
0.103835 0.561245 0.050357
0.138155 0.561625 0.050737
0.171609 0.561995 0.051107
0.204437 0.562358 0.051470
0.236774 0.562716 0.051828
0.268710 0.563069 0.052181
0.300306 0.563419 0.052531
0.331609 0.563765 0.052877
0.362653 0.564109 0.053221
0.393467 0.564450 0.053562
0.424074 0.564788 0.053901
0.454491 0.565125 0.054237
0.484734 0.565460 0.054572
0.514817 0.565793 0.054905
0.544752 0.566124 0.055236
0.574548 0.566453 0.055566
0.604213 0.566782 0.055894
0.633757 0.567109 0.056221
0.663185 0.567434 0.056547
0.692505 0.567759 0.056871
0.721721 0.568082 0.057194
0.750838 0.568404 0.057517
0.779862 0.568725 0.057838
0.808796 0.569046 0.058158
0.837644 0.569365 0.058477
0.866410 0.569683 0.058795
0.895097 0.570001 0.059113
0.923708 0.570317 0.059429
0.952246 0.570633 0.059745
0.980714 0.570948 0.060060
1.000000 0.571262 0.060375
0.069221 0.591122 0.051060
0.104933 0.591517 0.051455
0.139253 0.591897 0.051835
0.172708 0.592267 0.052205
0.205535 0.592630 0.052568
0.237872 0.592988 0.052926
0.269808 0.593341 0.053280
0.301404 0.593691 0.053629
0.332707 0.594037 0.053976
0.363752 0.594381 0.054319
0.394566 0.594722 0.054660
0.425172 0.595061 0.054999
0.455589 0.595397 0.055335
0.485832 0.595732 0.055670
0.515915 0.596065 0.056003
0.545850 0.596396 0.056334
0.575646 0.596726 0.056664
0.605312 0.597054 0.056992
0.634855 0.597381 0.057319
0.664284 0.597706 0.057645
0.693603 0.598031 0.057969
0.722819 0.598354 0.058292
0.751936 0.598676 0.058615
0.780960 0.598998 0.058936
0.809894 0.599318 0.059256
0.838742 0.599637 0.059575
0.867508 0.599955 0.059894
0.896195 0.600273 0.060211
0.924806 0.600589 0.060528
0.953344 0.600905 0.060843
0.981812 0.601220 0.061158
1.000000 0.601534 0.061473
0.070315 0.621284 0.052154
0.106027 0.621679 0.052549
0.140347 0.622059 0.052929
0.173802 0.622429 0.053299
0.206629 0.622792 0.053663
0.238966 0.623150 0.054020
0.270902 0.623503 0.054374
0.302498 0.623853 0.054723
0.333801 0.624199 0.055070
0.364846 0.624543 0.055413
0.395660 0.624884 0.055754
0.426266 0.625223 0.056093
0.456683 0.625559 0.056430
0.486926 0.625894 0.056764
0.517010 0.626227 0.057097
0.546944 0.626558 0.057428
0.576740 0.626888 0.057758
0.606406 0.627216 0.058086
0.635949 0.627543 0.058413
0.665378 0.627868 0.058739
0.694697 0.628193 0.059063
0.723913 0.628516 0.059387
0.753030 0.628838 0.059709
0.782054 0.629160 0.060030
0.810988 0.629480 0.060350
0.839836 0.629799 0.060669
0.868602 0.630117 0.060988
0.897289 0.630435 0.061305
0.925900 0.630751 0.061622
0.954438 0.631067 0.061938
0.982906 0.631382 0.062253
1.000000 0.631696 0.062567
0.071406 0.651342 0.053245
0.107117 0.651737 0.053640
0.141438 0.652117 0.054020
0.174892 0.652487 0.054390
0.207720 0.652850 0.054753
0.240057 0.653208 0.055111
0.271992 0.653561 0.055464
0.303589 0.653911 0.055814
0.334892 0.654257 0.056160
0.365936 0.654601 0.056504
0.396750 0.654942 0.056845
0.427356 0.655281 0.057183
0.457773 0.655617 0.057520
0.488017 0.655952 0.057855
0.518100 0.656285 0.058188
0.548035 0.656616 0.058519
0.577830 0.656946 0.058848
0.607496 0.657274 0.059177
0.637040 0.657601 0.059504
0.666468 0.657926 0.059829
0.695788 0.658251 0.060154
0.725003 0.658574 0.060477
0.754121 0.658896 0.060799
0.783144 0.659218 0.061120
0.812078 0.659538 0.061441
0.840927 0.659857 0.061760
0.869693 0.660175 0.062078
0.898380 0.660493 0.062396
0.926991 0.660809 0.062712
0.955529 0.661125 0.063028
0.983996 0.661440 0.063343
1.000000 0.661754 0.063657
0.072493 0.681301 0.054331
0.108204 0.681697 0.054727
0.142525 0.682076 0.055106
0.175979 0.682446 0.055477
0.208806 0.682810 0.055840
0.241144 0.683168 0.056198
0.273079 0.683521 0.056551
0.304676 0.683871 0.056901
0.335978 0.684217 0.057247
0.367023 0.684561 0.057591
0.397837 0.684901 0.057932
0.428443 0.685240 0.058270
0.458860 0.685577 0.058607
0.489104 0.685911 0.058941
0.519187 0.686244 0.059274
0.549121 0.686576 0.059606
0.578917 0.686905 0.059935
0.608583 0.687234 0.060264
0.638127 0.687560 0.060591
0.667555 0.687886 0.060916
0.696874 0.688211 0.061241
0.726090 0.688534 0.061564
0.755208 0.688856 0.061886
0.784231 0.689177 0.062207
0.813165 0.689497 0.062527
0.842014 0.689817 0.062847
0.870780 0.690135 0.063165
0.899467 0.690452 0.063482
0.928078 0.690769 0.063799
0.956616 0.691085 0.064115
0.985083 0.691400 0.064430
1.000000 0.691714 0.064744
0.073576 0.711168 0.055415
0.109288 0.711563 0.055810
0.143608 0.711943 0.056190
0.177063 0.712313 0.056560
0.209890 0.712676 0.056923
0.242227 0.713034 0.057281
0.274163 0.713387 0.057634
0.305759 0.713737 0.057984
0.337062 0.714083 0.058331
0.368106 0.714427 0.058674
0.398920 0.714768 0.059015
0.429527 0.715106 0.059354
0.459944 0.715443 0.059690
0.490187 0.715778 0.060025
0.520270 0.716111 0.060358
0.550205 0.716442 0.060689
0.580001 0.716771 0.061019
0.609666 0.717100 0.061347
0.639210 0.717427 0.061674
0.668638 0.717752 0.062000
0.697958 0.718077 0.062324
0.727174 0.718400 0.062647
0.756291 0.718722 0.062970
0.785315 0.719043 0.063291
0.814249 0.719364 0.063611
0.843097 0.719683 0.063930
0.871863 0.720001 0.064248
0.900550 0.720319 0.064566
0.929161 0.720635 0.064882
0.957699 0.720951 0.065198
0.986167 0.721266 0.065513
1.000000 0.721580 0.065828
0.074656 0.740945 0.056495
0.110368 0.741340 0.056890
0.144688 0.741720 0.057270
0.178143 0.742090 0.057640
0.210970 0.742453 0.058003
0.243307 0.742811 0.058361
0.275243 0.743165 0.058715
0.306839 0.743514 0.059064
0.338142 0.743861 0.059411
0.369187 0.744204 0.059754
0.400001 0.744545 0.060095
0.430607 0.744884 0.060434
0.461024 0.745220 0.060770
0.491267 0.745555 0.061105
0.521351 0.745888 0.061438
0.551285 0.746219 0.061769
0.581081 0.746549 0.062099
0.610747 0.746877 0.062427
0.640290 0.747204 0.062754
0.669719 0.747530 0.063080
0.699038 0.747854 0.063404
0.728254 0.748177 0.063728
0.757371 0.748500 0.064050
0.786395 0.748821 0.064371
0.815329 0.749141 0.064691
0.844177 0.749460 0.065010
0.872943 0.749778 0.065329
0.901630 0.750096 0.065646
0.930241 0.750413 0.065963
0.958779 0.750728 0.066278
0.987247 0.751043 0.066593
1.000000 0.751358 0.066908
0.075733 0.770637 0.057572
0.111445 0.771033 0.057967
0.145765 0.771412 0.058347
0.179220 0.771783 0.058717
0.212047 0.772146 0.059081
0.244384 0.772504 0.059438
0.276320 0.772857 0.059792
0.307916 0.773207 0.060141
0.339219 0.773553 0.060488
0.370264 0.773897 0.060831
0.401078 0.774238 0.061172
0.431684 0.774576 0.061511
0.462101 0.774913 0.061848
0.492344 0.775248 0.062182
0.522428 0.775580 0.062515
0.552362 0.775912 0.062846
0.582158 0.776241 0.063176
0.611824 0.776570 0.063504
0.641367 0.776897 0.063831
0.670796 0.777222 0.064157
0.700115 0.777547 0.064481
0.729331 0.777870 0.064805
0.758448 0.778192 0.065127
0.787472 0.778513 0.065448
0.816406 0.778834 0.065768
0.845254 0.779153 0.066087
0.874020 0.779471 0.066406
0.902707 0.779788 0.066723
0.931318 0.780105 0.067040
0.959857 0.780421 0.067356
0.988324 0.780736 0.067671
1.000000 0.781050 0.067985
0.076808 0.800249 0.058646
0.112519 0.800644 0.059042
0.146840 0.801024 0.059421
0.180294 0.801394 0.059792
0.213121 0.801757 0.060155
0.245459 0.802115 0.060513
0.277394 0.802469 0.060866
0.308991 0.802818 0.061216
0.340293 0.803165 0.061562
0.371338 0.803508 0.061906
0.402152 0.803849 0.062247
0.432758 0.804188 0.062585
0.463175 0.804524 0.062922
0.493419 0.804859 0.063257
0.523502 0.805192 0.063589
0.553436 0.805523 0.063921
0.583232 0.805853 0.064250
0.612898 0.806181 0.064579
0.642442 0.806508 0.064906
0.671870 0.806834 0.065231
0.701189 0.807158 0.065556
0.730405 0.807482 0.065879
0.759523 0.807804 0.066201
0.788546 0.808125 0.066522
0.817480 0.808445 0.066842
0.846329 0.808764 0.067162
0.875095 0.809083 0.067480
0.903782 0.809400 0.067797
0.932393 0.809717 0.068114
0.960931 0.810032 0.068430
0.989398 0.810347 0.068745
1.000000 0.810662 0.069059
0.077879 0.829783 0.059718
0.113591 0.830178 0.060113
0.147911 0.830558 0.060493
0.181365 0.830928 0.060863
0.214193 0.831292 0.061226
0.246530 0.831649 0.061584
0.278466 0.832003 0.061937
0.310062 0.832352 0.062287
0.341365 0.832699 0.062633
0.372409 0.833042 0.062977
0.403223 0.833383 0.063318
0.433830 0.833722 0.063657
0.464247 0.834059 0.063993
0.494490 0.834393 0.064328
0.524573 0.834726 0.064661
0.554508 0.835057 0.064992
0.584304 0.835387 0.065322
0.613969 0.835715 0.065650
0.643513 0.836042 0.065977
0.672941 0.836368 0.066303
0.702261 0.836692 0.066627
0.731477 0.837016 0.066950
0.760594 0.837338 0.067273
0.789618 0.837659 0.067594
0.818552 0.837979 0.067914
0.847400 0.838298 0.068233
0.876166 0.838617 0.068551
0.904853 0.838934 0.068869
0.933464 0.839251 0.069185
0.962002 0.839567 0.069501
0.990470 0.839882 0.069816
1.000000 0.840196 0.070130
0.078948 0.859243 0.060787
0.114659 0.859638 0.061182
0.148980 0.860018 0.061561
0.182434 0.860388 0.061932
0.215262 0.860751 0.062295
0.247599 0.861109 0.062653
0.279534 0.861462 0.063006
0.311131 0.861812 0.063356
0.342434 0.862158 0.063702
0.373478 0.862502 0.064046
0.404292 0.862843 0.064387
0.434898 0.863182 0.064725
0.465315 0.863518 0.065062
0.495559 0.863853 0.065397
0.525642 0.864186 0.065729
0.555576 0.864517 0.066061
0.585372 0.864847 0.066390
0.615038 0.865175 0.066719
0.644582 0.865502 0.067046
0.674010 0.865828 0.067371
0.703329 0.866152 0.067696
0.732545 0.866475 0.068019
0.761663 0.866798 0.068341
0.790686 0.867119 0.068662
0.819620 0.867439 0.068983
0.848469 0.867758 0.069302
0.877235 0.868076 0.069620
0.905922 0.868394 0.069938
0.934533 0.868710 0.070254
0.963071 0.869026 0.070570
0.991538 0.869341 0.070885
1.000000 0.869656 0.071199
0.080014 0.888631 0.061853
0.115725 0.889026 0.062248
0.150046 0.889406 0.062628
0.183500 0.889776 0.062998
0.216328 0.890140 0.063361
0.248665 0.890497 0.063719
0.280600 0.890851 0.064072
0.312197 0.891200 0.064422
0.343500 0.891547 0.064768
0.374544 0.891890 0.065112
0.405358 0.892231 0.065453
0.435964 0.892570 0.065791
0.466381 0.892907 0.066128
0.496625 0.893241 0.066463
0.526708 0.893574 0.066796
0.556643 0.893905 0.067127
0.586438 0.894235 0.067457
0.616104 0.894563 0.067785
0.645648 0.894890 0.068112
