assets/luts/cream.cube
# Beauty Camera 3D LUT
# Filter: Cream (cream)
# Category: Korean
TITLE "Cream"
LUT_3D_SIZE 5
DOMAIN_MIN 0.000000 0.000000 0.000000
DOMAIN_MAX 0.903226 0.903226 0.903226
0.049520 0.048043 0.031359
0.281703 0.050612 0.033928
0.496214 0.052986 0.036302
0.703118 0.055276 0.038591
0.905105 0.057511 0.040827
0.058003 0.281882 0.039842
0.290186 0.284451 0.042411
0.504697 0.286824 0.044785
0.711601 0.289114 0.047074
0.913588 0.291349 0.049309
0.065914 0.499946 0.047752
0.298097 0.502516 0.050322
0.512608 0.504889 0.052695
0.719511 0.507179 0.054985
0.921499 0.509414 0.057220
0.073576 0.711168 0.055415
0.305759 0.713737 0.057984
0.520270 0.716111 0.060358
0.727174 0.718400 0.062647
0.929161 0.720635 0.064882
0.081077 0.917951 0.062916
0.313260 0.920520 0.065485
0.527772 0.922894 0.067859
0.734675 0.925183 0.070149
0.936663 0.927418 0.072384
0.050298 0.048821 0.236697
0.282481 0.051390 0.239266
0.496992 0.053764 0.241640
0.703895 0.056053 0.243930
0.905883 0.058288 0.246165
0.058780 0.282659 0.245180
0.290963 0.285228 0.247749
0.505475 0.287602 0.250123
0.712378 0.289891 0.252412
0.914365 0.292126 0.254648
0.066691 0.500724 0.253091
0.298874 0.503293 0.255660
0.513385 0.505667 0.258034
0.720289 0.507956 0.260323
0.922276 0.510191 0.262558
0.074353 0.711945 0.260753
0.306536 0.714514 0.263322
0.521048 0.716888 0.265696
0.727951 0.719177 0.267985
0.929938 0.721412 0.270221
0.081855 0.918728 0.268254
0.314038 0.921297 0.270824
0.528549 0.923671 0.273197
0.735452 0.925961 0.275487
0.937440 0.928196 0.277722
0.051058 0.049581 0.437501
0.283241 0.052150 0.440070
0.497752 0.054524 0.442444
0.704655 0.056813 0.444733
0.906643 0.059048 0.446968
0.059541 0.283419 0.445983
0.291724 0.285988 0.448553
0.506235 0.288362 0.450926
0.713138 0.290651 0.453216
0.915126 0.292887 0.455451
0.067451 0.501484 0.453894
0.299634 0.504053 0.456463
0.514145 0.506427 0.458837
0.721049 0.508716 0.461127
0.923036 0.510951 0.463362
0.075114 0.712705 0.461556
0.307297 0.715274 0.464126
0.521808 0.717648 0.466499
0.728711 0.719938 0.468789
0.930699 0.722173 0.471024
0.082615 0.919488 0.469058
0.314798 0.922057 0.471627
0.529309 0.924431 0.474001
0.736213 0.926721 0.476290
0.938200 0.928956 0.478525
0.051810 0.050333 0.636350
0.283993 0.052903 0.638919
0.498505 0.055276 0.641293
0.705408 0.057566 0.643582
0.907396 0.059801 0.645817
0.060293 0.284172 0.644833
0.292476 0.286741 0.647402
0.506988 0.289115 0.649776
0.713891 0.291404 0.652065
0.915878 0.293639 0.654300
0.068204 0.502237 0.652743
0.300387 0.504806 0.655313
0.514898 0.507180 0.657686
0.721802 0.509469 0.659976
0.923789 0.511704 0.662211
0.075866 0.713458 0.660406
0.308049 0.716027 0.662975
0.522561 0.718401 0.665349
0.729464 0.720690 0.667638
0.931451 0.722925 0.669873
0.083368 0.920241 0.667907
0.315551 0.922810 0.670476
0.530062 0.925184 0.672850
0.736965 0.927473 0.675140
0.938953 0.929709 0.677375
0.052558 0.051081 0.833918
0.284741 0.053651 0.836488
0.499253 0.056024 0.838861
0.706156 0.058314 0.841151
0.908143 0.060549 0.843386
0.061041 0.284920 0.842401
0.293224 0.287489 0.844971
0.507735 0.289863 0.847344
0.714639 0.292152 0.849634
0.916626 0.294387 0.851869
0.068952 0.502984 0.850312
0.301135 0.505554 0.852881
0.515646 0.507927 0.855255
0.722549 0.510217 0.857544
0.924537 0.512452 0.859780
0.076614 0.714206 0.857974
0.308797 0.716775 0.860544
0.523308 0.719149 0.862917
0.730212 0.721438 0.865207
0.932199 0.723673 0.867442
0.084116 0.920989 0.865476
0.316299 0.923558 0.868045
0.530810 0.925932 0.870419
0.737713 0.928221 0.872708
0.939701 0.930457 0.874943
