assets/luts/cream.cube
# Beauty Camera 3D LUT
# Filter: Cream (cream)
# Category: Korean
TITLE "Cream"
LUT_3D_SIZE 8
DOMAIN_MIN 0.000000 0.000000 0.000000
DOMAIN_MAX 0.903226 0.903226 0.903226
0.049520 0.048043 0.031359
0.185834 0.049552 0.032867
0.313006 0.050959 0.034275
0.435888 0.052319 0.035634
0.555945 0.053647 0.036963
0.673902 0.054952 0.038268
0.790193 0.056239 0.039555
0.905105 0.057511 0.040827
0.054485 0.184900 0.036324
0.190799 0.186408 0.037832
0.317971 0.187816 0.039239
0.440852 0.189175 0.040599
0.560909 0.190504 0.041928
0.678867 0.191809 0.043233
0.795158 0.193096 0.044520
0.910070 0.194367 0.045791
0.059155 0.313624 0.040993
0.195468 0.315133 0.042502
0.322640 0.316540 0.043909
0.445522 0.317900 0.045269
0.565579 0.319228 0.046597
0.683536 0.320533 0.047903
0.799827 0.321820 0.049189
0.914740 0.323092 0.050461
0.063685 0.438506 0.045524
0.199999 0.440015 0.047032
0.327171 0.441422 0.048439
0.450052 0.442782 0.049799
0.570109 0.444110 0.051128
0.688067 0.445415 0.052433
0.804358 0.446702 0.053720
0.919270 0.447974 0.054991
0.068123 0.560850 0.049962
0.204437 0.562358 0.051470
0.331609 0.563765 0.052877
0.454491 0.565125 0.054237
0.574548 0.566453 0.055566
0.692505 0.567759 0.056871
0.808796 0.569046 0.058158
0.923708 0.570317 0.059429
0.072493 0.681301 0.054331
0.208806 0.682810 0.055840
0.335978 0.684217 0.057247
0.458860 0.685577 0.058607
0.578917 0.686905 0.059935
0.696874 0.688211 0.061241
0.813165 0.689497 0.062527
0.928078 0.690769 0.063799
0.076808 0.800249 0.058646
0.213121 0.801757 0.060155
0.340293 0.803165 0.061562
0.463175 0.804524 0.062922
0.583232 0.805853 0.064250
0.701189 0.807158 0.065556
0.817480 0.808445 0.066842
0.932393 0.809717 0.068114
0.081077 0.917951 0.062916
0.217391 0.919459 0.064425
0.344563 0.920866 0.065832
0.467445 0.922226 0.067192
0.587502 0.923555 0.068520
0.705459 0.924860 0.069825
0.821750 0.926147 0.071112
0.936663 0.927418 0.072384
0.049968 0.048491 0.149638
0.186282 0.049999 0.151147
0.313454 0.051407 0.152554
0.436336 0.052766 0.153914
0.556392 0.054095 0.155242
0.674350 0.055400 0.156547
0.790641 0.056687 0.157834
0.905553 0.057959 0.159106
0.054933 0.185348 0.154603
0.191246 0.186856 0.156111
0.318418 0.188263 0.157519
0.441300 0.189623 0.158878
0.561357 0.190952 0.160207
0.679314 0.192257 0.161512
0.795605 0.193544 0.162799
0.910518 0.194815 0.164071
0.059602 0.314072 0.159273
0.195916 0.315580 0.160781
0.323088 0.316988 0.162188
0.445970 0.318347 0.163548
0.566027 0.319676 0.164877
0.683984 0.320981 0.166182
0.800275 0.322268 0.167469
0.915187 0.323540 0.168740
0.064133 0.438954 0.163803
0.200446 0.440462 0.165311
0.327618 0.441870 0.166719
0.450500 0.443229 0.168078
0.570557 0.444558 0.169407
0.688514 0.445863 0.170712
0.804805 0.447150 0.171999
0.919718 0.448422 0.173271
0.068571 0.561297 0.168241
0.204885 0.562806 0.169750
0.332057 0.564213 0.171157
0.454938 0.565573 0.172517
0.574995 0.566901 0.173845
0.692953 0.568207 0.175150
0.809243 0.569493 0.176437
0.924156 0.570765 0.177709
0.072940 0.681749 0.172611
0.209254 0.683257 0.174119
0.336426 0.684665 0.175526
0.459308 0.686025 0.176886
0.579365 0.687353 0.178215
0.697322 0.688658 0.179520
0.813613 0.689945 0.180807
0.928525 0.691217 0.182078
0.077255 0.800697 0.176926
0.213569 0.802205 0.178434
0.340741 0.803612 0.179841
0.463623 0.804972 0.181201
0.583680 0.806301 0.182530
0.701637 0.807606 0.183835
0.817928 0.808893 0.185122
0.932840 0.810164 0.186393
0.081525 0.918398 0.181196
0.217839 0.919907 0.182704
0.345011 0.921314 0.184111
0.467893 0.922674 0.185471
0.587950 0.924002 0.186799
0.705907 0.925308 0.188105
0.822198 0.926595 0.189392
0.937110 0.927866 0.190663
0.050407 0.048930 0.265551
0.186721 0.050438 0.267059
0.313893 0.051845 0.268467
0.436774 0.053205 0.269826
0.556831 0.054534 0.271155
0.674788 0.055839 0.272460
0.791079 0.057126 0.273747
0.905992 0.058397 0.275019
0.055371 0.185786 0.270516
0.191685 0.187295 0.272024
0.318857 0.188702 0.273431
0.441739 0.190062 0.274791
0.561796 0.191390 0.276120
0.679753 0.192696 0.277425
0.796044 0.193982 0.278712
0.910957 0.195254 0.279983
0.060041 0.314511 0.275185
0.196355 0.316019 0.276694
0.323527 0.317426 0.278101
0.446409 0.318786 0.279461
0.566466 0.320115 0.280789
0.684423 0.321420 0.282095
0.800714 0.322707 0.283381
0.915626 0.323978 0.284653
0.064571 0.439393 0.279716
0.200885 0.440901 0.281224
0.328057 0.442308 0.282631
0.450939 0.443668 0.283991
0.570996 0.444997 0.285320
0.688953 0.446302 0.286625
0.805244 0.447589 0.287912
0.920156 0.448860 0.289183
0.069010 0.561736 0.284154
0.205323 0.563245 0.285662
0.332495 0.564652 0.287069
0.455377 0.566012 0.288429
0.575434 0.567340 0.289758
0.693391 0.568645 0.291063
0.809682 0.569932 0.292350
0.924595 0.571204 0.293621
0.073379 0.682188 0.288523
0.209693 0.683696 0.290032
0.336865 0.685104 0.291439
0.459747 0.686463 0.292799
0.579804 0.687792 0.294127
0.697761 0.689097 0.295433
0.814052 0.690384 0.296719
0.928964 0.691656 0.297991
0.077694 0.801136 0.292838
0.214008 0.802644 0.294347
0.341180 0.804051 0.295754
0.464062 0.805411 0.297114
0.584119 0.806740 0.298442
0.702076 0.808045 0.299748
0.818367 0.809332 0.301034
0.933279 0.810603 0.302306
0.081964 0.918837 0.297108
0.218278 0.920346 0.298617
0.345450 0.921753 0.300024
0.468332 0.923113 0.301384
0.588389 0.924441 0.302712
0.706346 0.925746 0.304017
0.822637 0.927033 0.305304
0.937549 0.928305 0.306576
0.050841 0.049364 0.380374
0.187155 0.050873 0.381882
0.314327 0.052280 0.383290
0.437209 0.053640 0.384649
0.557266 0.054968 0.385978
0.675223 0.056274 0.387283
0.791514 0.057560 0.388570
0.906426 0.058832 0.389842
0.055806 0.186221 0.385339
0.192120 0.187730 0.386847
0.319292 0.189137 0.388254
0.442174 0.190497 0.389614
0.562231 0.191825 0.390943
0.680188 0.193130 0.392248
0.796479 0.194417 0.393535
0.911391 0.195689 0.394806
0.060476 0.314945 0.390008
0.196790 0.316454 0.391517
0.323962 0.317861 0.392924
0.446843 0.319221 0.394284
0.566900 0.320549 0.395612
0.684858 0.321855 0.396918
0.801148 0.323142 0.398204
0.916061 0.324413 0.399476
0.065006 0.439828 0.394539
0.201320 0.441336 0.396047
0.328492 0.442743 0.397454
0.451374 0.444103 0.398814
0.571431 0.445431 0.400143
0.689388 0.446737 0.401448
0.805679 0.448024 0.402735
0.920591 0.449295 0.404006
0.069444 0.562171 0.398977
0.205758 0.563679 0.400485
0.332930 0.565086 0.401892
0.455812 0.566446 0.403252
0.575869 0.567775 0.404581
0.693826 0.569080 0.405886
0.810117 0.570367 0.407173
0.925029 0.571638 0.408444
0.073814 0.682623 0.403346
0.210128 0.684131 0.404855
0.337300 0.685538 0.406262
0.460181 0.686898 0.407622
0.580238 0.688226 0.408950
0.698196 0.689532 0.410256
0.814487 0.690819 0.411542
0.929399 0.692090 0.412814
0.078129 0.801570 0.407661
0.214443 0.803079 0.409170
0.341615 0.804486 0.410577
0.464496 0.805846 0.411937
0.584553 0.807174 0.413265
0.702511 0.808480 0.414571
0.818802 0.809766 0.415857
0.933714 0.811038 0.417129
0.082399 0.919272 0.411931
0.218712 0.920780 0.413440
0.345885 0.922188 0.414847
0.468766 0.923547 0.416207
0.588823 0.924876 0.417535
0.706780 0.926181 0.418840
0.823071 0.927468 0.420127
0.937984 0.928740 0.421399
0.051273 0.049796 0.494474
0.187587 0.051305 0.495982
0.314759 0.052712 0.497389
0.437641 0.054072 0.498749
0.557698 0.055400 0.500078
0.675655 0.056706 0.501383
0.791946 0.057992 0.502670
0.906858 0.059264 0.503941
0.056238 0.186653 0.499438
0.192552 0.188161 0.500947
0.319724 0.189569 0.502354
0.442606 0.190928 0.503714
0.562663 0.192257 0.505042
0.680620 0.193562 0.506348
0.796911 0.194849 0.507634
0.911823 0.196121 0.508906
0.060908 0.315377 0.504108
0.197222 0.316886 0.505617
0.324394 0.318293 0.507024
0.447275 0.319653 0.508384
0.567332 0.320981 0.509712
0.685289 0.322287 0.511017
0.801580 0.323573 0.512304
0.916493 0.324845 0.513576
0.065438 0.440259 0.508638
0.201752 0.441768 0.510147
0.328924 0.443175 0.511554
0.451806 0.444535 0.512914
0.571863 0.445863 0.514242
0.689820 0.447169 0.515548
0.806111 0.448455 0.516834
0.921023 0.449727 0.518106
0.069876 0.562603 0.513077
0.206190 0.564111 0.514585
0.333362 0.565518 0.515992
0.456244 0.566878 0.517352
0.576301 0.568207 0.518681
0.694258 0.569512 0.519986
0.810549 0.570799 0.521273
0.925461 0.572070 0.522544
0.074246 0.683055 0.517446
0.210560 0.684563 0.518955
0.337732 0.685970 0.520362
0.460613 0.687330 0.521722
0.580670 0.688658 0.523050
0.698628 0.689964 0.524355
0.814918 0.691251 0.525642
0.929831 0.692522 0.526914
0.078561 0.802002 0.521761
0.214875 0.803511 0.523270
0.342047 0.804918 0.524677
0.464928 0.806278 0.526037
0.584985 0.807606 0.527365
0.702943 0.808911 0.528670
0.819233 0.810198 0.529957
0.934146 0.811470 0.531229
0.082831 0.919704 0.526031
0.219144 0.921212 0.527539
0.346316 0.922620 0.528947
0.469198 0.923979 0.530306
0.589255 0.925308 0.531635
0.707212 0.926613 0.532940
0.823503 0.927900 0.534227
0.938416 0.929172 0.535499
0.051703 0.050226 0.608031
0.188017 0.051735 0.609540
0.315189 0.053142 0.610947
0.438071 0.054502 0.612307
0.558128 0.055830 0.613635
0.676085 0.057135 0.614941
0.792376 0.058422 0.616228
0.907288 0.059694 0.617499
0.056668 0.187083 0.612996
0.192982 0.188591 0.614505
0.320154 0.189999 0.615912
0.443036 0.191358 0.617272
0.563092 0.192687 0.618600
0.681050 0.193992 0.619905
0.797341 0.195279 0.621192
0.912253 0.196551 0.622464
0.061338 0.315807 0.617666
0.197651 0.317316 0.619174
0.324823 0.318723 0.620581
0.447705 0.320083 0.621941
0.567762 0.321411 0.623270
0.685719 0.322717 0.624575
0.802010 0.324003 0.625862
0.916923 0.325275 0.627133
0.065868 0.440689 0.622196
0.202182 0.442198 0.623705
0.329354 0.443605 0.625112
0.452235 0.444965 0.626472
0.572292 0.446293 0.627800
0.690250 0.447599 0.629105
0.806541 0.448885 0.630392
0.921453 0.450157 0.631664
0.070306 0.563033 0.626634
0.206620 0.564541 0.628143
0.333792 0.565948 0.629550
0.456674 0.567308 0.630910
0.576731 0.568637 0.632238
0.694688 0.569942 0.633544
0.810979 0.571229 0.634830
0.925891 0.572500 0.636102
0.074676 0.683484 0.631004
0.210989 0.684993 0.632512
0.338162 0.686400 0.633920
0.461043 0.687760 0.635279
0.581100 0.689088 0.636608
0.699057 0.690394 0.637913
0.815348 0.691680 0.639200
0.930261 0.692952 0.640472
0.078991 0.802432 0.635319
0.215304 0.803941 0.636827
0.342477 0.805348 0.638235
0.465358 0.806708 0.639594
0.585415 0.808036 0.640923
0.703372 0.809341 0.642228
0.819663 0.810628 0.643515
0.934576 0.811900 0.644787
0.083261 0.920134 0.639589
0.219574 0.921642 0.641097
0.346746 0.923049 0.642504
0.469628 0.924409 0.643864
0.589685 0.925738 0.645193
0.707642 0.927043 0.646498
0.823933 0.928330 0.647785
0.938846 0.929601 0.649056
0.052132 0.050655 0.721156
0.188445 0.052163 0.722664
0.315617 0.053570 0.724071
0.438499 0.054930 0.725431
0.558556 0.056258 0.726759
0.676513 0.057564 0.728065
0.792804 0.058851 0.729352
0.907717 0.060122 0.730623
0.057096 0.187511 0.726120
0.193410 0.189020 0.727629
0.320582 0.190427 0.729036
0.443464 0.191787 0.730396
0.563521 0.193115 0.731724
0.681478 0.194420 0.733029
0.797769 0.195707 0.734316
0.912681 0.196979 0.735588
0.061766 0.316236 0.730790
0.198080 0.317744 0.732298
0.325252 0.319151 0.733706
0.448133 0.320511 0.735065
0.568190 0.321839 0.736394
0.686148 0.323145 0.737699
0.802439 0.324432 0.738986
0.917351 0.325703 0.740258
0.066296 0.441118 0.735320
0.202610 0.442626 0.736829
0.329782 0.444033 0.738236
0.452664 0.445393 0.739596
0.572721 0.446721 0.740924
0.690678 0.448027 0.742229
0.806969 0.449314 0.743516
0.921881 0.450585 0.744788
0.070734 0.563461 0.739758
0.207048 0.564969 0.741267
0.334220 0.566377 0.742674
0.457102 0.567736 0.744034
0.577159 0.569065 0.745362
0.695116 0.570370 0.746668
0.811407 0.571657 0.747954
0.926319 0.572928 0.749226
0.075104 0.683913 0.744128
0.211418 0.685421 0.745636
0.338590 0.686828 0.747044
0.461472 0.688188 0.748403
0.581528 0.689517 0.749732
0.699486 0.690822 0.751037
0.815777 0.692109 0.752324
0.930689 0.693380 0.753596
0.079419 0.802860 0.748443
0.215733 0.804369 0.749951
0.342905 0.805776 0.751359
0.465787 0.807136 0.752718
0.585843 0.808464 0.754047
0.703801 0.809770 0.755352
0.820092 0.811056 0.756639
0.935004 0.812328 0.757911
0.083689 0.920562 0.752713
0.220003 0.922070 0.754221
0.347175 0.923478 0.755628
0.470056 0.924837 0.756988
0.590113 0.926166 0.758317
0.708071 0.927471 0.759622
0.824361 0.928758 0.760909
0.939274 0.930030 0.762180
0.052558 0.051081 0.833918
0.188872 0.052590 0.835427
0.316044 0.053997 0.836834
0.438926 0.055357 0.838194
0.558983 0.056685 0.839522
0.676940 0.057991 0.840828
0.793231 0.059277 0.842114
0.908143 0.060549 0.843386
0.057523 0.187938 0.838883
0.193837 0.189446 0.840392
0.321009 0.190854 0.841799
0.443891 0.192213 0.843159
0.563948 0.193542 0.844487
0.681905 0.194847 0.845792
0.798196 0.196134 0.847079
0.913108 0.197406 0.848351
0.062193 0.316662 0.843553
0.198507 0.318171 0.845061
0.325679 0.319578 0.846468
0.448560 0.320938 0.847828
0.568617 0.322266 0.849157
0.686574 0.323572 0.850462
0.802865 0.324858 0.851749
0.917778 0.326130 0.853020
0.066723 0.441544 0.848083
0.203037 0.443053 0.849592
0.330209 0.444460 0.850999
0.453091 0.445820 0.852359
0.573148 0.447148 0.853687
0.691105 0.448454 0.854992
0.807396 0.449740 0.856279
0.922308 0.451012 0.857551
0.071161 0.563888 0.852521
0.207475 0.565396 0.854030
0.334647 0.566803 0.855437
0.457529 0.568163 0.856797
0.577586 0.569492 0.858125
0.695543 0.570797 0.859430
0.811834 0.572084 0.860717
0.926746 0.573355 0.861989
0.075531 0.684340 0.856891
0.211845 0.685848 0.858399
0.339017 0.687255 0.859807
0.461898 0.688615 0.861166
0.581955 0.689943 0.862495
0.699913 0.691249 0.863800
0.816203 0.692536 0.865087
0.931116 0.693807 0.866358
0.079846 0.803287 0.861206
0.216160 0.804796 0.862714
0.343332 0.806203 0.864122
0.466213 0.807563 0.865481
0.586270 0.808891 0.866810
0.704228 0.810196 0.868115
0.820518 0.811483 0.869402
0.935431 0.812755 0.870673
0.084116 0.920989 0.865476
0.220429 0.922497 0.866984
0.347601 0.923905 0.868391
0.470483 0.925264 0.869751
0.590540 0.926593 0.871080
0.708497 0.927898 0.872385
0.824788 0.929185 0.873672
0.939701 0.930457 0.874943
