assets/luts/cyber.cube
# Beauty Camera 3D LUT
# Filter: Cyber (cyber)
# Category: Cool
TITLE "Cyber"
LUT_3D_SIZE 8
DOMAIN_MIN 0.000000 0.000000 0.000000
DOMAIN_MAX 0.903226 0.903226 0.903226
0.022665 0.000000 0.082154
0.177285 0.000000 0.074177
0.353427 0.000000 0.065089
0.552858 0.000000 0.054800
0.777493 0.000000 0.043971
0.907393 0.000000 0.034473
0.956188 0.000000 0.026364
0.976539 0.000000 0.019597
0.003998 0.091780 0.063487
0.158618 0.083802 0.055510
0.334760 0.074715 0.046422
0.534191 0.064425 0.036133
0.756809 0.053596 0.025304
0.898784 0.044099 0.015806
0.952115 0.035990 0.007697
0.974358 0.029223 0.000930
0.000000 0.209986 0.040121
0.135252 0.202009 0.032143
0.311394 0.192921 0.023056
0.510825 0.182632 0.012767
0.728187 0.171803 0.001938
0.886871 0.162306 0.000000
0.946479 0.154197 0.000000
0.971340 0.147430 0.000000
0.000000 0.349576 0.012528
0.107659 0.341599 0.004551
0.283801 0.332511 0.000000
0.483232 0.322222 0.000000
0.693127 0.311393 0.000000
0.870986 0.301896 0.000000
0.938964 0.293787 0.000000
0.967316 0.287020 0.000000
0.000000 0.510519 0.000000
0.075845 0.502542 0.000000
0.251987 0.493454 0.000000
0.451418 0.483165 0.000000
0.661314 0.472336 0.000000
0.849883 0.462838 0.000000
0.928980 0.454729 0.000000
0.961970 0.447962 0.000000
0.000000 0.679539 0.000000
0.042435 0.671562 0.000000
0.218577 0.662474 0.000000
0.418008 0.652185 0.000000
0.627903 0.641356 0.000000
0.823995 0.631859 0.000000
0.916733 0.623750 0.000000
0.955411 0.616983 0.000000
0.000000 0.839306 0.000000
0.012476 0.833084 0.000000
0.188618 0.825702 0.000000
0.388049 0.816949 0.000000
0.597945 0.807262 0.000000
0.797007 0.798346 0.000000
0.903965 0.790406 0.000000
0.948574 0.783543 0.000000
0.000000 0.914579 0.000000
0.000000 0.911272 0.000000
0.162387 0.907348 0.000000
0.361818 0.902695 0.000000
0.571713 0.897546 0.000000
0.769999 0.892806 0.000000
0.891187 0.888586 0.000000
0.941732 0.884937 0.000000
0.019430 0.000000 0.273066
0.174050 0.000000 0.265089
0.350192 0.000000 0.256001
0.549623 0.000000 0.245712
0.774039 0.000000 0.234883
0.905955 0.000000 0.225386
0.955508 0.000000 0.217276
0.976175 0.000000 0.210510
0.000763 0.088545 0.254399
0.155383 0.080568 0.246422
0.331525 0.071480 0.237334
0.530956 0.061191 0.227045
0.753034 0.050362 0.216216
0.897213 0.040864 0.206719
0.951372 0.032755 0.198609
0.973960 0.025988 0.191842
0.000000 0.206751 0.231033
0.132017 0.198774 0.223056
0.308159 0.189687 0.213968
0.507590 0.179397 0.203679
0.723968 0.168568 0.192850
0.885115 0.159071 0.183353
0.945648 0.150962 0.175243
0.970895 0.144195 0.168476
0.000000 0.346342 0.203440
0.104424 0.338364 0.195463
0.280566 0.329277 0.186375
0.479997 0.318987 0.176086
0.689893 0.308158 0.165257
0.868984 0.298661 0.155760
0.938017 0.290552 0.147651
0.966809 0.283785 0.140884
0.000000 0.507284 0.171627
0.072610 0.499307 0.163649
0.248753 0.490219 0.154562
0.448183 0.479930 0.144272
0.658079 0.469101 0.133443
0.847553 0.459603 0.123946
0.927878 0.451494 0.115837
0.961380 0.444727 0.109070
0.000000 0.676305 0.138216
0.039200 0.668327 0.130239
0.215342 0.659240 0.121151
0.414773 0.648950 0.110862
0.624669 0.638121 0.100033
0.821263 0.628624 0.090536
0.915440 0.620515 0.082426
0.954719 0.613748 0.075659
0.000000 0.836811 0.108257
0.009241 0.830493 0.100280
0.185383 0.822996 0.091192
0.384814 0.814108 0.080903
0.594710 0.804271 0.070074
0.793856 0.795215 0.060577
0.902474 0.787153 0.052468
0.947776 0.780183 0.045701
0.000000 0.913253 0.082026
0.000000 0.909894 0.074049
0.159152 0.905910 0.064961
0.358583 0.901185 0.054672
0.568478 0.895955 0.043843
0.766429 0.891142 0.034345
0.889498 0.886856 0.026236
0.940828 0.883151 0.019469
0.015950 0.000000 0.478471
0.170570 0.000000 0.470494
0.346712 0.000000 0.461406
0.546143 0.000000 0.451117
0.770263 0.000000 0.440288
0.904384 0.000000 0.430791
0.954764 0.000000 0.422682
0.975777 0.000000 0.415915
0.000000 0.085064 0.459804
0.151903 0.077087 0.451827
0.328045 0.068000 0.442739
0.527476 0.057710 0.432450
0.748907 0.046881 0.421621
0.895495 0.037384 0.412124
0.950559 0.029275 0.404015
0.973525 0.022508 0.397248
0.000000 0.203271 0.436438
0.128536 0.195294 0.428461
0.304679 0.186206 0.419373
0.504110 0.175917 0.409084
0.719355 0.165088 0.398255
0.883196 0.155590 0.388758
0.944740 0.147481 0.380649
0.970409 0.140714 0.373882
0.000000 0.342861 0.408845
0.100944 0.334884 0.400868
0.277086 0.325796 0.391780
0.476517 0.315507 0.381491
0.686412 0.304678 0.370662
0.866794 0.295181 0.361165
0.936981 0.287071 0.353056
0.966254 0.280304 0.346289
0.000000 0.503804 0.377032
0.069130 0.495826 0.369054
0.245272 0.486739 0.359967
0.444703 0.476450 0.349678
0.654599 0.465620 0.338848
0.845005 0.456123 0.329351
0.926673 0.448014 0.321242
0.960734 0.441247 0.314475
0.000000 0.672824 0.343621
0.035719 0.664847 0.335644
0.211862 0.655759 0.326556
0.411293 0.645470 0.316267
0.621188 0.634641 0.305438
0.818276 0.625144 0.295941
0.914027 0.617034 0.287831
0.953963 0.610268 0.281064
0.000000 0.834084 0.313662
0.005761 0.827660 0.305685
0.181903 0.820038 0.296597
0.381334 0.811001 0.286308
0.591229 0.801000 0.275479
0.790411 0.791793 0.265982
0.900844 0.783596 0.257873
0.946903 0.776509 0.251106
0.000000 0.911803 0.287431
0.000000 0.908389 0.279454
0.155672 0.904337 0.270366
0.355103 0.899533 0.260077
0.564998 0.894217 0.249248
0.762526 0.889323 0.239751
0.887652 0.884965 0.231641
0.939839 0.881198 0.224874
0.012203 0.000000 0.699602
0.166823 0.000000 0.691625
0.342965 0.000000 0.682538
0.542396 0.000000 0.672248
0.766128 0.000000 0.661419
0.902662 0.000000 0.651922
0.953950 0.000000 0.643813
0.975341 0.000000 0.637046
0.000000 0.081318 0.680935
0.148156 0.073340 0.672958
0.324298 0.064253 0.663871
0.523729 0.053964 0.653581
0.744387 0.043134 0.642752
0.893614 0.033637 0.633255
0.949669 0.025528 0.625146
0.973048 0.018761 0.618379
0.000000 0.199524 0.657569
0.124790 0.191547 0.649592
0.300932 0.182459 0.640504
0.500363 0.172170 0.630215
0.714303 0.161341 0.619386
0.881093 0.151844 0.609889
0.943745 0.143735 0.601780
0.969876 0.136968 0.595013
0.000000 0.339114 0.629977
0.097197 0.331137 0.621999
0.273339 0.322049 0.612912
0.472770 0.311760 0.602622
0.682666 0.300931 0.591793
0.864396 0.291434 0.582296
0.935846 0.283325 0.574187
0.965647 0.276558 0.567420
0.000000 0.500057 0.598163
0.065383 0.492080 0.590186
0.241525 0.482992 0.581098
0.440956 0.472703 0.570809
0.650852 0.461874 0.559980
0.842215 0.452376 0.550482
0.925353 0.444267 0.542373
0.960027 0.437500 0.535606
0.000000 0.669077 0.564752
0.031973 0.661100 0.556775
0.208115 0.652012 0.547687
0.407546 0.641723 0.537398
0.617441 0.630894 0.526569
0.815005 0.621397 0.517072
0.912479 0.613288 0.508963
0.953134 0.606521 0.502196
0.000000 0.831097 0.534794
0.002014 0.824558 0.526816
0.178156 0.816799 0.517729
0.377587 0.807599 0.507439
0.587483 0.797417 0.496610
0.786638 0.788045 0.487113
0.899059 0.779700 0.479004
0.945947 0.772486 0.472237
0.000000 0.910216 0.508562
0.000000 0.906739 0.500585
0.151925 0.902615 0.491497
0.351356 0.897725 0.481208
0.561251 0.892312 0.470379
0.758251 0.887330 0.460882
0.885629 0.882894 0.452773
0.938756 0.879059 0.446006
0.008807 0.000000 0.884267
0.163427 0.000000 0.879786
0.339569 0.000000 0.874470
0.539000 0.000000 0.868166
0.762315 0.000000 0.861189
0.901075 0.000000 0.854767
0.953199 0.000000 0.849049
0.974939 0.000000 0.844106
0.000000 0.077922 0.873508
0.144760 0.069944 0.868611
0.320902 0.060857 0.862800
0.520333 0.050568 0.855910
0.740219 0.039739 0.848285
0.891879 0.030241 0.841266
0.948848 0.022132 0.835017
0.972609 0.015365 0.829614
0.000000 0.196128 0.858621
0.121394 0.188151 0.853147
0.297536 0.179063 0.846653
0.496967 0.168774 0.838952
0.709645 0.157945 0.830429
0.879154 0.148448 0.822584
0.942828 0.140339 0.815600
0.969385 0.133572 0.809561
0.000000 0.335718 0.838769
0.093801 0.327741 0.832526
0.269943 0.318654 0.825120
0.469374 0.308364 0.816338
0.679270 0.297535 0.806619
0.862185 0.288038 0.797672
0.934800 0.279929 0.789706
0.965086 0.273162 0.782820
0.000000 0.496661 0.812396
0.061987 0.488684 0.805132
0.238129 0.479596 0.796515
0.437560 0.469307 0.786296
0.647456 0.458478 0.774987
0.839643 0.448980 0.764577
0.924136 0.440871 0.755308
0.959376 0.434104 0.747295
0.000000 0.665681 0.780043
0.028577 0.657704 0.771527
0.204719 0.648617 0.761423
0.404150 0.638327 0.749443
0.614045 0.627498 0.736183
0.811989 0.618001 0.723978
0.911053 0.609892 0.713111
0.952370 0.603125 0.703716
0.000000 0.828344 0.746315
0.000000 0.821698 0.736493
0.174760 0.813812 0.724840
0.374191 0.804462 0.711022
0.584087 0.794115 0.697032
0.783160 0.784590 0.687535
0.897414 0.776109 0.679425
0.945066 0.768777 0.672658
0.000000 0.908752 0.712563
0.000000 0.905219 0.701435
0.148529 0.901027 0.691919
0.347960 0.896057 0.681630
0.557855 0.890557 0.670801
0.754310 0.885493 0.661303
0.883765 0.880985 0.653194
0.937758 0.877088 0.646427
0.005934 0.000000 0.948387
0.160554 0.000000 0.946388
0.336696 0.000000 0.944017
0.536127 0.000000 0.941206
0.759041 0.000000 0.938095
0.899713 0.000000 0.935231
0.952554 0.000000 0.932681
0.974594 0.000000 0.930476
0.000000 0.075048 0.943589
0.141887 0.067071 0.941404
0.318029 0.057984 0.938813
0.517460 0.047694 0.935740
0.736641 0.036865 0.932340
0.890390 0.027368 0.929210
0.948144 0.019259 0.926423
0.972232 0.012492 0.924013
0.000000 0.193255 0.936949
0.118520 0.185278 0.934508
0.294663 0.176190 0.931612
0.494094 0.165901 0.928178
0.705645 0.155072 0.924377
0.877490 0.145574 0.920878
0.942041 0.137465 0.917763
0.968964 0.130698 0.915070
0.000000 0.332845 0.928096
0.090928 0.324868 0.925312
0.267070 0.315780 0.922009
0.466501 0.305491 0.918092
0.676396 0.294662 0.913758
0.860287 0.285165 0.909768
0.933902 0.277055 0.906215
0.964605 0.270288 0.903144
0.000000 0.493788 0.916334
0.059114 0.485810 0.913095
0.235256 0.476723 0.909252
0.434687 0.466434 0.904695
0.644583 0.455604 0.899651
0.837434 0.446107 0.895009
0.923090 0.437998 0.890875
0.958816 0.431231 0.887301
0.000000 0.662808 0.901906
0.025703 0.654831 0.898108
0.201846 0.645743 0.893602
0.401277 0.635454 0.888259
0.611172 0.624625 0.882346
0.809399 0.615128 0.876903
0.909827 0.607018 0.872056
0.951714 0.600252 0.867866
0.000000 0.825979 0.886864
0.000000 0.819241 0.882484
0.171887 0.811247 0.877287
0.371318 0.801769 0.871125
0.581213 0.791278 0.864305
0.780172 0.781622 0.858027
0.896000 0.773024 0.852437
0.944310 0.765591 0.847605
0.000000 0.907495 0.871812
0.000000 0.903913 0.866849
0.145656 0.899664 0.860960
0.345087 0.894625 0.853978
0.554982 0.889049 0.846251
0.750925 0.883916 0.839138
0.882163 0.879346 0.832805
0.936900 0.875394 0.827329
0.003531 0.000000 0.973728
0.158151 0.000000 0.972711
0.334293 0.000000 0.971504
0.533724 0.000000 0.970073
0.756268 0.000000 0.968490
0.898559 0.000000 0.967032
0.952008 0.000000 0.965734
0.974301 0.000000 0.964612
0.000000 0.072646 0.971286
0.139484 0.064668 0.970174
0.315626 0.055581 0.968855
0.515057 0.045292 0.967291
0.733610 0.034462 0.965561
0.889128 0.024965 0.963967
0.947547 0.016856 0.962549
0.971912 0.010089 0.961322
0.000000 0.190852 0.967907
0.116118 0.182875 0.966664
0.292260 0.173787 0.965190
0.491691 0.163498 0.963442
0.702258 0.152669 0.961507
0.876080 0.143172 0.959726
0.941374 0.135063 0.958141
0.968606 0.128296 0.956770
0.000000 0.330442 0.963400
0.088525 0.322465 0.961983
0.264667 0.313377 0.960302
0.464098 0.303088 0.958308
0.673993 0.292259 0.956102
0.858679 0.282762 0.954071
0.933142 0.274653 0.952263
0.964198 0.267886 0.950700
0.000000 0.491385 0.957414
0.056711 0.483408 0.955765
0.232853 0.474320 0.953809
0.432284 0.464031 0.951489
0.642180 0.453202 0.948922
0.835563 0.443704 0.946559
0.922205 0.435595 0.944455
0.958342 0.428828 0.942636
0.000000 0.660405 0.950070
0.023301 0.652428 0.948136
0.199443 0.643340 0.945843
0.398874 0.633051 0.943123
0.608769 0.622222 0.940113
0.807206 0.612725 0.937343
0.908790 0.604616 0.934876
0.951158 0.597849 0.932743
0.000000 0.823976 0.942413
0.000000 0.817161 0.940184
0.169484 0.809075 0.937538
0.368915 0.799487 0.934402
0.578811 0.788876 0.930930
0.777643 0.779109 0.927735
0.894804 0.770412 0.924890
0.943669 0.762894 0.922430
0.000000 0.906430 0.934751
0.000000 0.902808 0.932225
0.143253 0.898509 0.929228
0.342684 0.893413 0.925674
0.552579 0.887772 0.921741
0.748059 0.882580 0.918120
0.880807 0.877957 0.914896
0.936174 0.873961 0.912109
0.001561 0.000000 0.984896
0.156181 0.000000 0.984311
0.332323 0.000000 0.983617
0.531754 0.000000 0.982794
0.753971 0.000000 0.981884
0.897603 0.000000 0.981046
0.951556 0.000000 0.980299
0.974059 0.000000 0.979654
0.000000 0.070676 0.983492
0.137514 0.062699 0.982852
0.313656 0.053611 0.982094
0.513087 0.043322 0.981195
0.731100 0.032493 0.980200
0.888084 0.022996 0.979284
0.947053 0.014886 0.978468
0.971647 0.008119 0.977763
0.000000 0.188883 0.981549
0.114148 0.180905 0.980834
0.290290 0.171818 0.979987
0.489721 0.161529 0.978982
0.699617 0.150700 0.977869
0.874912 0.141202 0.976846
0.940821 0.133093 0.975934
0.968311 0.126326 0.975146
0.000000 0.328473 0.978958
0.086555 0.320496 0.978143
0.262697 0.311408 0.977176
0.462128 0.301119 0.976030
0.672024 0.290290 0.974762
0.857347 0.280792 0.973594
0.932512 0.272683 0.972555
0.963861 0.265916 0.971656
0.000000 0.489415 0.975516
0.054742 0.481438 0.974568
0.230884 0.472350 0.973443
0.430315 0.462061 0.972110
0.640210 0.451232 0.970634
0.834014 0.441735 0.969275
0.921472 0.433626 0.968065
0.957949 0.426859 0.967020
0.000000 0.658436 0.971294
0.021331 0.650459 0.970182
0.197473 0.641371 0.968863
0.396904 0.631082 0.967300
0.606800 0.620253 0.965569
0.805389 0.610755 0.963976
0.907930 0.602646 0.962558
0.950698 0.595879 0.961332
0.000000 0.822318 0.966892
0.000000 0.815438 0.965610
0.167515 0.807276 0.964089
0.366945 0.797598 0.962286
0.576841 0.786887 0.960290
0.775547 0.777028 0.958453
0.893812 0.768249 0.956817
0.943138 0.760660 0.955403
0.000000 0.905549 0.962487
0.000000 0.901892 0.961034
0.141283 0.897553 0.959311
0.340714 0.892408 0.957268
0.550610 0.886715 0.955006
0.745685 0.881474 0.952925
0.879684 0.876807 0.951071
0.935572 0.872773 0.949469
