assets/luts/cyber.cube
# Beauty Camera 3D LUT
# Filter: Cyber (cyber)
# Category: Cool
TITLE "Cyber"
LUT_3D_SIZE 32
DOMAIN_MIN 0.0 0.0 0.0
DOMAIN_MAX 1.0 1.0 1.0
0.022665 0.000000 0.082154
0.059740 0.000000 0.080241
0.097666 0.000000 0.078284
0.136805 0.000000 0.076265
0.177285 0.000000 0.074177
0.219162 0.000000 0.072016
0.262469 0.000000 0.069782
0.307220 0.000000 0.067473
0.353427 0.000000 0.065089
0.401093 0.000000 0.062630
0.450220 0.000000 0.060095
0.500809 0.000000 0.057485
0.552858 0.000000 0.054800
0.606365 0.000000 0.052039
0.660253 0.000000 0.049259
0.717193 0.000000 0.046569
0.777493 0.000000 0.043971
0.823466 0.000000 0.041463
0.858779 0.000000 0.039045
0.886102 0.000000 0.036715
0.907393 0.000000 0.034473
0.924099 0.000000 0.032318
0.937296 0.000000 0.030248
0.947790 0.000000 0.028264
0.956188 0.000000 0.026364
0.962949 0.000000 0.024548
0.968425 0.000000 0.022815
0.972886 0.000000 0.021165
0.976539 0.000000 0.019597
0.979547 0.000000 0.018111
0.982035 0.000000 0.016706
0.984102 0.000000 0.015381
0.018591 0.017951 0.078081
0.055667 0.016038 0.076168
0.093592 0.014081 0.074211
0.132732 0.012062 0.072192
0.173211 0.009974 0.070103
0.215089 0.007813 0.067943
0.258395 0.005579 0.065708
0.303147 0.003270 0.063400
0.349354 0.000886 0.061016
0.397020 0.000000 0.058556
0.446147 0.000000 0.056022
0.496736 0.000000 0.053412
0.548785 0.000000 0.050726
0.602292 0.000000 0.047966
0.656180 0.000000 0.045186
0.711654 0.000000 0.042496
0.773135 0.000000 0.039897
0.820009 0.000000 0.037390
0.856013 0.000000 0.034972
0.883871 0.000000 0.032642
0.905579 0.000000 0.030400
0.922613 0.000000 0.028245
0.936068 0.000000 0.026175
0.946768 0.000000 0.024191
0.955330 0.000000 0.022291
0.962223 0.000000 0.020475
0.967807 0.000000 0.018742
0.972355 0.000000 0.017092
0.976080 0.000000 0.015524
0.979146 0.000000 0.014037
0.981683 0.000000 0.012632
0.983790 0.000000 0.011308
0.014037 0.040993 0.073526
0.051112 0.039081 0.071613
0.089038 0.037124 0.069656
0.128177 0.035105 0.067637
0.168657 0.033016 0.065548
0.210534 0.030856 0.063388
0.253840 0.028621 0.061154
0.298592 0.026312 0.058845
0.344799 0.023929 0.056461
0.392465 0.021469 0.054002
0.441592 0.018935 0.051467
0.492181 0.016325 0.048857
0.544230 0.013639 0.046172
0.597737 0.010879 0.043411
0.651625 0.008099 0.040631
0.705331 0.005408 0.037941
0.768161 0.002810 0.035343
0.816062 0.000303 0.032835
0.852856 0.000000 0.030417
0.881325 0.000000 0.028087
0.903509 0.000000 0.025845
0.920916 0.000000 0.023690
0.934667 0.000000 0.021620
0.945601 0.000000 0.019636
0.954350 0.000000 0.017736
0.961395 0.000000 0.015920
0.967101 0.000000 0.014187
0.971749 0.000000 0.012537
0.975555 0.000000 0.010969
0.978689 0.000000 0.009483
0.981281 0.000000 0.008077
0.983435 0.000000 0.006753
0.009162 0.065655 0.068651
0.046237 0.063743 0.066738
0.084163 0.061786 0.064781
0.123302 0.059767 0.062762
0.163782 0.057678 0.060673
0.205659 0.055518 0.058513
0.248965 0.053283 0.056279
0.293717 0.050974 0.053970
0.339924 0.048591 0.051586
0.387590 0.046131 0.049127
0.436717 0.043597 0.046592
0.487306 0.040987 0.043982
0.539355 0.038301 0.041297
0.592862 0.035541 0.038536
0.646750 0.032761 0.035756
0.698891 0.030070 0.033066
0.762716 0.027472 0.030468
0.811742 0.024965 0.027960
0.849400 0.022547 0.025542
0.878537 0.020217 0.023212
0.901242 0.017975 0.020970
0.919058 0.015819 0.018815
0.933132 0.013750 0.016745
0.944323 0.011766 0.014761
0.953278 0.009866 0.012861
0.960488 0.008050 0.011045
0.966328 0.006317 0.009312
0.971085 0.004667 0.007662
0.974981 0.003099 0.006094
0.978188 0.001612 0.004608
0.980841 0.000207 0.003202
0.983046 0.000000 0.001878
0.003998 0.091780 0.063487
0.041073 0.089867 0.061574
0.078999 0.087910 0.059617
0.118138 0.085891 0.057598
0.158618 0.083802 0.055510
0.200495 0.081642 0.053349
0.243801 0.079407 0.051115
0.288553 0.077099 0.048806
0.334760 0.074715 0.046422
0.382426 0.072255 0.043963
0.431553 0.069721 0.041428
0.482142 0.067111 0.038818
0.534191 0.064425 0.036133
0.587698 0.061665 0.033372
0.641586 0.058885 0.030592
0.693727 0.056195 0.027902
0.756809 0.053596 0.025304
0.807056 0.051089 0.022796
0.845651 0.048671 0.020378
0.875514 0.046341 0.018048
0.898784 0.044099 0.015806
0.917043 0.041944 0.013651
0.931468 0.039874 0.011581
0.942937 0.037890 0.009597
0.952115 0.035990 0.007697
0.959505 0.034174 0.005881
0.965490 0.032441 0.004148
0.970365 0.030791 0.002498
0.974358 0.029223 0.000930
0.977645 0.027737 0.000000
0.980364 0.026331 0.000000
0.982624 0.025007 0.000000
0.000000 0.119301 0.058047
0.035633 0.117388 0.056134
0.073559 0.115431 0.054177
0.112698 0.113412 0.052158
0.153178 0.111323 0.050069
0.195055 0.109163 0.047909
0.238361 0.106928 0.045675
0.283113 0.104620 0.043366
0.329320 0.102236 0.040982
0.376986 0.099776 0.038523
0.426113 0.097242 0.035988
0.476702 0.094632 0.033378
0.528751 0.091946 0.030693
0.582258 0.089186 0.027932
0.636146 0.086406 0.025152
0.688286 0.083716 0.022462
0.750427 0.081117 0.019863
0.801992 0.078610 0.017356
0.841600 0.076192 0.014938
0.872247 0.073862 0.012608
0.896128 0.071620 0.010366
0.914866 0.069465 0.008211
0.929669 0.067395 0.006141
0.941439 0.065411 0.004157
0.950858 0.063511 0.002257
0.958442 0.061695 0.000441
0.964584 0.059962 0.000000
0.969588 0.058312 0.000000
0.973685 0.056744 0.000000
0.977059 0.055257 0.000000
0.979849 0.053852 0.000000
0.982168 0.052528 0.000000
0.000000 0.148186 0.052337
0.029923 0.146273 0.050424
0.067849 0.144316 0.048467
0.106988 0.142297 0.046448
0.147468 0.140208 0.044360
0.189345 0.138048 0.042199
0.232652 0.135813 0.039965
0.277404 0.133505 0.037656
0.323610 0.131121 0.035272
0.371276 0.128661 0.032813
0.420403 0.126127 0.030278
0.470992 0.123517 0.027668
0.523041 0.120831 0.024983
0.576548 0.118071 0.022222
0.630436 0.115291 0.019442
0.682577 0.112601 0.016752
0.743548 0.110002 0.014154
0.796535 0.107495 0.011646
0.837234 0.105077 0.009228
0.868725 0.102747 0.006898
0.893265 0.100505 0.004656
0.912520 0.098350 0.002501
0.927730 0.096280 0.000431
0.939825 0.094296 0.000000
0.949504 0.092396 0.000000
0.957297 0.090580 0.000000
0.963608 0.088847 0.000000
0.968749 0.087197 0.000000
0.972960 0.085629 0.000000
0.976426 0.084142 0.000000
0.979294 0.082737 0.000000
0.981676 0.081413 0.000000
0.000000 0.178417 0.046361
0.023947 0.176504 0.044448
0.061873 0.174548 0.042492
0.101013 0.172528 0.040472
0.141492 0.170440 0.038384
0.183369 0.168279 0.036223
0.226676 0.166045 0.033989
0.271428 0.163736 0.031680
0.317634 0.161352 0.029296
0.365300 0.158893 0.026837
0.414427 0.156359 0.024302
0.465016 0.153749 0.021692
0.517065 0.151063 0.019007
0.570572 0.148303 0.016246
0.624460 0.145522 0.013466
0.676601 0.142832 0.010776
0.736145 0.140234 0.008178
0.790661 0.137726 0.005670
0.832536 0.135308 0.003252
0.864936 0.132979 0.000923
0.890184 0.130737 0.000000
0.909995 0.128581 0.000000
0.925644 0.126512 0.000000
0.938088 0.124527 0.000000
0.948046 0.122628 0.000000
0.956064 0.120812 0.000000
0.962558 0.119079 0.000000
0.967847 0.117429 0.000000
0.972179 0.115861 0.000000
0.975746 0.114374 0.000000
0.978696 0.112969 0.000000
0.981148 0.111645 0.000000
0.000000 0.209986 0.040121
0.017707 0.208073 0.038208
0.055633 0.206117 0.036251
0.094772 0.204097 0.034232
0.135252 0.202009 0.032143
0.177129 0.199848 0.029983
0.220435 0.197614 0.027749
0.265187 0.195305 0.025440
0.311394 0.192921 0.023056
0.359060 0.190462 0.020597
0.408187 0.187927 0.018062
0.458776 0.185317 0.015452
0.510825 0.182632 0.012767
0.564332 0.179872 0.010006
0.618220 0.177091 0.007226
0.670360 0.174401 0.004536
0.728187 0.171803 0.001938
0.784347 0.169295 0.000000
0.827485 0.166877 0.000000
0.860862 0.164548 0.000000
0.886871 0.162306 0.000000
0.907280 0.160150 0.000000
0.923402 0.158081 0.000000
0.936221 0.156096 0.000000
0.946479 0.154197 0.000000
0.954739 0.152380 0.000000
0.961428 0.150648 0.000000
0.966877 0.148998 0.000000
0.971340 0.147430 0.000000
0.975014 0.145943 0.000000
0.978054 0.144538 0.000000
0.980579 0.143213 0.000000
0.000000 0.242888 0.033617
0.011203 0.240975 0.031704
0.049129 0.239018 0.029748
0.088269 0.236999 0.027728
0.128748 0.234910 0.025640
0.170626 0.232750 0.023479
0.213932 0.230515 0.021245
0.258684 0.228207 0.018936
0.304890 0.225823 0.016552
0.352556 0.223363 0.014093
0.401684 0.220829 0.011558
0.452272 0.218219 0.008948
0.504321 0.215534 0.006263
0.557828 0.212773 0.003502
0.611717 0.209993 0.000722
0.663857 0.207303 0.000000
0.719637 0.204704 0.000000
0.777564 0.202197 0.000000
0.822059 0.199779 0.000000
0.856486 0.197449 0.000000
0.883313 0.195207 0.000000
0.904363 0.193052 0.000000
0.920992 0.190982 0.000000
0.934215 0.188998 0.000000
0.944796 0.187098 0.000000
0.953315 0.185282 0.000000
0.960215 0.183549 0.000000
0.965836 0.181899 0.000000
0.970439 0.180331 0.000000
0.974228 0.178845 0.000000
0.977363 0.177439 0.000000
0.979968 0.176115 0.000000
0.000000 0.277120 0.026850
0.004437 0.275207 0.024938
0.042362 0.273250 0.022981
0.081502 0.271231 0.020962
0.121981 0.269142 0.018873
0.163859 0.266982 0.016713
0.207165 0.264747 0.014478
0.251917 0.262439 0.012169
0.298124 0.260055 0.009786
0.345790 0.257595 0.007326
0.394917 0.255061 0.004792
0.445506 0.252451 0.002182
0.497554 0.249765 0.000000
0.551062 0.247005 0.000000
0.604950 0.244225 0.000000
0.657090 0.241535 0.000000
0.710456 0.238936 0.000000
0.770280 0.236429 0.000000
0.816232 0.234011 0.000000
0.851786 0.231681 0.000000
0.879492 0.229439 0.000000
0.901232 0.227284 0.000000
0.918405 0.225214 0.000000
0.932061 0.223230 0.000000
0.942988 0.221330 0.000000
0.951786 0.219514 0.000000
0.958912 0.217781 0.000000
0.964717 0.216131 0.000000
0.969471 0.214563 0.000000
0.973384 0.213077 0.000000
0.976622 0.211671 0.000000
0.979312 0.210347 0.000000
0.000000 0.312682 0.019821
0.000000 0.310769 0.017908
0.035333 0.308813 0.015951
0.074472 0.306793 0.013932
0.114952 0.304705 0.011844
0.156829 0.302544 0.009683
0.200135 0.300310 0.007449
0.244887 0.298001 0.005140
0.291094 0.295617 0.002756
0.338760 0.293158 0.000297
0.387887 0.290623 0.000000
0.438476 0.288013 0.000000
0.490525 0.285328 0.000000
0.544032 0.282567 0.000000
0.597920 0.279787 0.000000
0.650061 0.277097 0.000000
0.700600 0.274499 0.000000
0.762460 0.271991 0.000000
0.809976 0.269573 0.000000
0.846741 0.267244 0.000000
0.875390 0.265001 0.000000
0.897869 0.262846 0.000000
0.915628 0.260777 0.000000
0.929748 0.258792 0.000000
0.941047 0.256892 0.000000
0.950145 0.255076 0.000000
0.957514 0.253343 0.000000
0.963516 0.251693 0.000000
0.968432 0.250125 0.000000
0.972478 0.248639 0.000000
0.975826 0.247234 0.000000
0.978608 0.245909 0.000000
0.000000 0.349576 0.012528
0.000000 0.347663 0.010615
0.028040 0.345707 0.008658
0.067179 0.343687 0.006639
0.107659 0.341599 0.004551
0.149536 0.339438 0.002390
0.192843 0.337204 0.000156
0.237594 0.334895 0.000000
0.283801 0.332511 0.000000
0.331467 0.330052 0.000000
0.380594 0.327518 0.000000
0.431183 0.324908 0.000000
0.483232 0.322222 0.000000
0.536739 0.319462 0.000000
0.590627 0.316681 0.000000
0.642768 0.313991 0.000000
0.693127 0.311393 0.000000
0.754066 0.308885 0.000000
0.803261 0.306467 0.000000
0.841325 0.304138 0.000000
0.870986 0.301896 0.000000
0.894260 0.299740 0.000000
0.912646 0.297671 0.000000
0.927265 0.295686 0.000000
0.938964 0.293787 0.000000
0.948383 0.291971 0.000000
0.956012 0.290238 0.000000
0.962226 0.288588 0.000000
0.967316 0.287020 0.000000
0.971506 0.285533 0.000000
0.974972 0.284128 0.000000
0.977852 0.282804 0.000000
0.000000 0.387804 0.004971
0.000000 0.385891 0.003058
0.020483 0.383935 0.001102
0.059623 0.381915 0.000000
0.100102 0.379827 0.000000
0.141980 0.377666 0.000000
0.185286 0.375432 0.000000
0.230038 0.373123 0.000000
0.276244 0.370739 0.000000
0.323910 0.368280 0.000000
0.373038 0.365746 0.000000
0.423626 0.363136 0.000000
0.475675 0.360450 0.000000
0.529183 0.357690 0.000000
0.583071 0.354909 0.000000
0.635211 0.352219 0.000000
0.685571 0.349621 0.000000
0.745055 0.347113 0.000000
0.796053 0.344695 0.000000
0.835511 0.342366 0.000000
0.866259 0.340124 0.000000
0.890386 0.337968 0.000000
0.909445 0.335899 0.000000
0.924600 0.333914 0.000000
0.936728 0.332015 0.000000
0.946492 0.330199 0.000000
0.954401 0.328466 0.000000
0.960843 0.326816 0.000000
0.966119 0.325248 0.000000
0.970462 0.323761 0.000000
0.974055 0.322356 0.000000
0.977040 0.321032 0.000000
0.000000 0.427369 0.000000
0.000000 0.425456 0.000000
0.012662 0.423499 0.000000
0.051802 0.421480 0.000000
0.092281 0.419391 0.000000
0.134159 0.417231 0.000000
0.177465 0.414997 0.000000
0.222217 0.412688 0.000000
0.268424 0.410304 0.000000
0.316090 0.407845 0.000000
0.365217 0.405310 0.000000
0.415806 0.402700 0.000000
0.467855 0.400015 0.000000
0.521362 0.397254 0.000000
0.575250 0.394474 0.000000
0.627390 0.391784 0.000000
0.677750 0.389185 0.000000
0.735382 0.386678 0.000000
0.788314 0.384260 0.000000
0.829270 0.381930 0.000000
0.861185 0.379688 0.000000
0.886227 0.377533 0.000000
0.906009 0.375463 0.000000
0.921739 0.373479 0.000000
0.934327 0.371579 0.000000
0.944462 0.369763 0.000000
0.952670 0.368030 0.000000
0.959357 0.366380 0.000000
0.964833 0.364812 0.000000
0.969341 0.363326 0.000000
0.973070 0.361920 0.000000
0.976169 0.360596 0.000000
0.000000 0.468272 0.000000
0.000000 0.466360 0.000000
0.004577 0.464403 0.000000
0.043717 0.462384 0.000000
0.084196 0.460295 0.000000
0.126073 0.458135 0.000000
0.169380 0.455900 0.000000
0.214132 0.453591 0.000000
0.260338 0.451207 0.000000
0.308004 0.448748 0.000000
0.357131 0.446214 0.000000
0.407720 0.443604 0.000000
0.459769 0.440918 0.000000
0.513276 0.438158 0.000000
0.567165 0.435377 0.000000
0.619305 0.432687 0.000000
0.669665 0.430089 0.000000
0.724995 0.427582 0.000000
0.780005 0.425164 0.000000
0.822568 0.422834 0.000000
0.855736 0.420592 0.000000
0.881761 0.418436 0.000000
0.902320 0.416367 0.000000
0.918667 0.414383 0.000000
0.931749 0.412483 0.000000
0.942282 0.410667 0.000000
0.950812 0.408934 0.000000
0.957761 0.407284 0.000000
0.963453 0.405716 0.000000
0.968138 0.404229 0.000000
0.972013 0.402824 0.000000
0.975234 0.401500 0.000000
0.000000 0.510519 0.000000
0.000000 0.508606 0.000000
0.000000 0.506649 0.000000
0.035366 0.504630 0.000000
0.075845 0.502542 0.000000
0.117723 0.500381 0.000000
0.161029 0.498147 0.000000
0.205781 0.495838 0.000000
0.251987 0.493454 0.000000
0.299653 0.490995 0.000000
0.348781 0.488460 0.000000
0.399369 0.485850 0.000000
0.451418 0.483165 0.000000
0.504926 0.480404 0.000000
0.558814 0.477624 0.000000
0.610954 0.474934 0.000000
0.661314 0.472336 0.000000
0.713838 0.469828 0.000000
0.771080 0.467410 0.000000
0.815370 0.465080 0.000000
0.849883 0.462838 0.000000
0.876964 0.460683 0.000000
0.898357 0.458613 0.000000
0.915368 0.456629 0.000000
0.928980 0.454729 0.000000
0.939940 0.452913 0.000000
0.948817 0.451180 0.000000
0.956048 0.449530 0.000000
0.961970 0.447962 0.000000
0.966845 0.446476 0.000000
0.970878 0.445071 0.000000
0.974229 0.443746 0.000000
0.000000 0.553988 0.000000
0.000000 0.552075 0.000000
0.000000 0.550119 0.000000
0.026773 0.548099 0.000000
0.067252 0.546011 0.000000
0.109130 0.543850 0.000000
0.152436 0.541616 0.000000
0.197188 0.539307 0.000000
0.243395 0.536923 0.000000
0.291061 0.534464 0.000000
0.340188 0.531929 0.000000
0.390777 0.529319 0.000000
0.442826 0.526634 0.000000
0.496333 0.523873 0.000000
0.550221 0.521093 0.000000
0.602361 0.518403 0.000000
0.652721 0.515805 0.000000
0.701886 0.513297 0.000000
0.761519 0.510879 0.000000
0.807659 0.508550 0.000000
0.843614 0.506308 0.000000
0.871826 0.504152 0.000000
0.894112 0.502083 0.000000
0.911833 0.500098 0.000000
0.926014 0.498198 0.000000
0.937432 0.496382 0.000000
0.946679 0.494650 0.000000
0.954212 0.492999 0.000000
0.960382 0.491431 0.000000
0.965460 0.489945 0.000000
0.969662 0.488540 0.000000
0.973153 0.487215 0.000000
0.000000 0.596940 0.000000
0.000000 0.595027 0.000000
0.000000 0.593070 0.000000
0.018283 0.591051 0.000000
0.058762 0.588963 0.000000
0.100640 0.586802 0.000000
0.143946 0.584568 0.000000
0.188698 0.582259 0.000000
0.234904 0.579875 0.000000
0.282570 0.577416 0.000000
0.331698 0.574881 0.000000
0.382286 0.572271 0.000000
0.434335 0.569586 0.000000
0.487843 0.566825 0.000000
0.541731 0.564045 0.000000
0.593871 0.561355 0.000000
0.644231 0.558757 0.000000
0.692834 0.556249 0.000000
0.751680 0.553831 0.000000
0.799723 0.551501 0.000000
0.837161 0.549259 0.000000
0.866537 0.547104 0.000000
0.889743 0.545034 0.000000
0.908196 0.543050 0.000000
0.922962 0.541150 0.000000
0.934850 0.539334 0.000000
0.944479 0.537601 0.000000
0.952323 0.535951 0.000000
0.958747 0.534383 0.000000
0.964035 0.532897 0.000000
0.968410 0.531492 0.000000
0.972045 0.530167 0.000000
0.000000 0.638796 0.000000
0.000000 0.636883 0.000000
0.000000 0.634926 0.000000
0.010009 0.632907 0.000000
0.050488 0.630819 0.000000
0.092366 0.628658 0.000000
0.135672 0.626424 0.000000
0.180424 0.624115 0.000000
0.226631 0.621731 0.000000
0.274297 0.619272 0.000000
0.323424 0.616737 0.000000
0.374013 0.614127 0.000000
0.426062 0.611442 0.000000
0.479569 0.608681 0.000000
0.533457 0.605901 0.000000
0.585597 0.603211 0.000000
0.635957 0.600613 0.000000
0.684561 0.598105 0.000000
0.741701 0.595687 0.000000
0.791675 0.593357 0.000000
0.830618 0.591115 0.000000
0.861174 0.588960 0.000000
0.885313 0.586890 0.000000
0.904507 0.584906 0.000000
0.919866 0.583006 0.000000
0.932232 0.581190 0.000000
0.942248 0.579457 0.000000
0.950407 0.577807 0.000000
0.957089 0.576239 0.000000
0.962590 0.574753 0.000000
0.967141 0.573348 0.000000
0.970922 0.572023 0.000000
0.000000 0.679539 0.000000
0.000000 0.677627 0.000000
0.000000 0.675670 0.000000
0.001955 0.673651 0.000000
0.042435 0.671562 0.000000
0.084312 0.669402 0.000000
0.127618 0.667167 0.000000
0.172370 0.664858 0.000000
0.218577 0.662474 0.000000
0.266243 0.660015 0.000000
0.315370 0.657481 0.000000
0.365959 0.654871 0.000000
0.418008 0.652185 0.000000
0.471515 0.649425 0.000000
0.525403 0.646644 0.000000
0.577543 0.643954 0.000000
0.627903 0.641356 0.000000
0.676507 0.638849 0.000000
0.731602 0.636430 0.000000
0.783530 0.634101 0.000000
0.823995 0.631859 0.000000
0.855747 0.629703 0.000000
0.880829 0.627634 0.000000
0.900773 0.625650 0.000000
0.916733 0.623750 0.000000
0.929583 0.621934 0.000000
0.939990 0.620201 0.000000
0.948468 0.618551 0.000000
0.955411 0.616983 0.000000
0.961127 0.615496 0.000000
0.965856 0.614091 0.000000
0.969785 0.612767 0.000000
0.000000 0.726154 0.000000
0.000000 0.723648 0.000000
0.000000 0.721061 0.000000
0.000000 0.718366 0.000000
0.034604 0.715551 0.000000
0.076481 0.712609 0.000000
0.119788 0.709535 0.000000
0.164539 0.706324 0.000000
0.210746 0.702971 0.000000
0.258412 0.699631 0.000000
0.307539 0.697096 0.000000
0.358128 0.694486 0.000000
0.410177 0.691801 0.000000
0.463684 0.689040 0.000000
0.517572 0.686260 0.000000
0.569713 0.683570 0.000000
0.620072 0.680972 0.000000
0.668676 0.678464 0.000000
0.721405 0.676046 0.000000
0.775306 0.673717 0.000000
0.817308 0.671475 0.000000
0.850266 0.669319 0.000000
0.876301 0.667250 0.000000
0.897003 0.665265 0.000000
0.913569 0.663365 0.000000
0.926907 0.661549 0.000000
0.937710 0.659817 0.000000
0.946510 0.658166 0.000000
0.953717 0.656598 0.000000
0.959651 0.655112 0.000000
0.964559 0.653707 0.000000
0.968637 0.652382 0.000000
0.000000 0.771997 0.000000
0.000000 0.769911 0.000000
0.000000 0.767757 0.000000
0.000000 0.765513 0.000000
0.026999 0.763169 0.000000
0.068876 0.760720 0.000000
0.112182 0.758161 0.000000
0.156934 0.755487 0.000000
0.203141 0.752695 0.000000
0.250807 0.749782 0.000000
0.299934 0.746744 0.000000
0.350523 0.743577 0.000000
0.402572 0.740277 0.000000
0.456079 0.736840 0.000000
0.509967 0.733333 0.000000
0.562107 0.729895 0.000000
0.612467 0.726532 0.000000
0.661071 0.723247 0.000000
0.711131 0.720042 0.000000
0.767019 0.716919 0.000000
0.810571 0.713881 0.000000
0.844744 0.710929 0.000000
0.871739 0.708066 0.000000
0.893205 0.705294 0.000000
0.910382 0.702616 0.000000
0.924212 0.700033 0.000000
0.935413 0.698290 0.000000
0.944538 0.696640 0.000000
0.952011 0.695072 0.000000
0.958162 0.693586 0.000000
0.963252 0.692181 0.000000
0.967480 0.690856 0.000000
0.000000 0.809119 0.000000
0.000000 0.807372 0.000000
0.000000 0.805569 0.000000
0.000000 0.803690 0.000000
0.019622 0.801728 0.000000
0.061499 0.799678 0.000000
0.104806 0.797535 0.000000
0.149557 0.795297 0.000000
0.195764 0.792960 0.000000
0.243430 0.790521 0.000000
0.292557 0.787977 0.000000
0.343146 0.785326 0.000000
0.395195 0.782563 0.000000
0.448702 0.779686 0.000000
0.502590 0.776750 0.000000
0.554731 0.773871 0.000000
0.605091 0.771056 0.000000
0.653694 0.768306 0.000000
0.700803 0.765623 0.000000
0.758690 0.763008 0.000000
0.803798 0.760464 0.000000
0.839193 0.757993 0.000000
0.867154 0.755596 0.000000
0.889387 0.753276 0.000000
0.907178 0.751034 0.000000
0.921502 0.748872 0.000000
0.933104 0.746791 0.000000
0.942555 0.744793 0.000000
0.950295 0.742881 0.000000
0.956667 0.741054 0.000000
0.961938 0.739316 0.000000
0.966318 0.737666 0.000000
0.000000 0.839306 0.000000
0.000000 0.837835 0.000000
0.000000 0.836317 0.000000
0.000000 0.834736 0.000000
0.012476 0.833084 0.000000
0.054353 0.831358 0.000000
0.097660 0.829554 0.000000
0.142411 0.827669 0.000000
0.188618 0.825702 0.000000
0.236284 0.823649 0.000000
0.285411 0.821508 0.000000
0.336000 0.819275 0.000000
0.388049 0.816949 0.000000
0.441556 0.814527 0.000000
0.495444 0.812055 0.000000
0.547585 0.809632 0.000000
0.597945 0.807262 0.000000
0.646548 0.804947 0.000000
0.693417 0.802688 0.000000
0.750337 0.800487 0.000000
0.797007 0.798346 0.000000
0.833627 0.796265 0.000000
0.862555 0.794248 0.000000
0.885558 0.792294 0.000000
0.903965 0.790406 0.000000
0.918785 0.788586 0.000000
0.930789 0.786834 0.000000
0.940566 0.785153 0.000000
0.948574 0.783543 0.000000
0.955167 0.782005 0.000000
0.960620 0.780542 0.000000
0.965152 0.779153 0.000000
0.000000 0.863957 0.000000
0.000000 0.862712 0.000000
0.000000 0.861427 0.000000
0.000000 0.860088 0.000000
0.005563 0.858689 0.000000
0.047440 0.857228 0.000000
0.090747 0.855701 0.000000
0.135499 0.854106 0.000000
0.181705 0.852440 0.000000
0.229371 0.850702 0.000000
0.278498 0.848889 0.000000
0.329087 0.846999 0.000000
0.381136 0.845030 0.000000
0.434643 0.842979 0.000000
0.488532 0.840887 0.000000
0.540672 0.838835 0.000000
0.591032 0.836829 0.000000
0.639635 0.834869 0.000000
0.686504 0.832956 0.000000
0.741982 0.831093 0.000000
0.790214 0.829280 0.000000
0.828059 0.827519 0.000000
0.857956 0.825811 0.000000
0.881728 0.824157 0.000000
0.900751 0.822559 0.000000
0.916067 0.821018 0.000000
0.928472 0.819535 0.000000
0.938577 0.818111 0.000000
0.946853 0.816748 0.000000
0.953666 0.815446 0.000000
0.959302 0.814207 0.000000
0.963985 0.813032 0.000000
0.000000 0.884171 0.000000
0.000000 0.883111 0.000000
0.000000 0.882017 0.000000
0.000000 0.880877 0.000000
0.000000 0.879687 0.000000
0.040763 0.878442 0.000000
0.084069 0.877142 0.000000
0.128821 0.875784 0.000000
0.175028 0.874366 0.000000
0.222694 0.872886 0.000000
0.271821 0.871342 0.000000
0.322410 0.869733 0.000000
0.374459 0.868057 0.000000
0.427966 0.866311 0.000000
0.481854 0.864529 0.000000
0.533994 0.862783 0.000000
0.584354 0.861075 0.000000
0.632958 0.859406 0.000000
0.679827 0.857777 0.000000
0.733646 0.856191 0.000000
0.783436 0.854647 0.000000
0.822504 0.853148 0.000000
0.853366 0.851693 0.000000
0.877907 0.850285 0.000000
0.897544 0.848925 0.000000
0.913355 0.847613 0.000000
0.926162 0.846350 0.000000
0.936593 0.845138 0.000000
0.945136 0.843977 0.000000
0.952169 0.842869 0.000000
0.957987 0.841814 0.000000
0.962822 0.840813 0.000000
0.000000 0.900817 0.000000
0.000000 0.899909 0.000000
0.000000 0.898972 0.000000
0.000000 0.897996 0.000000
0.000000 0.896977 0.000000
0.034323 0.895911 0.000000
0.077629 0.894798 0.000000
0.122381 0.893635 0.000000
0.168588 0.892420 0.000000
0.216254 0.891153 0.000000
0.265381 0.889831 0.000000
0.315970 0.888454 0.000000
0.368018 0.887018 0.000000
0.421526 0.885523 0.000000
0.475414 0.883997 0.000000
0.527554 0.882502 0.000000
0.577914 0.881039 0.000000
0.626518 0.879610 0.000000
0.673386 0.878216 0.000000
