assets/luts/cyber.cube
# Beauty Camera 3D LUT
# Filter: Cyber (cyber)
# Category: Cool
TITLE "Cyber"
LUT_3D_SIZE 5
DOMAIN_MIN 0.000000 0.000000 0.000000
DOMAIN_MAX 0.903226 0.903226 0.903226
0.022665 0.000000 0.082154
0.307220 0.000000 0.067473
0.660253 0.000000 0.049259
0.924099 0.000000 0.032318
0.976539 0.000000 0.019597
0.000000 0.178417 0.046361
0.271428 0.163736 0.031680
0.624460 0.145522 0.013466
0.909995 0.128581 0.000000
0.972179 0.115861 0.000000
0.000000 0.427369 0.000000
0.222217 0.412688 0.000000
0.575250 0.394474 0.000000
0.886227 0.377533 0.000000
0.964833 0.364812 0.000000
0.000000 0.726154 0.000000
0.164539 0.706324 0.000000
0.517572 0.686260 0.000000
0.850266 0.669319 0.000000
0.953717 0.656598 0.000000
0.000000 0.914579 0.000000
0.116180 0.908394 0.000000
0.469213 0.900094 0.000000
0.811491 0.891700 0.000000
0.941732 0.884937 0.000000
0.016847 0.000000 0.425484
0.301403 0.000000 0.410803
0.654436 0.000000 0.392589
0.921967 0.000000 0.375648
0.975880 0.000000 0.362927
0.000000 0.172600 0.389691
0.265610 0.157919 0.375010
0.618643 0.139705 0.356796
0.907466 0.122764 0.339855
0.971398 0.110043 0.327134
0.000000 0.421551 0.340480
0.216400 0.406870 0.325799
0.569433 0.388656 0.307585
0.883031 0.371715 0.290644
0.963845 0.358995 0.277924
0.000000 0.718462 0.282803
0.158722 0.698657 0.268122
0.511755 0.680443 0.249908
0.846060 0.663502 0.232967
0.952417 0.650781 0.220246
0.000000 0.912180 0.234443
0.110363 0.905820 0.219762
0.463396 0.897287 0.201548
0.806196 0.888658 0.184607
0.940096 0.881705 0.171887
0.010435 0.000000 0.817096
0.294991 0.000000 0.803852
0.648024 0.000000 0.786080
0.919548 0.000000 0.768107
0.975132 0.000000 0.753626
0.000000 0.166188 0.783107
0.259198 0.151507 0.767402
0.612231 0.133293 0.746327
0.904597 0.116352 0.725015
0.970511 0.103631 0.707843
0.000000 0.415139 0.725833
0.209988 0.400458 0.705980
0.563021 0.382244 0.686014
0.879405 0.365303 0.669073
0.962724 0.352583 0.656353
0.000000 0.709733 0.661232
0.152310 0.692245 0.646551
0.505343 0.674031 0.628337
0.841287 0.657090 0.611396
0.950942 0.644369 0.598675
0.000000 0.909457 0.612872
0.103951 0.902900 0.598191
0.456984 0.894103 0.579978
0.800188 0.885206 0.563036
0.938238 0.878037 0.550316
0.005290 0.000000 0.956921
0.289846 0.000000 0.953802
0.642879 0.000000 0.949616
0.917552 0.000000 0.945383
0.974516 0.000000 0.941973
0.000000 0.161043 0.948916
0.254053 0.146362 0.945217
0.607086 0.128148 0.940253
0.902231 0.111207 0.935234
0.969780 0.098486 0.931189
0.000000 0.409994 0.935427
0.204843 0.395313 0.930751
0.557876 0.377099 0.924476
0.876414 0.360158 0.918131
0.961800 0.347438 0.913019
0.000000 0.702533 0.915016
0.147165 0.687100 0.908863
0.500198 0.668886 0.900605
0.837351 0.651945 0.892254
0.949725 0.639224 0.885526
0.000000 0.907211 0.893009
0.098806 0.900492 0.885262
0.451839 0.891476 0.874866
0.795232 0.882359 0.864353
0.936706 0.875012 0.855882
0.001561 0.000000 0.984896
0.286117 0.000000 0.983802
0.639150 0.000000 0.982334
0.916075 0.000000 0.980850
0.974059 0.000000 0.979654
0.000000 0.157314 0.982089
0.250324 0.142633 0.980792
0.603357 0.124419 0.979052
0.900480 0.107478 0.977292
0.969238 0.094757 0.975873
0.000000 0.406265 0.977359
0.201114 0.391584 0.975720
0.554147 0.373370 0.973520
0.874199 0.356429 0.971295
0.961115 0.343708 0.969502
0.000000 0.698052 0.970203
0.143436 0.683371 0.968045
0.496469 0.665157 0.965150
0.834437 0.648216 0.962222
0.948825 0.635495 0.959863
0.000000 0.905549 0.962487
0.095077 0.898709 0.959770
0.448110 0.889532 0.956125
0.791563 0.880251 0.952439
0.935572 0.872773 0.949469
