assets/luts/dewy.cube
# Beauty Camera 3D LUT
# Filter: Dewy (dewy)
# Category: Natural
TITLE "Dewy"
LUT_3D_SIZE 32
DOMAIN_MIN 0.0 0.0 0.0
DOMAIN_MAX 1.0 1.0 1.0
0.013881 0.012656 0.005195
0.053355 0.012175 0.004714
0.090793 0.011719 0.004258
0.127602 0.011270 0.003809
0.164208 0.010825 0.003364
0.200819 0.010379 0.002918
0.237552 0.009931 0.002470
0.274481 0.009481 0.002020
0.311659 0.009029 0.001568
0.349121 0.008572 0.001111
0.386895 0.008112 0.000651
0.425002 0.007648 0.000187
0.463456 0.007180 0.000000
0.502270 0.006707 0.000000
0.541317 0.006231 0.000000
0.579668 0.005764 0.000000
0.617172 0.005307 0.000000
0.653857 0.004860 0.000000
0.689743 0.004423 0.000000
0.733483 0.003996 0.000000
0.773700 0.003577 0.000000
0.807168 0.003168 0.000000
0.835117 0.002767 0.000000
0.858536 0.002375 0.000000
0.878224 0.001992 0.000000
0.894829 0.001617 0.000000
0.908876 0.001250 0.000000
0.920797 0.000892 0.000000
0.930943 0.000541 0.000000
0.939604 0.000198 0.000000
0.947018 0.000000 0.000000
0.953382 0.000000 0.000000
0.012351 0.048917 0.003665
0.051825 0.048436 0.003184
0.089263 0.047980 0.002728
0.126072 0.047532 0.002280
0.162679 0.047086 0.001834
0.199289 0.046640 0.001388
0.236022 0.046193 0.000940
0.272951 0.045743 0.000490
0.310129 0.045290 0.000038
0.347591 0.044834 0.000000
0.385365 0.044373 0.000000
0.423472 0.043909 0.000000
0.461926 0.043441 0.000000
0.500741 0.042968 0.000000
0.539787 0.042493 0.000000
0.578138 0.042025 0.000000
0.615643 0.041569 0.000000
0.652327 0.041122 0.000000
0.688213 0.040685 0.000000
0.731535 0.040257 0.000000
0.772045 0.039839 0.000000
0.805758 0.039429 0.000000
0.833911 0.039029 0.000000
0.857502 0.038637 0.000000
0.877334 0.038253 0.000000
0.894060 0.037878 0.000000
0.908210 0.037512 0.000000
0.920218 0.037153 0.000000
0.930438 0.036802 0.000000
0.939162 0.036460 0.000000
0.946630 0.036125 0.000000
0.953041 0.035797 0.000000
0.010881 0.083777 0.002194
0.050355 0.083296 0.001713
0.087793 0.082840 0.001257
0.124601 0.082392 0.000809
0.161208 0.081946 0.000363
0.197818 0.081500 0.000000
0.234551 0.081052 0.000000
0.271480 0.080603 0.000000
0.308658 0.080150 0.000000
0.346121 0.079693 0.000000
0.383895 0.079233 0.000000
0.422001 0.078769 0.000000
0.460455 0.078301 0.000000
0.499270 0.077828 0.000000
0.538316 0.077352 0.000000
0.576667 0.076885 0.000000
0.614172 0.076428 0.000000
0.650856 0.075982 0.000000
0.686742 0.075544 0.000000
0.729648 0.075117 0.000000
0.770443 0.074698 0.000000
0.804393 0.074289 0.000000
0.832744 0.073888 0.000000
0.856500 0.073497 0.000000
0.876472 0.073113 0.000000
0.893315 0.072738 0.000000
0.907565 0.072372 0.000000
0.919657 0.072013 0.000000
0.929949 0.071662 0.000000
0.938735 0.071320 0.000000
0.946255 0.070985 0.000000
0.952711 0.070657 0.000000
0.009425 0.118283 0.000738
0.048899 0.117803 0.000257
0.086337 0.117347 0.000000
0.123145 0.116898 0.000000
0.159752 0.116452 0.000000
0.196363 0.116006 0.000000
0.233095 0.115559 0.000000
0.270024 0.115109 0.000000
0.307202 0.114656 0.000000
0.344665 0.114200 0.000000
0.382439 0.113740 0.000000
0.420545 0.113276 0.000000
0.458999 0.112807 0.000000
0.497814 0.112335 0.000000
0.536860 0.111859 0.000000
0.575211 0.111392 0.000000
0.612716 0.110935 0.000000
0.649400 0.110488 0.000000
0.685287 0.110051 0.000000
0.727767 0.109623 0.000000
0.768846 0.109205 0.000000
0.803032 0.108796 0.000000
0.831581 0.108395 0.000000
0.855502 0.108003 0.000000
0.875612 0.107620 0.000000
0.892573 0.107245 0.000000
0.906922 0.106878 0.000000
0.919098 0.106520 0.000000
0.929462 0.106169 0.000000
0.938308 0.105826 0.000000
0.945881 0.105491 0.000000
0.952382 0.105164 0.000000
0.007970 0.152759 0.000000
0.047444 0.152279 0.000000
0.084882 0.151823 0.000000
0.121691 0.151374 0.000000
0.158297 0.150928 0.000000
0.194908 0.150482 0.000000
0.231640 0.150035 0.000000
0.268570 0.149585 0.000000
0.305748 0.149132 0.000000
0.343210 0.148676 0.000000
0.380984 0.148216 0.000000
0.419091 0.147752 0.000000
0.457545 0.147283 0.000000
0.496359 0.146811 0.000000
0.535406 0.146335 0.000000
0.573757 0.145868 0.000000
0.611261 0.145411 0.000000
0.647945 0.144964 0.000000
0.683832 0.144527 0.000000
0.725875 0.144099 0.000000
0.767239 0.143681 0.000000
0.801663 0.143272 0.000000
0.830410 0.142871 0.000000
0.854498 0.142479 0.000000
0.874748 0.142096 0.000000
0.891826 0.141721 0.000000
0.906275 0.141354 0.000000
0.918536 0.140996 0.000000
0.928972 0.140645 0.000000
0.937880 0.140302 0.000000
0.945505 0.139967 0.000000
0.952051 0.139640 0.000000
0.006510 0.187360 0.000000
0.045984 0.186879 0.000000
0.083422 0.186423 0.000000
0.120231 0.185975 0.000000
0.156838 0.185529 0.000000
0.193448 0.185083 0.000000
0.230181 0.184636 0.000000
0.267110 0.184186 0.000000
0.304288 0.183733 0.000000
0.341750 0.183277 0.000000
0.379524 0.182817 0.000000
0.417631 0.182353 0.000000
0.456085 0.181884 0.000000
0.494899 0.181411 0.000000
0.533946 0.180936 0.000000
0.572297 0.180469 0.000000
0.609801 0.180012 0.000000
0.646486 0.179565 0.000000
0.682372 0.179128 0.000000
0.723962 0.178700 0.000000
0.765616 0.178282 0.000000
0.800279 0.177872 0.000000
0.829227 0.177472 0.000000
0.853483 0.177080 0.000000
0.873874 0.176697 0.000000
0.891072 0.176322 0.000000
0.905621 0.175955 0.000000
0.917968 0.175596 0.000000
0.928476 0.175246 0.000000
0.937446 0.174903 0.000000
0.945125 0.174568 0.000000
0.951716 0.174241 0.000000
0.005041 0.222175 0.000000
0.044515 0.221694 0.000000
0.081954 0.221238 0.000000
0.118762 0.220790 0.000000
0.155369 0.220344 0.000000
0.191979 0.219898 0.000000
0.228712 0.219451 0.000000
0.265641 0.219001 0.000000
0.302819 0.218548 0.000000
0.340281 0.218092 0.000000
0.378056 0.217632 0.000000
0.416162 0.217168 0.000000
0.454616 0.216699 0.000000
0.493431 0.216226 0.000000
0.532477 0.215751 0.000000
0.570828 0.215284 0.000000
0.608333 0.214827 0.000000
0.645017 0.214380 0.000000
0.680903 0.213943 0.000000
0.722025 0.213515 0.000000
0.763971 0.213097 0.000000
0.798878 0.212688 0.000000
0.828028 0.212287 0.000000
0.852454 0.211895 0.000000
0.872989 0.211512 0.000000
0.890307 0.211137 0.000000
0.904959 0.210770 0.000000
0.917392 0.210411 0.000000
0.927974 0.210061 0.000000
0.937007 0.209718 0.000000
0.944740 0.209383 0.000000
0.951377 0.209056 0.000000
0.003561 0.257262 0.000000
0.043035 0.256781 0.000000
0.080473 0.256325 0.000000
0.117282 0.255877 0.000000
0.153888 0.255431 0.000000
0.190499 0.254985 0.000000
0.227231 0.254537 0.000000
0.264161 0.254088 0.000000
0.301339 0.253635 0.000000
0.338801 0.253178 0.000000
0.376575 0.252718 0.000000
0.414681 0.252254 0.000000
0.453136 0.251786 0.000000
0.491950 0.251313 0.000000
0.530997 0.250837 0.000000
0.569348 0.250370 0.000000
0.606852 0.249913 0.000000
0.643536 0.249467 0.000000
0.679423 0.249029 0.000000
0.720058 0.248602 0.000000
0.762301 0.248183 0.000000
0.797455 0.247774 0.000000
0.826812 0.247373 0.000000
0.851411 0.246982 0.000000
0.872090 0.246598 0.000000
0.889531 0.246223 0.000000
0.904286 0.245857 0.000000
0.916808 0.245498 0.000000
0.927465 0.245147 0.000000
0.936562 0.244805 0.000000
0.944349 0.244470 0.000000
0.951033 0.244142 0.000000
0.002068 0.292659 0.000000
0.041542 0.292178 0.000000
0.078980 0.291722 0.000000
0.115788 0.291274 0.000000
0.152395 0.290828 0.000000
0.189005 0.290382 0.000000
0.225738 0.289934 0.000000
0.262667 0.289484 0.000000
0.299845 0.289032 0.000000
0.337308 0.288575 0.000000
0.375082 0.288115 0.000000
0.413188 0.287651 0.000000
0.451642 0.287183 0.000000
0.490457 0.286710 0.000000
0.529503 0.286234 0.000000
0.567854 0.285767 0.000000
0.605359 0.285310 0.000000
0.642043 0.284863 0.000000
0.677930 0.284426 0.000000
0.718061 0.283999 0.000000
0.760604 0.283580 0.000000
0.796009 0.283171 0.000000
0.825576 0.282770 0.000000
0.850350 0.282379 0.000000
0.871177 0.281995 0.000000
0.888743 0.281620 0.000000
0.903603 0.281253 0.000000
0.916214 0.280895 0.000000
0.926947 0.280544 0.000000
0.936109 0.280201 0.000000
0.943952 0.279866 0.000000
0.950684 0.279539 0.000000
0.000560 0.328394 0.000000
0.040034 0.327913 0.000000
0.077472 0.327457 0.000000
0.114280 0.327009 0.000000
0.150887 0.326563 0.000000
0.187498 0.326117 0.000000
0.224230 0.325669 0.000000
0.261160 0.325219 0.000000
0.298337 0.324767 0.000000
0.335800 0.324310 0.000000
0.373574 0.323850 0.000000
0.411680 0.323386 0.000000
0.450135 0.322918 0.000000
0.488949 0.322445 0.000000
0.527996 0.321969 0.000000
0.566346 0.321502 0.000000
0.603851 0.321045 0.000000
0.640535 0.320598 0.000000
0.676422 0.320161 0.000000
0.716029 0.319734 0.000000
0.758879 0.319315 0.000000
0.794539 0.318906 0.000000
0.824319 0.318505 0.000000
0.849272 0.318114 0.000000
0.870249 0.317730 0.000000
0.887941 0.317355 0.000000
0.902909 0.316988 0.000000
0.915610 0.316630 0.000000
0.926421 0.316279 0.000000
0.935648 0.315936 0.000000
0.943548 0.315601 0.000000
0.950329 0.315274 0.000000
0.000000 0.364487 0.000000
0.038511 0.364007 0.000000
0.075949 0.363551 0.000000
0.112758 0.363102 0.000000
0.149364 0.362656 0.000000
0.185975 0.362210 0.000000
0.222707 0.361763 0.000000
0.259637 0.361313 0.000000
0.296815 0.360860 0.000000
0.334277 0.360404 0.000000
0.372051 0.359944 0.000000
0.410158 0.359480 0.000000
0.448612 0.359011 0.000000
0.487426 0.358538 0.000000
0.526473 0.358063 0.000000
0.564824 0.357596 0.000000
0.602328 0.357139 0.000000
0.639012 0.356692 0.000000
0.674899 0.356255 0.000000
0.713962 0.355827 0.000000
0.757125 0.355409 0.000000
0.793044 0.355000 0.000000
0.823040 0.354599 0.000000
0.848175 0.354207 0.000000
0.869305 0.353824 0.000000
0.887126 0.353449 0.000000
0.902202 0.353082 0.000000
0.914996 0.352723 0.000000
0.925885 0.352373 0.000000
0.935180 0.352030 0.000000
0.943137 0.351695 0.000000
0.949967 0.351368 0.000000
0.000000 0.400955 0.000000
0.036973 0.400474 0.000000
0.074411 0.400018 0.000000
0.111219 0.399570 0.000000
0.147826 0.399124 0.000000
0.184436 0.398678 0.000000
0.221169 0.398231 0.000000
0.258098 0.397781 0.000000
0.295276 0.397328 0.000000
0.332738 0.396872 0.000000
0.370513 0.396412 0.000000
0.408619 0.395947 0.000000
0.447073 0.395479 0.000000
0.485888 0.395006 0.000000
0.524934 0.394531 0.000000
0.563285 0.394064 0.000000
0.600790 0.393607 0.000000
0.637474 0.393160 0.000000
0.673360 0.392723 0.000000
0.711859 0.392295 0.000000
0.755339 0.391877 0.000000
0.791522 0.391467 0.000000
0.821739 0.391067 0.000000
0.847058 0.390675 0.000000
0.868344 0.390292 0.000000
0.886296 0.389917 0.000000
0.901483 0.389550 0.000000
0.914371 0.389191 0.000000
0.925340 0.388841 0.000000
0.934703 0.388498 0.000000
0.942719 0.388163 0.000000
0.949599 0.387836 0.000000
0.000000 0.437809 0.000000
0.035418 0.437328 0.000000
0.072856 0.436872 0.000000
0.109664 0.436424 0.000000
0.146271 0.435978 0.000000
0.182881 0.435532 0.000000
0.219614 0.435085 0.000000
0.256543 0.434635 0.000000
0.293721 0.434182 0.000000
0.331184 0.433726 0.000000
0.368958 0.433265 0.000000
0.407064 0.432801 0.000000
0.445518 0.432333 0.000000
0.484333 0.431860 0.000000
0.523379 0.431385 0.000000
0.561730 0.430917 0.000000
0.599235 0.430461 0.000000
0.635919 0.430014 0.000000
0.671805 0.429577 0.000000
0.709717 0.429149 0.000000
0.753520 0.428731 0.000000
0.789973 0.428321 0.000000
0.820414 0.427921 0.000000
0.845922 0.427529 0.000000
0.867365 0.427145 0.000000
0.885451 0.426771 0.000000
0.900751 0.426404 0.000000
0.913735 0.426045 0.000000
0.924785 0.425694 0.000000
0.934218 0.425352 0.000000
0.942293 0.425017 0.000000
0.949225 0.424689 0.000000
0.000000 0.475058 0.000000
0.033846 0.474578 0.000000
0.071284 0.474122 0.000000
0.108092 0.473673 0.000000
0.144699 0.473227 0.000000
0.181310 0.472781 0.000000
0.218042 0.472334 0.000000
0.254972 0.471884 0.000000
0.292149 0.471431 0.000000
0.329612 0.470975 0.000000
0.367386 0.470515 0.000000
0.405492 0.470051 0.000000
0.443947 0.469582 0.000000
0.482761 0.469110 0.000000
0.521808 0.468634 0.000000
0.560158 0.468167 0.000000
0.597663 0.467710 0.000000
0.634347 0.467263 0.000000
0.670234 0.466826 0.000000
0.707537 0.466398 0.000000
0.751669 0.465980 0.000000
0.788395 0.465571 0.000000
0.819065 0.465170 0.000000
0.844764 0.464778 0.000000
0.866369 0.464395 0.000000
0.884590 0.464020 0.000000
0.900005 0.463653 0.000000
0.913087 0.463295 0.000000
0.924220 0.462944 0.000000
0.933724 0.462601 0.000000
0.941860 0.462266 0.000000
0.948843 0.461939 0.000000
0.000000 0.512703 0.000000
0.032258 0.512222 0.000000
0.069696 0.511766 0.000000
0.106504 0.511317 0.000000
0.143111 0.510872 0.000000
0.179722 0.510426 0.000000
0.216454 0.509978 0.000000
0.253384 0.509528 0.000000
0.290561 0.509075 0.000000
0.328024 0.508619 0.000000
0.365798 0.508159 0.000000
0.403904 0.507695 0.000000
0.442358 0.507227 0.000000
0.481173 0.506754 0.000000
0.520219 0.506278 0.000000
0.558570 0.505811 0.000000
0.596075 0.505354 0.000000
0.632759 0.504907 0.000000
0.668646 0.504470 0.000000
0.705317 0.504043 0.000000
0.749784 0.503624 0.000000
0.786789 0.503215 0.000000
0.817692 0.502814 0.000000
0.843586 0.502422 0.000000
0.865355 0.502039 0.000000
0.883714 0.501664 0.000000
0.899246 0.501297 0.000000
0.912427 0.500939 0.000000
0.923645 0.500588 0.000000
0.933221 0.500245 0.000000
0.941418 0.499910 0.000000
0.948455 0.499583 0.000000
0.000000 0.550023 0.000000
0.030683 0.549542 0.000000
0.068121 0.549086 0.000000
0.104930 0.548637 0.000000
0.141536 0.548192 0.000000
0.178147 0.547746 0.000000
0.214879 0.547298 0.000000
0.251809 0.546848 0.000000
0.288987 0.546396 0.000000
0.326449 0.545939 0.000000
0.364223 0.545479 0.000000
0.402330 0.545015 0.000000
0.440784 0.544547 0.000000
0.479598 0.544074 0.000000
0.518645 0.543598 0.000000
0.556996 0.543131 0.000000
0.594500 0.542674 0.000000
0.631185 0.542227 0.000000
0.667071 0.541790 0.000000
0.703099 0.541363 0.000000
0.747900 0.540944 0.000000
0.785184 0.540535 0.000000
0.816319 0.540134 0.000000
0.842409 0.539742 0.000000
0.864341 0.539359 0.000000
0.882839 0.538984 0.000000
0.898488 0.538617 0.000000
0.911768 0.538259 0.000000
0.923070 0.537908 0.000000
0.932718 0.537565 0.000000
0.940977 0.537230 0.000000
0.948067 0.536903 0.000000
0.000000 0.586565 0.000000
0.029141 0.586084 0.000000
0.066580 0.585628 0.000000
0.103388 0.585180 0.000000
0.139995 0.584734 0.000000
0.176605 0.584288 0.000000
0.213338 0.583840 0.000000
0.250267 0.583391 0.000000
0.287445 0.582938 0.000000
0.324907 0.582481 0.000000
0.362682 0.582021 0.000000
0.400788 0.581557 0.000000
0.439242 0.581089 0.000000
0.478057 0.580616 0.000000
0.517103 0.580140 0.000000
0.555454 0.579673 0.000000
0.592959 0.579216 0.000000
0.629643 0.578770 0.000000
0.665529 0.578333 0.000000
0.700911 0.577905 0.000000
0.746043 0.577486 0.000000
0.783601 0.577077 0.000000
0.814966 0.576677 0.000000
0.841247 0.576285 0.000000
0.863342 0.575901 0.000000
0.881975 0.575526 0.000000
0.897740 0.575160 0.000000
0.911117 0.574801 0.000000
0.922503 0.574450 0.000000
0.932222 0.574108 0.000000
0.940542 0.573773 0.000000
0.947684 0.573445 0.000000
0.000000 0.622350 0.000000
0.027632 0.621869 0.000000
0.065070 0.621413 0.000000
0.101878 0.620964 0.000000
0.138485 0.620518 0.000000
0.175095 0.620073 0.000000
0.211828 0.619625 0.000000
0.248757 0.619175 0.000000
0.285935 0.618722 0.000000
0.323398 0.618266 0.000000
0.361172 0.617806 0.000000
0.399278 0.617342 0.000000
0.437732 0.616873 0.000000
0.476547 0.616401 0.000000
0.515593 0.615925 0.000000
0.553944 0.615458 0.000000
0.591449 0.615001 0.000000
0.628133 0.614554 0.000000
0.664020 0.614117 0.000000
0.699129 0.613689 0.000000
0.744210 0.613271 0.000000
0.782040 0.612862 0.000000
0.813631 0.612461 0.000000
0.840102 0.612069 0.000000
0.862356 0.611686 0.000000
0.881124 0.611311 0.000000
0.897002 0.610944 0.000000
0.910476 0.610586 0.000000
0.921944 0.610235 0.000000
0.931733 0.609892 0.000000
0.940113 0.609557 0.000000
0.947307 0.609230 0.000000
0.000000 0.657394 0.000000
0.026153 0.656914 0.000000
0.063591 0.656458 0.000000
0.100400 0.656009 0.000000
0.137006 0.655563 0.000000
0.173617 0.655117 0.000000
0.210349 0.654670 0.000000
0.247279 0.654220 0.000000
0.284457 0.653767 0.000000
0.321919 0.653311 0.000000
0.359693 0.652851 0.000000
0.397799 0.652387 0.000000
0.436254 0.651918 0.000000
0.475068 0.651446 0.000000
0.514115 0.650970 0.000000
0.552466 0.650503 0.000000
0.589970 0.650046 0.000000
0.626654 0.649599 0.000000
0.662541 0.649162 0.000000
0.697650 0.648734 0.000000
0.742403 0.648316 0.000000
0.780500 0.647907 0.000000
0.812314 0.647506 0.000000
0.838972 0.647114 0.000000
0.861383 0.646731 0.000000
0.880284 0.646356 0.000000
0.896274 0.645989 0.000000
0.909844 0.645631 0.000000
0.921393 0.645280 0.000000
0.931251 0.644937 0.000000
0.939690 0.644602 0.000000
0.946934 0.644275 0.000000
0.000000 0.691716 0.000000
0.024705 0.691235 0.000000
0.062143 0.690779 0.000000
0.098951 0.690330 0.000000
0.135558 0.689885 0.000000
0.172169 0.689439 0.000000
0.208901 0.688991 0.000000
0.245831 0.688541 0.000000
0.283008 0.688089 0.000000
0.320471 0.687632 0.000000
0.358245 0.687172 0.000000
0.396351 0.686708 0.000000
0.434806 0.686240 0.000000
0.473620 0.685767 0.000000
0.512667 0.685291 0.000000
0.551017 0.684824 0.000000
0.588522 0.684367 0.000000
0.625206 0.683920 0.000000
0.661093 0.683483 0.000000
0.696202 0.683056 0.000000
0.740621 0.682637 0.000000
0.778981 0.682228 0.000000
0.811015 0.681827 0.000000
0.837858 0.681435 0.000000
0.860424 0.681052 0.000000
0.879456 0.680677 0.000000
0.895557 0.680310 0.000000
0.909220 0.679952 0.000000
0.920849 0.679601 0.000000
0.930775 0.679258 0.000000
0.939273 0.678923 0.000000
0.946567 0.678596 0.000000
0.000000 0.734086 0.000000
0.023287 0.733476 0.000000
0.060725 0.732897 0.000000
0.097533 0.732326 0.000000
0.134140 0.731757 0.000000
0.170751 0.731187 0.000000
0.207483 0.730614 0.000000
0.244413 0.730036 0.000000
0.281590 0.729453 0.000000
0.319053 0.728865 0.000000
0.356827 0.728270 0.000000
0.394933 0.727669 0.000000
0.433387 0.727061 0.000000
0.472202 0.726445 0.000000
0.511249 0.725825 0.000000
0.549599 0.725215 0.000000
0.587104 0.724616 0.000000
0.623788 0.724030 0.000000
0.659675 0.723455 0.000000
0.694784 0.722891 0.000000
0.738863 0.722338 0.000000
0.777483 0.721796 0.000000
0.809735 0.721265 0.000000
0.836759 0.720745 0.000000
0.859478 0.720234 0.000000
0.878639 0.719734 0.000000
0.894849 0.719245 0.000000
0.908605 0.718765 0.000000
0.920312 0.718295 0.000000
0.930306 0.717835 0.000000
0.938861 0.717384 0.000000
0.946205 0.716943 0.000000
0.000000 0.772664 0.000000
0.021898 0.772143 0.000000
0.059336 0.771648 0.000000
0.096145 0.771160 0.000000
0.132751 0.770673 0.000000
0.169362 0.770186 0.000000
0.206094 0.769696 0.000000
0.243024 0.769202 0.000000
0.280202 0.768704 0.000000
0.317664 0.768201 0.000000
0.355438 0.767692 0.000000
0.393544 0.767178 0.000000
0.431999 0.766658 0.000000
0.470813 0.766132 0.000000
0.509860 0.765602 0.000000
0.548211 0.765080 0.000000
0.585715 0.764568 0.000000
0.622399 0.764067 0.000000
0.658286 0.763575 0.000000
0.693395 0.763093 0.000000
0.737130 0.762621 0.000000
0.776007 0.762158 0.000000
0.808472 0.761704 0.000000
0.835676 0.761259 0.000000
0.858546 0.760822 0.000000
0.877833 0.760395 0.000000
0.894151 0.759976 0.000000
0.907998 0.759566 0.000000
0.919784 0.759164 0.000000
0.929844 0.758771 0.000000
0.938456 0.758386 0.000000
0.945848 0.758009 0.000000
0.000000 0.805012 0.000000
0.020538 0.804565 0.000000
0.057976 0.804140 0.000000
0.094785 0.803722 0.000000
0.131391 0.803305 0.000000
0.168002 0.802886 0.000000
0.204734 0.802466 0.000000
0.241664 0.802042 0.000000
0.278842 0.801615 0.000000
0.316304 0.801184 0.000000
0.354078 0.800747 0.000000
0.392185 0.800307 0.000000
0.430639 0.799861 0.000000
0.469453 0.799410 0.000000
0.508500 0.798955 0.000000
0.546851 0.798507 0.000000
0.584355 0.798068 0.000000
0.621040 0.797638 0.000000
0.656926 0.797216 0.000000
0.692035 0.796803 0.000000
0.735423 0.796398 0.000000
0.774552 0.796001 0.000000
0.807228 0.795611 0.000000
0.834609 0.795229 0.000000
0.857627 0.794855 0.000000
0.877040 0.794489 0.000000
0.893463 0.794129 0.000000
0.907400 0.793777 0.000000
0.919263 0.793433 0.000000
0.929388 0.793095 0.000000
0.938056 0.792765 0.000000
0.945496 0.792442 0.000000
0.000000 0.832221 0.000000
0.019207 0.831836 0.000000
0.056645 0.831471 0.000000
0.093453 0.831111 0.000000
0.130060 0.830752 0.000000
0.166670 0.830392 0.000000
0.203403 0.830030 0.000000
0.240332 0.829666 0.000000
0.277510 0.829298 0.000000
0.314973 0.828926 0.000000
0.352747 0.828551 0.000000
0.390853 0.828172 0.000000
0.429307 0.827788 0.000000
0.468122 0.827400 0.000000
0.507168 0.827009 0.000000
0.545519 0.826623 0.000000
0.583024 0.826246 0.000000
0.619708 0.825876 0.000000
0.655594 0.825513 0.000000
0.690704 0.825157 0.000000
0.733740 0.824809 0.000000
0.773117 0.824467 0.000000
0.806002 0.824132 0.000000
0.833556 0.823803 0.000000
0.856721 0.823481 0.000000
0.876258 0.823166 0.000000
0.892786 0.822857 0.000000
0.906811 0.822554 0.000000
0.918749 0.822257 0.000000
0.928939 0.821967 0.000000
0.937662 0.821683 0.000000
0.945150 0.821405 0.000000
0.000000 0.855177 0.000000
0.017903 0.854845 0.000000
0.055341 0.854530 0.000000
0.092149 0.854219 0.000000
0.128756 0.853909 0.000000
0.165367 0.853598 0.000000
0.202099 0.853286 0.000000
0.239029 0.852971 0.000000
0.276206 0.852654 0.000000
0.313669 0.852333 0.000000
0.351443 0.852010 0.000000
0.389549 0.851682 0.000000
0.428004 0.851351 0.000000
0.466818 0.851016 0.000000
0.505865 0.850678 0.000000
0.544215 0.850346 0.000000
0.581720 0.850020 0.000000
0.618404 0.849700 0.000000
0.654291 0.849387 0.000000
0.689400 0.849080 0.000000
0.732081 0.848779 0.000000
0.771705 0.848484 0.000000
0.804794 0.848195 0.000000
0.832520 0.847911 0.000000
0.855829 0.847633 0.000000
0.875487 0.847361 0.000000
0.892118 0.847094 0.000000
0.906231 0.846833 0.000000
0.918243 0.846577 0.000000
0.928496 0.846326 0.000000
0.937274 0.846081 0.000000
0.944808 0.845841 0.000000
0.000000 0.874603 0.000000
0.016627 0.874316 0.000000
0.054065 0.874043 0.000000
0.090873 0.873773 0.000000
0.127480 0.873505 0.000000
0.164091 0.873236 0.000000
0.200823 0.872966 0.000000
0.237753 0.872693 0.000000
0.274930 0.872419 0.000000
0.312393 0.872141 0.000000
0.350167 0.871861 0.000000
0.388273 0.871577 0.000000
0.426727 0.871290 0.000000
0.465542 0.871000 0.000000
0.504588 0.870708 0.000000
0.542939 0.870420 0.000000
0.580444 0.870138 0.000000
0.617128 0.869861 0.000000
0.653015 0.869590 0.000000
0.688124 0.869324 0.000000
0.730448 0.869063 0.000000
0.770313 0.868808 0.000000
0.803604 0.868557 0.000000
0.831499 0.868312 0.000000
0.854950 0.868071 0.000000
0.874728 0.867836 0.000000
0.891461 0.867605 0.000000
0.905660 0.867378 0.000000
0.917745 0.867157 0.000000
0.928061 0.866940 0.000000
0.936891 0.866727 0.000000
0.944472 0.866519 0.000000
0.000000 0.891091 0.000000
0.015378 0.890841 0.000000
0.052816 0.890604 0.000000
0.089624 0.890370 0.000000
0.126231 0.890137 0.000000
0.162842 0.889903 0.000000
0.199574 0.889668 0.000000
0.236504 0.889432 0.000000
0.273681 0.889193 0.000000
0.311144 0.888952 0.000000
0.348918 0.888708 0.000000
0.387024 0.888462 0.000000
0.425478 0.888213 0.000000
0.464293 0.887961 0.000000
0.503339 0.887707 0.000000
0.541690 0.887457 0.000000
0.579195 0.887212 0.000000
0.615879 0.886972 0.000000
0.651766 0.886736 0.000000
0.686875 0.886505 0.000000
0.728841 0.886279 0.000000
0.768943 0.886057 0.000000
0.802432 0.885840 0.000000
0.830494 0.885626 0.000000
0.854085 0.885417 0.000000
0.873981 0.885213 0.000000
0.890813 0.885012 0.000000
0.905097 0.884815 0.000000
0.917254 0.884623 0.000000
0.927631 0.884435 0.000000
0.936515 0.884250 0.000000
0.944141 0.884069 0.000000
0.000000 0.905123 0.000000
0.014156 0.904906 0.000000
0.051594 0.904699 0.000000
0.088402 0.904496 0.000000
0.125009 0.904293 0.000000
0.161619 0.904089 0.000000
0.198352 0.903885 0.000000
0.235281 0.903678 0.000000
0.272459 0.903471 0.000000
0.309922 0.903261 0.000000
0.347696 0.903048 0.000000
0.385802 0.902834 0.000000
0.424256 0.902617 0.000000
0.463071 0.902397 0.000000
0.502117 0.902176 0.000000
0.540468 0.901958 0.000000
0.577973 0.901745 0.000000
0.614657 0.901535 0.000000
0.650544 0.901330 0.000000
