assets/luts/dewy.cube
# Beauty Camera 3D LUT
# Filter: Dewy (dewy)
# Category: Natural
TITLE "Dewy"
LUT_3D_SIZE 5
DOMAIN_MIN 0.000000 0.000000 0.000000
DOMAIN_MAX 0.903226 0.903226 0.903226
0.013881 0.012656 0.005195
0.274481 0.009481 0.002020
0.541317 0.006231 0.000000
0.807168 0.003168 0.000000
0.930943 0.000541 0.000000
0.003561 0.257262 0.000000
0.264161 0.254088 0.000000
0.530997 0.250837 0.000000
0.797455 0.247774 0.000000
0.927465 0.245147 0.000000
0.000000 0.512703 0.000000
0.253384 0.509528 0.000000
0.520219 0.506278 0.000000
0.786789 0.503215 0.000000
0.923645 0.500588 0.000000
0.000000 0.772664 0.000000
0.243024 0.769202 0.000000
0.509860 0.765602 0.000000
0.776007 0.762158 0.000000
0.919784 0.759164 0.000000
0.000000 0.917101 0.000000
0.234086 0.915838 0.000000
0.500922 0.914526 0.000000
0.766267 0.913270 0.000000
0.916296 0.912178 0.000000
0.012903 0.011678 0.243465
0.273503 0.008504 0.240291
0.540339 0.005253 0.237041
0.806268 0.002190 0.233978
0.930621 0.000000 0.231351
0.002583 0.256284 0.233145
0.263183 0.253110 0.229971
0.530019 0.249860 0.226721
0.796510 0.246796 0.223657
0.927126 0.244170 0.221031
0.000000 0.511725 0.222368
0.252406 0.508551 0.219194
0.519242 0.505300 0.215943
0.785794 0.502237 0.212880
0.923289 0.499610 0.210253
0.000000 0.771603 0.212008
0.242046 0.768125 0.208834
0.508882 0.764508 0.205584
0.774961 0.761048 0.202520
0.919409 0.758040 0.199894
0.000000 0.916714 0.203070
0.233108 0.915446 0.199896
0.499944 0.914127 0.196646
0.765177 0.912865 0.193582
0.915905 0.911768 0.190956
0.011855 0.010629 0.498956
0.272455 0.007455 0.495782
0.539291 0.004205 0.492531
0.805298 0.001142 0.489468
0.930274 0.000000 0.486841
0.001535 0.255236 0.488636
0.262135 0.252061 0.485461
0.528971 0.248811 0.482211
0.795491 0.245748 0.479148
0.926761 0.243121 0.476521
0.000000 0.510676 0.477858
0.251357 0.507502 0.474684
0.518193 0.504252 0.471434
0.784722 0.501189 0.468371
0.922905 0.498562 0.465744
0.000000 0.770460 0.467499
0.240998 0.766964 0.464325
0.507834 0.763329 0.461074
0.773835 0.759852 0.458011
0.919006 0.756829 0.455384
0.000000 0.916297 0.458561
0.232060 0.915022 0.455386
0.498895 0.913697 0.452136
0.764001 0.912429 0.449073
0.915484 0.911327 0.446446
0.010807 0.009581 0.768513
0.271406 0.006407 0.764987
0.538242 0.003157 0.761322
0.804324 0.000093 0.757815
0.929925 0.000000 0.754766
0.000486 0.254187 0.756853
0.261086 0.251013 0.753149
0.527922 0.247763 0.749299
0.794467 0.244699 0.745615
0.926395 0.242073 0.742413
0.000000 0.509628 0.744048
0.250309 0.506454 0.740150
0.517145 0.503204 0.736097
0.783644 0.500140 0.732219
0.922519 0.497513 0.728849
0.000000 0.769311 0.731105
0.239949 0.765798 0.727010
0.506785 0.762145 0.722752
0.772703 0.758650 0.718678
0.918601 0.755612 0.715137
0.000000 0.915878 0.719413
0.231011 0.914597 0.715140
0.497847 0.913265 0.710697
0.762820 0.911990 0.706446
0.915061 0.910883 0.702751
0.009890 0.008665 0.920054
0.270490 0.005491 0.918837
0.537326 0.002240 0.917571
0.803468 0.000000 0.916359
0.929618 0.000000 0.915307
0.000000 0.253271 0.916027
0.260170 0.250097 0.914748
0.527006 0.246847 0.913419
0.793569 0.243783 0.912146
0.926073 0.241157 0.911040
0.000000 0.508712 0.911605
0.249393 0.505538 0.910259
0.516229 0.502287 0.908859
0.782698 0.499224 0.907520
0.922180 0.496597 0.906356
0.000000 0.768303 0.907135
0.239033 0.764774 0.905721
0.505869 0.761105 0.904250
0.771709 0.757595 0.902843
0.918245 0.754544 0.901620
0.000000 0.915510 0.903097
0.230095 0.914224 0.901621
0.496931 0.912886 0.900087
0.761783 0.911606 0.898619
0.914690 0.910493 0.897343
