assets/luts/dewy.cube
# Beauty Camera 3D LUT
# Filter: Dewy (dewy)
# Category: Natural
TITLE "Dewy"
LUT_3D_SIZE 8
DOMAIN_MIN 0.000000 0.000000 0.000000
DOMAIN_MAX 0.903226 0.903226 0.903226
0.013881 0.012656 0.005195
0.164208 0.010825 0.003364
0.311659 0.009029 0.001568
0.463456 0.007180 0.000000
0.617172 0.005307 0.000000
0.773700 0.003577 0.000000
0.878224 0.001992 0.000000
0.930943 0.000541 0.000000
0.007970 0.152759 0.000000
0.158297 0.150928 0.000000
0.305748 0.149132 0.000000
0.457545 0.147283 0.000000
0.611261 0.145411 0.000000
0.767239 0.143681 0.000000
0.874748 0.142096 0.000000
0.928972 0.140645 0.000000
0.002068 0.292659 0.000000
0.152395 0.290828 0.000000
0.299845 0.289032 0.000000
0.451642 0.287183 0.000000
0.605359 0.285310 0.000000
0.760604 0.283580 0.000000
0.871177 0.281995 0.000000
0.926947 0.280544 0.000000
0.000000 0.437809 0.000000
0.146271 0.435978 0.000000
0.293721 0.434182 0.000000
0.445518 0.432333 0.000000
0.599235 0.430461 0.000000
0.753520 0.428731 0.000000
0.867365 0.427145 0.000000
0.924785 0.425694 0.000000
0.000000 0.586565 0.000000
0.139995 0.584734 0.000000
0.287445 0.582938 0.000000
0.439242 0.581089 0.000000
0.592959 0.579216 0.000000
0.746043 0.577486 0.000000
0.863342 0.575901 0.000000
0.922503 0.574450 0.000000
0.000000 0.734086 0.000000
0.134140 0.731757 0.000000
0.281590 0.729453 0.000000
0.433387 0.727061 0.000000
0.587104 0.724616 0.000000
0.738863 0.722338 0.000000
0.859478 0.720234 0.000000
0.920312 0.718295 0.000000
0.000000 0.855177 0.000000
0.128756 0.853909 0.000000
0.276206 0.852654 0.000000
0.428004 0.851351 0.000000
0.581720 0.850020 0.000000
0.732081 0.848779 0.000000
0.855829 0.847633 0.000000
0.918243 0.846577 0.000000
0.000000 0.917101 0.000000
0.123813 0.916375 0.000000
0.271263 0.915657 0.000000
0.423061 0.914911 0.000000
0.576777 0.914149 0.000000
0.725700 0.913439 0.000000
0.852395 0.912783 0.000000
0.916296 0.912178 0.000000
0.013326 0.012101 0.140405
0.163654 0.010270 0.138574
0.311104 0.008474 0.136778
0.462901 0.006625 0.134929
0.616618 0.004752 0.133057
0.773101 0.003022 0.131327
0.877902 0.001437 0.129741
0.930760 0.000000 0.128291
0.007415 0.152205 0.134494
0.157743 0.150374 0.132663
0.305193 0.148578 0.130867
0.456990 0.146729 0.129018
0.610706 0.144856 0.127145
0.766624 0.143126 0.125415
0.874417 0.141541 0.123830
0.928784 0.140090 0.122379
0.001513 0.292104 0.128591
0.151840 0.290273 0.126760
0.299290 0.288477 0.124964
0.451087 0.286628 0.123115
0.604804 0.284755 0.121243
0.759971 0.283025 0.119513
0.870837 0.281440 0.117928
0.926754 0.279989 0.116477
0.000000 0.437254 0.122467
0.145716 0.435423 0.120636
0.293166 0.433627 0.118840
0.444963 0.431778 0.116991
0.598680 0.429906 0.115119
0.752868 0.428176 0.113389
0.867015 0.426591 0.111804
0.924586 0.425140 0.110353
0.000000 0.586010 0.116191
0.139440 0.584179 0.114360
0.286890 0.582383 0.112564
0.438687 0.580534 0.110715
0.592404 0.578662 0.108843
0.745371 0.576932 0.107113
0.862980 0.575347 0.105528
0.922298 0.573896 0.104077
0.000000 0.733382 0.110337
0.133585 0.731047 0.108506
0.281036 0.728737 0.106710
0.432833 0.726338 0.104861
0.586549 0.723888 0.102988
0.738172 0.721604 0.101258
0.859106 0.719494 0.099673
0.920102 0.717549 0.098222
0.000000 0.854794 0.104953
0.128201 0.853522 0.103122
0.275652 0.852264 0.101326
0.427449 0.850958 0.099477
0.581165 0.849623 0.097604
0.731373 0.848379 0.095874
0.855447 0.847230 0.094289
0.918027 0.846171 0.092838
0.000000 0.916882 0.100010
0.123258 0.916154 0.098179
0.270709 0.915434 0.096383
0.422506 0.914686 0.094534
0.576222 0.913922 0.092661
0.724975 0.913210 0.090931
0.852005 0.912552 0.089346
0.916074 0.911946 0.087895
0.012759 0.011534 0.278611
0.163087 0.009703 0.276780
0.310537 0.007907 0.274984
0.462334 0.006058 0.273135
0.616050 0.004185 0.271263
0.772488 0.002455 0.269533
0.877572 0.000870 0.267947
0.930573 0.000000 0.266496
0.006848 0.151637 0.272700
0.157175 0.149806 0.270869
0.304626 0.148010 0.269073
0.456423 0.146161 0.267224
0.610139 0.144289 0.265351
0.765992 0.142559 0.263621
0.874077 0.140974 0.262036
0.928591 0.139523 0.260585
0.000946 0.291537 0.266797
0.151273 0.289706 0.264966
0.298723 0.287910 0.263170
0.450520 0.286061 0.261321
0.604237 0.284188 0.259449
0.759322 0.282458 0.257719
0.870487 0.280873 0.256134
0.926556 0.279422 0.254683
0.000000 0.436687 0.260673
0.145149 0.434856 0.258842
0.292599 0.433060 0.257046
0.444396 0.431211 0.255197
0.598113 0.429339 0.253325
0.752200 0.427609 0.251595
0.866655 0.426023 0.250010
0.924382 0.424573 0.248559
0.000000 0.585443 0.254397
0.138873 0.583612 0.252566
0.286323 0.581816 0.250770
0.438120 0.579967 0.248921
0.591837 0.578094 0.247049
0.744682 0.576364 0.245319
0.862610 0.574779 0.243734
0.922088 0.573328 0.242283
0.000000 0.732661 0.248543
0.133018 0.730320 0.246712
0.280468 0.728004 0.244916
0.432266 0.725598 0.243067
0.585982 0.723141 0.241194
0.737464 0.720851 0.239464
0.858725 0.718736 0.237879
0.919886 0.716786 0.236428
0.000000 0.854401 0.243159
0.127634 0.853126 0.241328
0.275084 0.851865 0.239532
0.426882 0.850555 0.237683
0.580598 0.849216 0.235810
0.730646 0.847969 0.234080
0.855057 0.846817 0.232495
0.917805 0.845755 0.231044
0.000000 0.916657 0.238216
0.122691 0.915927 0.236385
0.270141 0.915205 0.234589
0.421939 0.914455 0.232740
0.575655 0.913689 0.230867
0.724231 0.912975 0.229137
0.851604 0.912315 0.227552
0.915847 0.911708 0.226101
0.012164 0.010938 0.423645
0.162491 0.009107 0.421814
0.309942 0.007311 0.420018
0.461739 0.005462 0.418169
0.615455 0.003590 0.416297
0.771842 0.001860 0.414567
0.877225 0.000275 0.412982
0.930376 0.000000 0.411531
0.006253 0.151042 0.417734
0.156580 0.149211 0.415903
0.304030 0.147415 0.414107
0.455828 0.145566 0.412258
0.609544 0.143694 0.410386
0.765328 0.141964 0.408656
0.873720 0.140379 0.407071
0.928389 0.138928 0.405620
0.000350 0.290942 0.411832
0.150678 0.289110 0.410001
0.298128 0.287314 0.408205
0.449925 0.285465 0.406356
0.603642 0.283593 0.404483
0.758639 0.281863 0.402753
0.870120 0.280278 0.401168
0.926347 0.278827 0.399717
0.000000 0.436092 0.405708
0.144554 0.434261 0.403876
0.292004 0.432465 0.402080
0.443801 0.430616 0.400231
0.597518 0.428743 0.398359
0.751497 0.427013 0.396629
0.866276 0.425428 0.395044
0.924168 0.423977 0.393593
0.000000 0.584848 0.399431
0.138278 0.583017 0.397600
0.285728 0.581221 0.395804
0.437525 0.579372 0.393955
0.591241 0.577499 0.392083
0.743958 0.575769 0.390353
0.862220 0.574184 0.388768
0.921867 0.572733 0.387317
0.000000 0.731903 0.393577
0.132423 0.729555 0.391746
0.279873 0.727232 0.389950
0.431670 0.724820 0.388101
0.585387 0.722355 0.386228
0.736719 0.720058 0.384498
0.858324 0.717937 0.382913
0.919658 0.715982 0.381462
0.000000 0.853988 0.388193
0.127039 0.852709 0.386362
0.274489 0.851444 0.384566
0.426286 0.850130 0.382717
0.580003 0.848788 0.380844
0.729882 0.847537 0.379114
0.854645 0.846382 0.377529
0.917572 0.845317 0.376078
0.000000 0.916420 0.383250
0.122096 0.915688 0.381419
0.269546 0.914964 0.379623
0.421343 0.914212 0.377774
0.575060 0.913444 0.375902
0.723448 0.912728 0.374172
0.851183 0.912067 0.372586
0.915609 0.911457 0.371135
0.011542 0.010317 0.575219
0.161869 0.008485 0.573388
0.309320 0.006689 0.571592
0.461117 0.004840 0.569743
0.614833 0.002968 0.567871
0.771165 0.001238 0.566141
0.876860 0.000000 0.564555
0.930170 0.000000 0.563104
0.005631 0.150420 0.569308
0.155958 0.148589 0.567477
0.303408 0.146793 0.565681
0.455206 0.144944 0.563832
0.608922 0.143072 0.561959
0.764632 0.141342 0.560229
0.873345 0.139757 0.558644
0.928176 0.138306 0.557193
0.000000 0.290320 0.563405
0.150056 0.288488 0.561574
0.297506 0.286692 0.559778
0.449303 0.284843 0.557929
0.603020 0.282971 0.556057
0.757923 0.281241 0.554327
0.869735 0.279656 0.552742
0.926129 0.278205 0.551291
0.000000 0.435470 0.557281
0.143932 0.433639 0.555450
0.291382 0.431843 0.553654
0.443179 0.429994 0.551805
0.596896 0.428121 0.549933
0.750759 0.426391 0.548203
0.865880 0.424806 0.546618
0.923943 0.423355 0.545167
0.000000 0.584226 0.551005
0.137656 0.582395 0.549174
0.285106 0.580599 0.547378
0.436903 0.578750 0.545529
0.590619 0.576877 0.543657
0.743198 0.575147 0.541927
0.861811 0.573562 0.540342
0.921635 0.572111 0.538891
0.000000 0.731107 0.545151
0.131801 0.728753 0.543319
0.279251 0.726423 0.541523
0.431048 0.724003 0.539674
0.584765 0.721532 0.537802
0.735938 0.719228 0.536072
0.857904 0.717101 0.534487
0.919420 0.715139 0.533036
0.000000 0.853555 0.539767
0.126417 0.852272 0.537936
0.273867 0.851004 0.536140
0.425664 0.849686 0.534291
0.579381 0.848340 0.532418
0.729081 0.847085 0.530688
0.854214 0.845927 0.529103
0.917327 0.844858 0.527652
0.000000 0.916172 0.534824
0.121474 0.915438 0.532993
0.268924 0.914712 0.531197
0.420721 0.913958 0.529348
0.574438 0.913187 0.527475
0.722628 0.912469 0.525745
0.850742 0.911806 0.524160
0.915358 0.911194 0.522709
0.010948 0.009723 0.727197
0.161275 0.007891 0.724808
0.308726 0.006095 0.722445
0.460523 0.004246 0.719990
0.614239 0.002374 0.717482
0.770517 0.000644 0.715145
0.876512 0.000000 0.712987
0.929972 0.000000 0.710997
0.005037 0.149826 0.719409
0.155364 0.147995 0.716952
0.302815 0.146199 0.714521
0.454612 0.144350 0.711996
0.608328 0.142478 0.709417
0.763966 0.140748 0.707013
0.872986 0.139163 0.704793
0.927973 0.137712 0.702747
0.000000 0.289726 0.711411
0.149462 0.287895 0.708884
0.296912 0.286099 0.706383
0.448709 0.284250 0.703787
0.602426 0.282377 0.701134
0.757237 0.280647 0.699065
0.869366 0.279062 0.697480
0.925919 0.277611 0.696029
0.000000 0.434876 0.702871
0.143338 0.433045 0.700269
0.290788 0.431249 0.698392
0.442585 0.429400 0.696543
0.596302 0.427528 0.694671
0.750054 0.425797 0.692941
0.865500 0.424212 0.691356
0.923727 0.422761 0.689905
0.000000 0.583632 0.695743
0.137062 0.581801 0.693912
0.284512 0.580005 0.692116
0.436309 0.578156 0.690267
0.590026 0.576283 0.688395
0.742471 0.574553 0.686665
0.861420 0.572968 0.685080
0.921413 0.571517 0.683629
0.000000 0.730346 0.689889
0.131207 0.727984 0.688058
0.278657 0.725648 0.686262
0.430454 0.723222 0.684413
0.584171 0.720743 0.682540
0.735190 0.718433 0.680810
0.857502 0.716300 0.679225
0.919192 0.714333 0.677774
0.000000 0.853140 0.684505
0.125823 0.851854 0.682674
0.273273 0.850582 0.680878
0.425070 0.849260 0.679029
0.578787 0.847910 0.677156
0.728313 0.846652 0.675426
0.853801 0.845490 0.673841
0.917093 0.844419 0.672390
0.000000 0.915935 0.679562
0.120880 0.915199 0.677731
0.268330 0.914470 0.675935
0.420128 0.913714 0.674086
0.573844 0.912941 0.672213
0.721842 0.912221 0.670483
0.850319 0.911556 0.668898
0.915119 0.910943 0.667447
0.010398 0.009173 0.855885
0.160726 0.007342 0.854623
0.308176 0.005546 0.853374
0.459973 0.003697 0.852077
0.613689 0.001824 0.850752
0.769915 0.000094 0.849518
0.876188 0.000000 0.848378
0.929788 0.000000 0.847326
0.004487 0.149276 0.851770
0.154814 0.147445 0.850472
0.302265 0.145649 0.849188
0.454062 0.143800 0.847854
0.607778 0.141928 0.846492
0.763347 0.140198 0.845222
0.872653 0.138613 0.844049
0.927784 0.137162 0.842968
0.000000 0.289176 0.847545
0.148912 0.287345 0.846210
0.296362 0.285549 0.844889
0.448159 0.283700 0.843517
0.601876 0.281827 0.842116
0.756601 0.280097 0.840810
0.869023 0.278512 0.839604
0.925725 0.277061 0.838492
0.000000 0.434326 0.843034
0.142788 0.432495 0.841659
0.290238 0.430699 0.840299
0.442035 0.428850 0.838887
0.595752 0.426978 0.837444
0.749398 0.425248 0.836099
0.865147 0.423662 0.834857
0.923527 0.422212 0.833712
0.000000 0.583082 0.838272
0.136512 0.581251 0.836855
0.283962 0.579455 0.835454
0.435759 0.577606 0.833999
0.589476 0.575733 0.832512
0.741796 0.574003 0.831127
0.861056 0.572418 0.829847
0.921207 0.570967 0.828667
0.000000 0.729639 0.833699
0.130657 0.727271 0.832243
0.278107 0.724929 0.830802
0.429905 0.722496 0.829306
0.583621 0.720011 0.827777
0.734496 0.717695 0.826352
0.857128 0.715556 0.825037
0.918980 0.713583 0.823824
0.000000 0.852755 0.829381
0.125273 0.851466 0.827886
0.272723 0.850190 0.826408
0.424521 0.848865 0.824873
0.578237 0.847511 0.823305
0.727601 0.846250 0.821843
0.853418 0.845085 0.820493
0.916876 0.844011 0.819249
0.000000 0.915715 0.825317
0.120330 0.914976 0.823787
0.267780 0.914246 0.822274
0.419578 0.913488 0.820702
0.573294 0.912713 0.819096
0.721113 0.911991 0.817600
0.849927 0.911324 0.816218
0.914896 0.910709 0.814944
0.009890 0.008665 0.920054
0.160218 0.006834 0.919354
0.307668 0.005038 0.918661
0.459465 0.003189 0.917942
0.613182 0.001316 0.917207
0.769358 0.000000 0.916522
0.875888 0.000000 0.915890
0.929618 0.000000 0.915307
0.003979 0.148769 0.917772
0.154307 0.146938 0.917052
0.301757 0.145142 0.916339
0.453554 0.143293 0.915599
0.607271 0.141420 0.914844
0.762774 0.139690 0.914139
0.872345 0.138105 0.913489
0.927609 0.136654 0.912889
0.000000 0.288668 0.915428
0.148404 0.286837 0.914687
0.295854 0.285041 0.913954
0.447651 0.283192 0.913194
0.601368 0.281319 0.912416
0.756011 0.279589 0.911692
0.868706 0.278004 0.911023
0.925545 0.276553 0.910406
0.000000 0.433818 0.912925
0.142280 0.431987 0.912163
0.289730 0.430191 0.911408
0.441527 0.428342 0.910625
0.595244 0.426470 0.909824
0.748791 0.424740 0.909078
0.864821 0.423155 0.908390
0.923342 0.421704 0.907754
0.000000 0.582574 0.910284
0.136004 0.580743 0.909498
0.283454 0.578947 0.908721
0.435251 0.577098 0.907913
0.588968 0.575226 0.907089
0.741170 0.573496 0.906320
0.860720 0.571911 0.905610
0.921017 0.570460 0.904956
0.000000 0.728984 0.907747
0.130149 0.726611 0.906939
0.277600 0.724263 0.906140
0.429397 0.721824 0.905310
0.583113 0.719333 0.904462
0.733853 0.717011 0.903672
0.856782 0.714867 0.902942
0.918784 0.712890 0.902269
0.000000 0.852399 0.905351
0.124765 0.851106 0.904523
0.272216 0.849827 0.903703
0.424013 0.848499 0.902851
0.577729 0.847142 0.901981
0.726941 0.845878 0.901170
0.853063 0.844710 0.900421
0.916675 0.843633 0.899731
0.000000 0.915510 0.903097
0.119822 0.914771 0.902249
0.267273 0.914039 0.901409
0.419070 0.913278 0.900537
0.572786 0.912502 0.899646
0.720438 0.911778 0.898816
0.849563 0.911109 0.898050
0.914690 0.910493 0.897343
