assets/luts/douyin_doll.cube
# Beauty Camera 3D LUT
# Filter: Búp Bê (douyin_doll)
# Category: Douyin
TITLE "Búp Bê"
LUT_3D_SIZE 8
DOMAIN_MIN 0.000000 0.000000 0.000000
DOMAIN_MAX 0.903226 0.903226 0.903226
0.000000 0.000000 0.000000
0.145952 0.000000 0.000000
0.305807 0.000000 0.000000
0.458521 0.000000 0.000000
0.606707 0.000000 0.000000
0.765347 0.000000 0.000000
0.880835 0.000000 0.000000
0.938869 0.000000 0.000000
0.000000 0.106637 0.000000
0.145952 0.106637 0.000000
0.305807 0.106637 0.000000
0.458521 0.106637 0.000000
0.606707 0.106637 0.000000
0.765347 0.106637 0.000000
0.880835 0.106637 0.000000
0.938869 0.106637 0.000000
0.000000 0.255033 0.000000
0.145952 0.255033 0.000000
0.305807 0.255033 0.000000
0.458521 0.255033 0.000000
0.606707 0.255033 0.000000
0.765347 0.255033 0.000000
0.880835 0.255033 0.000000
0.938869 0.255033 0.000000
0.000000 0.400470 0.000000
0.145952 0.400470 0.000000
0.305807 0.400470 0.000000
0.458521 0.400470 0.000000
0.606707 0.400470 0.000000
0.765347 0.400470 0.000000
0.880835 0.400470 0.000000
0.938869 0.400470 0.000000
0.000000 0.544017 0.000000
0.145952 0.544017 0.000000
0.305807 0.544017 0.000000
0.458521 0.544017 0.000000
0.606707 0.544017 0.000000
0.765347 0.544017 0.000000
0.880835 0.544017 0.000000
0.938869 0.544017 0.000000
0.000000 0.686176 0.000000
0.145952 0.686176 0.000000
0.305807 0.686176 0.000000
0.458521 0.686176 0.000000
0.606707 0.686176 0.000000
0.765347 0.686176 0.000000
0.880835 0.686176 0.000000
0.938869 0.686176 0.000000
0.000000 0.836324 0.000000
0.145952 0.836324 0.000000
0.305807 0.836324 0.000000
0.458521 0.836324 0.000000
0.606707 0.836324 0.000000
0.765347 0.836324 0.000000
0.880835 0.836324 0.000000
0.938869 0.836324 0.000000
0.000000 0.916029 0.000000
0.145952 0.916029 0.000000
0.305807 0.916029 0.000000
0.458521 0.916029 0.000000
0.606707 0.916029 0.000000
0.765347 0.916029 0.000000
0.880835 0.916029 0.000000
0.938869 0.916029 0.000000
0.000000 0.000000 0.146876
0.145952 0.000000 0.146876
0.305807 0.000000 0.146876
0.458521 0.000000 0.146876
0.606707 0.000000 0.146876
0.765347 0.000000 0.146876
0.880835 0.000000 0.146876
0.938869 0.000000 0.146876
0.000000 0.106637 0.146876
0.145952 0.106637 0.146876
0.305807 0.068785 0.107185
0.458521 0.030435 0.066664
0.606707 0.000000 0.024956
0.765347 0.000000 0.000000
0.880835 0.000000 0.000000
0.938869 0.000000 0.000000
0.000000 0.255033 0.146876
0.145952 0.255033 0.146876
0.305807 0.255033 0.146876
0.458521 0.255033 0.146876
0.606707 0.181320 0.024956
0.765347 0.144123 0.000000
0.880835 0.136651 0.000000
0.938869 0.131663 0.000000
0.000000 0.400470 0.146876
0.145952 0.400470 0.146876
0.305807 0.400470 0.146876
0.458521 0.400470 0.146876
0.606707 0.400470 0.146876
0.765347 0.400470 0.146876
0.880835 0.313482 0.000000
0.938869 0.303768 0.000000
0.000000 0.544017 0.146876
0.145952 0.544017 0.146876
0.305807 0.544017 0.146876
0.458521 0.544017 0.146876
0.606707 0.544017 0.146876
0.765347 0.544017 0.146876
0.880835 0.544017 0.146876
0.938869 0.544017 0.146876
0.000000 0.686176 0.146876
0.145952 0.686176 0.146876
0.305807 0.686176 0.146876
0.458521 0.686176 0.146876
0.606707 0.686176 0.146876
0.765347 0.686176 0.146876
0.880835 0.686176 0.146876
0.938869 0.686176 0.146876
0.000000 0.836324 0.146876
0.145952 0.836324 0.146876
0.305807 0.836324 0.146876
0.458521 0.836324 0.146876
0.606707 0.836324 0.146876
0.765347 0.836324 0.146876
0.880835 0.836324 0.146876
0.938869 0.836324 0.146876
0.000000 0.916029 0.146876
0.145952 0.916029 0.146876
0.305807 0.916029 0.146876
0.458521 0.916029 0.146876
0.606707 0.916029 0.146876
0.765347 0.916029 0.146876
0.880835 0.916029 0.146876
0.938869 0.916029 0.146876
0.000000 0.000000 0.300336
0.145952 0.000000 0.300336
0.305807 0.000000 0.300336
0.458521 0.000000 0.300336
0.606707 0.000000 0.300336
0.765347 0.000000 0.300336
0.880835 0.000000 0.300336
0.938869 0.000000 0.300336
0.000000 0.106637 0.300336
0.145952 0.106637 0.300336
0.305807 0.106637 0.300336
0.458521 0.030435 0.262591
0.606707 0.000000 0.224477
0.765347 0.000000 0.185933
0.880835 0.000000 0.178166
0.938869 0.000000 0.172976
0.000000 0.255033 0.300336
0.145952 0.255033 0.300336
0.305807 0.255033 0.300336
0.458521 0.218278 0.262591
0.606707 0.181320 0.224477
0.765347 0.144123 0.185933
0.880835 0.106637 0.146876
0.938869 0.068785 0.107185
0.000000 0.400470 0.300336
0.145952 0.400470 0.300336
0.305807 0.400470 0.300336
0.458521 0.400470 0.300336
0.606707 0.400470 0.300336
0.765347 0.328033 0.185933
0.880835 0.291611 0.146876
0.938869 0.255033 0.107185
0.000000 0.544017 0.300336
0.145952 0.544017 0.300336
0.305807 0.544017 0.300336
0.458521 0.544017 0.300336
0.606707 0.544017 0.300336
0.765347 0.544017 0.300336
0.880835 0.544017 0.300336
0.938869 0.436509 0.107185
0.000000 0.686176 0.300336
0.145952 0.686176 0.300336
0.305807 0.686176 0.300336
0.458521 0.686176 0.300336
0.606707 0.686176 0.300336
0.765347 0.686176 0.300336
0.880835 0.686176 0.300336
0.938869 0.686176 0.300336
0.000000 0.836324 0.300336
0.145952 0.836324 0.300336
0.305807 0.836324 0.300336
0.458521 0.836324 0.300336
0.606707 0.836324 0.300336
0.765347 0.836324 0.300336
0.880835 0.836324 0.300336
0.938869 0.836324 0.300336
0.000000 0.916029 0.300336
0.145952 0.916029 0.300336
0.305807 0.916029 0.300336
0.458521 0.916029 0.300336
0.606707 0.916029 0.300336
0.765347 0.916029 0.300336
0.880835 0.916029 0.300336
0.938869 0.916029 0.300336
0.000000 0.000000 0.448410
0.145952 0.000000 0.448410
0.305807 0.000000 0.448410
0.458521 0.000000 0.448410
0.606707 0.000000 0.448410
0.765347 0.000000 0.448410
0.880835 0.000000 0.448410
0.938869 0.000000 0.448410
0.000000 0.106637 0.448410
0.145952 0.106637 0.448410
0.305807 0.106637 0.448410
0.458521 0.106637 0.448410
0.606707 0.106637 0.448410
0.765347 0.000000 0.374892
0.880835 0.000000 0.360070
0.938869 0.000000 0.350166
0.000000 0.255033 0.448410
0.145952 0.255033 0.448410
0.305807 0.255033 0.448410
0.458521 0.255033 0.448410
0.606707 0.181320 0.411768
0.765347 0.144123 0.374892
0.880835 0.106637 0.337757
0.938869 0.068785 0.300336
0.000000 0.400470 0.448410
0.145952 0.400470 0.448410
0.305807 0.400470 0.448410
0.458521 0.400470 0.448410
0.606707 0.364315 0.411768
0.765347 0.328033 0.374892
0.880835 0.291611 0.337757
0.938869 0.255033 0.300336
0.000000 0.544017 0.448410
0.145952 0.544017 0.448410
0.305807 0.544017 0.448410
0.458521 0.544017 0.448410
0.606707 0.544017 0.448410
0.765347 0.544017 0.448410
0.880835 0.472441 0.337757
0.938869 0.436509 0.300336
0.000000 0.686176 0.448410
0.145952 0.686176 0.448410
0.305807 0.686176 0.448410
0.458521 0.686176 0.448410
0.606707 0.686176 0.448410
0.765347 0.686176 0.448410
0.880835 0.686176 0.448410
0.938869 0.686176 0.448410
0.000000 0.836324 0.448410
0.145952 0.836324 0.448410
0.305807 0.836324 0.448410
0.458521 0.836324 0.448410
0.606707 0.836324 0.448410
0.765347 0.836324 0.448410
0.880835 0.836324 0.448410
0.938869 0.836324 0.448410
0.000000 0.916029 0.448410
0.145952 0.916029 0.448410
0.305807 0.916029 0.448410
0.458521 0.916029 0.448410
0.606707 0.916029 0.448410
0.765347 0.916029 0.448410
0.880835 0.916029 0.448410
0.938869 0.916029 0.448410
0.000000 0.000000 0.592990
0.145952 0.000000 0.592990
0.305807 0.000000 0.592990
0.458521 0.000000 0.592990
0.606707 0.000000 0.592990
0.765347 0.000000 0.592990
0.880835 0.000000 0.592990
0.938869 0.000000 0.592990
0.000000 0.106637 0.592990
0.145952 0.106637 0.592990
0.305807 0.106637 0.592990
0.458521 0.106637 0.592990
0.606707 0.106637 0.592990
0.765347 0.106637 0.592990
0.880835 0.000000 0.535507
0.938869 0.000000 0.521067
0.000000 0.255033 0.592990
0.145952 0.255033 0.592990
0.305807 0.255033 0.592990
0.458521 0.255033 0.592990
0.606707 0.255033 0.592990
0.765347 0.255033 0.592990
0.880835 0.106637 0.521067
0.938869 0.068785 0.484837
0.000000 0.400470 0.592990
0.145952 0.400470 0.592990
0.305807 0.400470 0.592990
0.458521 0.400470 0.592990
0.606707 0.400470 0.592990
0.765347 0.328033 0.557114
0.880835 0.291611 0.521067
0.938869 0.255033 0.484837
0.000000 0.544017 0.592990
0.145952 0.544017 0.592990
0.305807 0.544017 0.592990
0.458521 0.544017 0.592990
0.606707 0.544017 0.592990
0.765347 0.508275 0.557114
0.880835 0.472441 0.521067
0.938869 0.436509 0.484837
0.000000 0.686176 0.592990
0.145952 0.686176 0.592990
0.305807 0.686176 0.592990
0.458521 0.686176 0.592990
0.606707 0.686176 0.592990
0.765347 0.686176 0.592990
0.880835 0.686176 0.592990
0.938869 0.615249 0.484837
0.000000 0.836324 0.592990
0.145952 0.836324 0.592990
0.305807 0.836324 0.592990
0.458521 0.836324 0.592990
0.606707 0.836324 0.592990
0.765347 0.836324 0.592990
0.880835 0.836324 0.592990
0.938869 0.836324 0.592990
0.000000 0.916029 0.592990
0.145952 0.916029 0.592990
0.305807 0.916029 0.592990
0.458521 0.916029 0.592990
0.606707 0.916029 0.592990
0.765347 0.916029 0.592990
0.880835 0.916029 0.592990
0.938869 0.916029 0.592990
0.000000 0.000000 0.746045
0.145952 0.000000 0.746045
0.305807 0.000000 0.746045
0.458521 0.000000 0.746045
0.606707 0.000000 0.746045
0.765347 0.000000 0.746045
0.880835 0.000000 0.746045
0.938869 0.000000 0.746045
0.000000 0.106637 0.746045
0.145952 0.106637 0.746045
0.305807 0.106637 0.746045
0.458521 0.106637 0.746045
0.606707 0.106637 0.746045
0.765347 0.106637 0.746045
0.880835 0.106637 0.746045
0.938869 0.106637 0.746045
0.000000 0.255033 0.746045
0.145952 0.255033 0.746045
0.305807 0.255033 0.746045
0.458521 0.255033 0.746045
0.606707 0.255033 0.746045
0.765347 0.255033 0.746045
0.880835 0.255033 0.746045
0.938869 0.068785 0.664273
0.000000 0.400470 0.746045
0.145952 0.400470 0.746045
0.305807 0.400470 0.746045
0.458521 0.400470 0.746045
0.606707 0.400470 0.746045
0.765347 0.400470 0.746045
0.880835 0.400470 0.746045
0.938869 0.255033 0.664273
0.000000 0.544017 0.746045
0.145952 0.544017 0.746045
0.305807 0.544017 0.746045
0.458521 0.544017 0.746045
0.606707 0.544017 0.746045
0.765347 0.544017 0.746045
0.880835 0.472441 0.699699
0.938869 0.436509 0.664273
0.000000 0.686176 0.746045
0.145952 0.686176 0.746045
0.305807 0.686176 0.746045
0.458521 0.686176 0.746045
0.606707 0.686176 0.746045
0.765347 0.686176 0.746045
0.880835 0.650748 0.699699
0.938869 0.615249 0.664273
0.000000 0.836324 0.746045
0.145952 0.836324 0.746045
0.305807 0.836324 0.746045
0.458521 0.836324 0.746045
0.606707 0.836324 0.746045
0.765347 0.836324 0.746045
0.880835 0.836324 0.746045
0.938869 0.836324 0.746045
0.000000 0.916029 0.746045
0.145952 0.916029 0.746045
0.305807 0.916029 0.746045
0.458521 0.916029 0.746045
0.606707 0.916029 0.746045
0.765347 0.916029 0.746045
0.880835 0.916029 0.746045
0.938869 0.916029 0.746045
0.000000 0.000000 0.869592
0.145952 0.000000 0.869592
0.305807 0.000000 0.869592
0.458521 0.000000 0.869592
0.606707 0.000000 0.869592
0.765347 0.000000 0.869592
0.880835 0.000000 0.869592
0.938869 0.000000 0.869592
0.000000 0.106637 0.869592
0.145952 0.106637 0.869592
0.305807 0.106637 0.869592
0.458521 0.106637 0.869592
0.606707 0.106637 0.869592
0.765347 0.106637 0.869592
0.880835 0.106637 0.869592
0.938869 0.106637 0.869592
0.000000 0.255033 0.869592
0.145952 0.255033 0.869592
0.305807 0.255033 0.869592
0.458521 0.255033 0.869592
0.606707 0.255033 0.869592
0.765347 0.255033 0.869592
0.880835 0.255033 0.869592
0.938869 0.255033 0.869592
0.000000 0.400470 0.869592
0.145952 0.400470 0.869592
0.305807 0.400470 0.869592
0.458521 0.400470 0.869592
0.606707 0.400470 0.869592
0.765347 0.400470 0.869592
0.880835 0.400470 0.869592
0.938869 0.400470 0.869592
0.000000 0.544017 0.869592
0.145952 0.544017 0.869592
0.305807 0.544017 0.869592
0.458521 0.544017 0.869592
0.606707 0.544017 0.869592
0.765347 0.544017 0.869592
0.880835 0.544017 0.869592
0.938869 0.544017 0.869592
0.000000 0.686176 0.869592
0.145952 0.686176 0.869592
0.305807 0.686176 0.869592
0.458521 0.686176 0.869592
0.606707 0.686176 0.869592
0.765347 0.686176 0.869592
0.880835 0.686176 0.869592
0.938869 0.615249 0.846072
0.000000 0.836324 0.869592
0.145952 0.836324 0.869592
0.305807 0.836324 0.869592
0.458521 0.836324 0.869592
0.606707 0.836324 0.869592
0.765347 0.836324 0.869592
0.880835 0.836324 0.869592
0.938869 0.806479 0.846072
0.000000 0.916029 0.869592
0.145952 0.916029 0.869592
0.305807 0.916029 0.869592
0.458521 0.916029 0.869592
0.606707 0.916029 0.869592
0.765347 0.916029 0.869592
0.880835 0.916029 0.869592
0.938869 0.916029 0.869592
0.000000 0.000000 0.932497
0.145952 0.000000 0.932497
0.305807 0.000000 0.932497
0.458521 0.000000 0.932497
0.606707 0.000000 0.932497
0.765347 0.000000 0.932497
0.880835 0.000000 0.932497
0.938869 0.000000 0.932497
0.000000 0.106637 0.932497
0.145952 0.106637 0.932497
0.305807 0.106637 0.932497
0.458521 0.106637 0.932497
0.606707 0.106637 0.932497
0.765347 0.106637 0.932497
0.880835 0.106637 0.932497
0.938869 0.106637 0.932497
0.000000 0.255033 0.932497
0.145952 0.255033 0.932497
0.305807 0.255033 0.932497
0.458521 0.255033 0.932497
0.606707 0.255033 0.932497
0.765347 0.255033 0.932497
0.880835 0.255033 0.932497
0.938869 0.255033 0.932497
0.000000 0.400470 0.932497
0.145952 0.400470 0.932497
0.305807 0.400470 0.932497
0.458521 0.400470 0.932497
0.606707 0.400470 0.932497
0.765347 0.400470 0.932497
0.880835 0.400470 0.932497
0.938869 0.400470 0.932497
0.000000 0.544017 0.932497
0.145952 0.544017 0.932497
0.305807 0.544017 0.932497
0.458521 0.544017 0.932497
0.606707 0.544017 0.932497
0.765347 0.544017 0.932497
0.880835 0.544017 0.932497
0.938869 0.544017 0.932497
0.000000 0.686176 0.932497
0.145952 0.686176 0.932497
0.305807 0.686176 0.932497
0.458521 0.686176 0.932497
0.606707 0.686176 0.932497
0.765347 0.686176 0.932497
0.880835 0.686176 0.932497
0.938869 0.686176 0.932497
0.000000 0.836324 0.932497
0.145952 0.836324 0.932497
0.305807 0.836324 0.932497
0.458521 0.836324 0.932497
0.606707 0.836324 0.932497
0.765347 0.836324 0.932497
0.880835 0.836324 0.932497
0.938869 0.836324 0.932497
0.000000 0.916029 0.932497
0.145952 0.916029 0.932497
0.305807 0.916029 0.932497
0.458521 0.916029 0.932497
0.606707 0.916029 0.932497
0.765347 0.916029 0.932497
0.880835 0.916029 0.932497
0.938869 0.916029 0.932497
