assets/luts/douyin_moon.cube
# Beauty Camera 3D LUT
# Filter: Bạch Nguyệt (douyin_moon)
# Category: Douyin
TITLE "Bạch Nguyệt"
LUT_3D_SIZE 8
DOMAIN_MIN 0.000000 0.000000 0.000000
DOMAIN_MAX 0.903226 0.903226 0.903226
0.000000 0.000000 0.029276
0.129755 0.000000 0.029276
0.275256 0.000000 0.029276
0.416679 0.000000 0.029276
0.555476 0.000000 0.029276
0.692340 0.000000 0.029276
0.836666 0.000000 0.029276
0.913743 0.000000 0.029276
0.000000 0.149649 0.029276
0.129755 0.149649 0.079798
0.275256 0.149649 0.029276
0.416679 0.149649 0.029276
0.555476 0.149649 0.029276
0.692340 0.149649 0.029276
0.836666 0.149649 0.029276
0.913743 0.149649 0.029276
0.000000 0.297476 0.029276
0.129755 0.297476 0.029276
0.275256 0.297476 0.127405
0.416679 0.297476 0.029276
0.555476 0.297476 0.029276
0.692340 0.297476 0.029276
0.836666 0.297476 0.029276
0.913743 0.297476 0.029276
0.000000 0.440115 0.029276
0.129755 0.440115 0.029276
0.275256 0.440115 0.029276
0.416679 0.440115 0.173160
0.555476 0.479403 0.217568
0.692340 0.440115 0.029276
0.836666 0.440115 0.029276
0.913743 0.440115 0.029276
0.000000 0.579388 0.029276
0.129755 0.579388 0.029276
0.275256 0.579388 0.029276
0.416679 0.579388 0.029276
0.555476 0.579388 0.217568
0.692340 0.617912 0.260924
0.836666 0.579388 0.029276
0.913743 0.579388 0.029276
0.000000 0.722242 0.029276
0.129755 0.722242 0.029276
0.275256 0.722242 0.029276
0.416679 0.722242 0.029276
0.593972 0.722242 0.260924
0.692340 0.722242 0.260924
0.836666 0.768143 0.303418
0.913743 0.806325 0.345187
0.000000 0.853837 0.029276
0.129755 0.853837 0.029276
0.275256 0.853837 0.029276
0.416679 0.853837 0.029276
0.555476 0.853837 0.029276
0.740401 0.853837 0.303418
0.836666 0.853837 0.303418
0.913743 0.877710 0.345187
0.000000 0.922490 0.029276
0.129755 0.922490 0.029276
0.275256 0.922490 0.029276
0.416679 0.922490 0.029276
0.555476 0.922490 0.029276
0.692340 0.922490 0.029276
0.863481 0.922490 0.345187
0.913743 0.922490 0.345187
0.000000 0.000000 0.198679
0.129755 0.000000 0.198679
0.275256 0.000000 0.198679
0.416679 0.000000 0.198679
0.555476 0.000000 0.198679
0.692340 0.000000 0.198679
0.836666 0.000000 0.198679
0.913743 0.000000 0.198679
0.000000 0.149649 0.198679
0.129755 0.149649 0.198679
0.275256 0.149649 0.198679
0.416679 0.149649 0.198679
0.555476 0.149649 0.198679
0.692340 0.149649 0.198679
0.836666 0.149649 0.198679
0.913743 0.149649 0.198679
0.000000 0.297476 0.198679
0.129755 0.297476 0.198679
0.275256 0.297476 0.242458
0.416679 0.297476 0.198679
0.555476 0.297476 0.198679
0.692340 0.297476 0.198679
0.836666 0.297476 0.198679
0.913743 0.297476 0.198679
0.000000 0.440115 0.198679
0.129755 0.440115 0.198679
0.275256 0.440115 0.198679
0.416679 0.440115 0.285302
0.555476 0.440115 0.198679
0.692340 0.440115 0.198679
0.836666 0.440115 0.198679
0.913743 0.440115 0.198679
0.000000 0.579388 0.198679
0.129755 0.579388 0.198679
0.275256 0.579388 0.198679
0.416679 0.579388 0.198679
0.555476 0.579388 0.327368
0.692340 0.617912 0.368769
0.836666 0.579388 0.198679
0.913743 0.579388 0.198679
0.000000 0.722242 0.198679
0.129755 0.722242 0.198679
0.275256 0.722242 0.198679
0.416679 0.722242 0.198679
0.555476 0.722242 0.198679
0.692340 0.722242 0.368769
0.836666 0.768143 0.409589
0.913743 0.722242 0.198679
0.000000 0.853837 0.198679
0.129755 0.853837 0.198679
0.275256 0.853837 0.198679
0.416679 0.853837 0.198679
0.555476 0.853837 0.198679
0.740401 0.853837 0.409589
0.836666 0.853837 0.409589
0.913743 0.877710 0.449897
0.000000 0.922490 0.198679
0.129755 0.922490 0.198679
0.275256 0.922490 0.198679
0.416679 0.922490 0.198679
0.555476 0.922490 0.198679
0.692340 0.922490 0.198679
0.863481 0.922490 0.449897
0.913743 0.922490 0.449897
0.000000 0.000000 0.351101
0.129755 0.000000 0.351101
0.275256 0.000000 0.351101
0.416679 0.000000 0.351101
0.555476 0.000000 0.351101
0.692340 0.000000 0.351101
0.836666 0.000000 0.351101
0.913743 0.000000 0.351101
0.000000 0.149649 0.351101
0.129755 0.149649 0.351101
0.275256 0.149649 0.351101
0.416679 0.149649 0.351101
0.555476 0.149649 0.351101
0.692340 0.149649 0.351101
0.836666 0.149649 0.351101
0.913743 0.149649 0.351101
0.000000 0.297476 0.351101
0.129755 0.297476 0.351101
0.275256 0.297476 0.351101
0.416679 0.297476 0.351101
0.555476 0.297476 0.351101
0.692340 0.297476 0.351101
0.836666 0.297476 0.351101
0.913743 0.297476 0.351101
0.000000 0.440115 0.351101
0.129755 0.440115 0.351101
0.275256 0.440115 0.351101
0.416679 0.440115 0.392161
0.555476 0.440115 0.351101
0.692340 0.440115 0.351101
0.836666 0.440115 0.351101
0.913743 0.440115 0.351101
0.000000 0.579388 0.351101
0.129755 0.579388 0.351101
0.275256 0.579388 0.351101
0.416679 0.579388 0.351101
0.555476 0.579388 0.432681
0.692340 0.579388 0.351101
0.836666 0.579388 0.351101
0.913743 0.579388 0.351101
0.000000 0.722242 0.351101
0.129755 0.722242 0.351101
0.275256 0.722242 0.351101
0.416679 0.722242 0.351101
0.555476 0.722242 0.351101
0.692340 0.722242 0.472720
0.836666 0.768143 0.512325
0.913743 0.722242 0.351101
0.000000 0.853837 0.351101
0.129755 0.853837 0.351101
0.275256 0.853837 0.351101
0.416679 0.853837 0.351101
0.555476 0.853837 0.351101
0.692340 0.853837 0.351101
0.836666 0.853837 0.512325
0.913743 0.877710 0.551537
0.000000 0.922490 0.351101
0.129755 0.922490 0.351101
0.275256 0.922490 0.351101
0.416679 0.922490 0.351101
0.555476 0.922490 0.351101
0.692340 0.922490 0.351101
0.863481 0.922490 0.551537
0.913743 0.922490 0.551537
0.000000 0.000000 0.495402
0.129755 0.000000 0.495402
0.275256 0.000000 0.495402
0.416679 0.000000 0.495402
0.555476 0.000000 0.495402
0.692340 0.000000 0.495402
0.836666 0.000000 0.495402
0.913743 0.000000 0.495402
0.000000 0.149649 0.495402
0.129755 0.149649 0.495402
0.275256 0.149649 0.495402
0.416679 0.149649 0.495402
0.555476 0.149649 0.495402
0.692340 0.149649 0.495402
0.836666 0.149649 0.495402
0.913743 0.149649 0.495402
0.000000 0.297476 0.495402
0.129755 0.297476 0.495402
0.275256 0.297476 0.495402
0.416679 0.297476 0.495402
0.555476 0.297476 0.495402
0.692340 0.297476 0.495402
0.836666 0.297476 0.495402
0.913743 0.297476 0.495402
0.000000 0.440115 0.495402
0.129755 0.440115 0.495402
0.275256 0.440115 0.495402
0.416679 0.440115 0.495402
0.555476 0.440115 0.495402
0.692340 0.440115 0.495402
0.836666 0.440115 0.495402
0.913743 0.440115 0.495402
0.000000 0.579388 0.495402
0.129755 0.579388 0.495402
0.275256 0.579388 0.495402
0.416679 0.579388 0.495402
0.555476 0.579388 0.534778
0.692340 0.579388 0.495402
0.836666 0.579388 0.495402
0.913743 0.579388 0.495402
0.000000 0.722242 0.495402
0.129755 0.722242 0.495402
0.275256 0.722242 0.495402
0.416679 0.722242 0.495402
0.555476 0.722242 0.495402
0.692340 0.722242 0.573779
0.836666 0.722242 0.495402
0.913743 0.722242 0.495402
0.000000 0.853837 0.495402
0.129755 0.853837 0.495402
0.275256 0.853837 0.495402
0.416679 0.853837 0.495402
0.555476 0.853837 0.495402
0.692340 0.853837 0.495402
0.836666 0.853837 0.612436
0.913743 0.877710 0.650775
0.000000 0.922490 0.495402
0.129755 0.922490 0.495402
0.275256 0.922490 0.495402
0.416679 0.922490 0.495402
0.555476 0.922490 0.495402
0.692340 0.922490 0.495402
0.836666 0.922490 0.495402
0.913743 0.922490 0.650775
0.000000 0.000000 0.634382
0.129755 0.000000 0.634382
0.275256 0.000000 0.634382
0.416679 0.000000 0.634382
0.555476 0.000000 0.634382
0.692340 0.000000 0.634382
0.836666 0.000000 0.634382
0.913743 0.000000 0.634382
0.000000 0.149649 0.634382
0.129755 0.149649 0.634382
0.275256 0.149649 0.634382
0.416679 0.149649 0.634382
0.555476 0.149649 0.634382
0.692340 0.149649 0.634382
0.836666 0.149649 0.634382
0.913743 0.149649 0.634382
0.000000 0.297476 0.634382
0.129755 0.297476 0.634382
0.275256 0.297476 0.634382
0.416679 0.297476 0.634382
0.555476 0.297476 0.634382
0.692340 0.297476 0.634382
0.836666 0.297476 0.634382
0.913743 0.297476 0.634382
0.000000 0.440115 0.634382
0.129755 0.440115 0.634382
0.275256 0.440115 0.634382
0.416679 0.440115 0.634382
0.555476 0.440115 0.634382
0.692340 0.440115 0.634382
0.836666 0.440115 0.634382
0.913743 0.440115 0.634382
0.000000 0.579388 0.634382
0.129755 0.579388 0.634382
0.275256 0.579388 0.634382
0.416679 0.579388 0.634382
0.555476 0.579388 0.634382
0.692340 0.579388 0.634382
0.836666 0.579388 0.634382
0.913743 0.579388 0.634382
0.000000 0.722242 0.634382
0.129755 0.722242 0.634382
0.275256 0.722242 0.634382
0.416679 0.722242 0.634382
0.555476 0.722242 0.634382
0.692340 0.722242 0.672549
0.836666 0.722242 0.634382
0.913743 0.722242 0.634382
0.000000 0.853837 0.634382
0.129755 0.853837 0.634382
0.275256 0.853837 0.634382
0.416679 0.853837 0.634382
0.555476 0.853837 0.634382
0.692340 0.853837 0.634382
0.836666 0.853837 0.714539
0.913743 0.853837 0.634382
0.000000 0.922490 0.634382
0.129755 0.922490 0.634382
0.275256 0.922490 0.634382
0.416679 0.922490 0.634382
0.555476 0.922490 0.634382
0.692340 0.922490 0.634382
0.836666 0.922490 0.634382
0.913743 0.922490 0.761355
0.000000 0.000000 0.784458
0.129755 0.000000 0.784458
0.275256 0.000000 0.784458
0.416679 0.000000 0.784458
0.555476 0.000000 0.784458
0.692340 0.000000 0.784458
0.836666 0.000000 0.784458
0.913743 0.000000 0.784458
0.000000 0.149649 0.784458
0.129755 0.149649 0.784458
0.275256 0.149649 0.784458
0.416679 0.149649 0.784458
0.555476 0.149649 0.784458
0.692340 0.149649 0.784458
0.836666 0.149649 0.784458
0.913743 0.149649 0.784458
0.000000 0.297476 0.784458
0.129755 0.297476 0.784458
0.275256 0.297476 0.784458
0.416679 0.297476 0.784458
0.555476 0.297476 0.784458
0.692340 0.297476 0.784458
0.836666 0.297476 0.784458
0.913743 0.297476 0.784458
0.000000 0.440115 0.784458
0.129755 0.440115 0.784458
0.275256 0.440115 0.784458
0.416679 0.440115 0.784458
0.555476 0.440115 0.784458
0.692340 0.440115 0.784458
0.836666 0.440115 0.784458
0.913743 0.440115 0.784458
0.000000 0.579388 0.784458
0.129755 0.579388 0.784458
0.275256 0.579388 0.784458
0.416679 0.579388 0.784458
0.555476 0.579388 0.784458
0.692340 0.579388 0.784458
0.836666 0.579388 0.784458
0.913743 0.579388 0.784458
0.000000 0.722242 0.784458
0.129755 0.722242 0.784458
0.275256 0.722242 0.784458
0.416679 0.722242 0.784458
0.555476 0.722242 0.784458
0.692340 0.722242 0.784458
0.836666 0.722242 0.784458
0.913743 0.722242 0.784458
0.000000 0.853837 0.784458
0.129755 0.853837 0.784458
0.275256 0.853837 0.784458
0.416679 0.853837 0.784458
0.555476 0.853837 0.784458
0.692340 0.853837 0.784458
0.836666 0.853837 0.819476
0.913743 0.853837 0.784458
0.000000 0.922490 0.784458
0.129755 0.922490 0.784458
0.275256 0.922490 0.784458
0.416679 0.922490 0.784458
0.555476 0.922490 0.784458
0.692340 0.922490 0.784458
0.836666 0.922490 0.784458
0.913743 0.922490 0.848640
0.000000 0.000000 0.885013
0.129755 0.000000 0.885013
0.275256 0.000000 0.885013
0.416679 0.000000 0.885013
0.555476 0.000000 0.885013
0.692340 0.000000 0.885013
0.836666 0.000000 0.885013
0.913743 0.000000 0.885013
0.000000 0.149649 0.885013
0.129755 0.149649 0.885013
0.275256 0.149649 0.885013
0.416679 0.149649 0.885013
0.555476 0.149649 0.885013
0.692340 0.149649 0.885013
0.836666 0.149649 0.885013
0.913743 0.149649 0.885013
0.000000 0.297476 0.885013
0.129755 0.297476 0.885013
0.275256 0.297476 0.885013
0.416679 0.297476 0.885013
0.555476 0.297476 0.885013
0.692340 0.297476 0.885013
0.836666 0.297476 0.885013
0.913743 0.297476 0.885013
0.000000 0.440115 0.885013
0.129755 0.440115 0.885013
0.275256 0.440115 0.885013
0.416679 0.440115 0.885013
0.555476 0.440115 0.885013
0.692340 0.440115 0.885013
0.836666 0.440115 0.885013
0.913743 0.440115 0.885013
0.000000 0.579388 0.885013
0.129755 0.579388 0.885013
0.275256 0.579388 0.885013
0.416679 0.579388 0.885013
0.555476 0.579388 0.885013
0.692340 0.579388 0.885013
0.836666 0.579388 0.885013
0.913743 0.579388 0.885013
0.000000 0.722242 0.885013
0.129755 0.722242 0.885013
0.275256 0.722242 0.885013
0.416679 0.722242 0.885013
0.555476 0.722242 0.885013
0.692340 0.722242 0.885013
0.836666 0.722242 0.885013
0.913743 0.722242 0.885013
0.000000 0.853837 0.885013
0.129755 0.853837 0.885013
0.275256 0.853837 0.885013
0.416679 0.853837 0.885013
0.555476 0.853837 0.885013
0.692340 0.853837 0.885013
0.836666 0.853837 0.885013
0.913743 0.853837 0.885013
0.000000 0.922490 0.885013
0.129755 0.922490 0.885013
0.275256 0.922490 0.885013
0.416679 0.922490 0.885013
0.555476 0.922490 0.885013
0.692340 0.922490 0.885013
0.836666 0.922490 0.885013
0.913743 0.922490 0.903345
0.000000 0.000000 0.937908
0.129755 0.000000 0.937908
0.275256 0.000000 0.937908
0.416679 0.000000 0.937908
0.555476 0.000000 0.937908
0.692340 0.000000 0.937908
0.836666 0.000000 0.937908
0.913743 0.000000 0.937908
0.000000 0.149649 0.937908
0.129755 0.149649 0.937908
0.275256 0.149649 0.937908
0.416679 0.149649 0.937908
0.555476 0.149649 0.937908
0.692340 0.149649 0.937908
0.836666 0.149649 0.937908
0.913743 0.149649 0.937908
0.000000 0.297476 0.937908
0.129755 0.297476 0.937908
0.275256 0.297476 0.937908
0.416679 0.297476 0.937908
0.555476 0.297476 0.937908
0.692340 0.297476 0.937908
0.836666 0.297476 0.937908
0.913743 0.297476 0.937908
0.000000 0.440115 0.937908
0.129755 0.440115 0.937908
0.275256 0.440115 0.937908
0.416679 0.440115 0.937908
0.555476 0.440115 0.937908
0.692340 0.440115 0.937908
0.836666 0.440115 0.937908
0.913743 0.440115 0.937908
0.000000 0.579388 0.937908
0.129755 0.579388 0.937908
0.275256 0.579388 0.937908
0.416679 0.579388 0.937908
0.555476 0.579388 0.937908
0.692340 0.579388 0.937908
0.836666 0.579388 0.937908
0.913743 0.579388 0.937908
0.000000 0.722242 0.937908
0.129755 0.722242 0.937908
0.275256 0.722242 0.937908
0.416679 0.722242 0.937908
0.555476 0.722242 0.937908
0.692340 0.722242 0.937908
0.836666 0.722242 0.937908
0.913743 0.722242 0.937908
0.000000 0.853837 0.937908
0.129755 0.853837 0.937908
0.275256 0.853837 0.937908
0.416679 0.853837 0.937908
0.555476 0.853837 0.937908
0.692340 0.853837 0.937908
0.836666 0.853837 0.937908
0.913743 0.853837 0.937908
0.000000 0.922490 0.937908
0.129755 0.922490 0.937908
0.275256 0.922490 0.937908
0.416679 0.922490 0.937908
0.555476 0.922490 0.937908
0.692340 0.922490 0.937908
0.836666 0.922490 0.937908
0.913743 0.922490 0.937908
