assets/luts/douyin_vintage.cube
# Beauty Camera 3D LUT
# Filter: Cổ Điển Hồng (douyin_vintage)
# Category: Douyin
TITLE "Cổ Điển Hồng"
LUT_3D_SIZE 32
DOMAIN_MIN 0.0 0.0 0.0
DOMAIN_MAX 1.0 1.0 1.0
0.048038 0.018498 0.015150
0.082914 0.018211 0.014862
0.117285 0.017927 0.014579
0.151491 0.017645 0.014297
0.185696 0.017363 0.014015
0.219994 0.017081 0.013732
0.254447 0.016797 0.013448
0.289097 0.016511 0.013162
0.323975 0.016223 0.012875
0.359103 0.015934 0.012585
0.394498 0.015642 0.012294
0.430174 0.015348 0.011999
0.466142 0.015051 0.011703
0.502411 0.014752 0.011404
0.538779 0.014452 0.011104
0.574542 0.014158 0.010809
0.609655 0.013868 0.010520
0.644136 0.013584 0.010235
0.678000 0.013305 0.009956
0.711260 0.013031 0.009682
0.743927 0.012761 0.009413
0.776014 0.012497 0.009148
0.807530 0.012237 0.008888
0.838484 0.011982 0.008633
0.868885 0.011731 0.008382
0.898742 0.011485 0.008136
0.928061 0.011243 0.007895
0.956850 0.011006 0.007657
0.985115 0.010773 0.007424
1.000000 0.010544 0.007196
1.000000 0.010319 0.006971
1.000000 0.010099 0.006751
0.047205 0.047964 0.014316
0.082080 0.047676 0.014029
0.116452 0.047393 0.013745
0.150658 0.047111 0.013463
0.184862 0.046829 0.013181
0.219161 0.046546 0.012899
0.253614 0.046262 0.012615
0.288264 0.045976 0.012329
0.323142 0.045689 0.012041
0.358269 0.045399 0.011752
0.393664 0.045107 0.011460
0.429340 0.044813 0.011166
0.465309 0.044517 0.010869
0.501578 0.044218 0.010570
0.537946 0.043918 0.010271
0.573708 0.043623 0.009976
0.608822 0.043334 0.009686
0.643303 0.043049 0.009402
0.677167 0.042770 0.009123
0.710426 0.042496 0.008849
0.743094 0.042227 0.008579
0.775181 0.041962 0.008315
0.806696 0.041702 0.008055
0.837650 0.041447 0.007800
0.868052 0.041196 0.007549
0.897908 0.040950 0.007303
0.927227 0.040709 0.007061
0.956016 0.040471 0.006824
0.984281 0.040238 0.006591
1.000000 0.040009 0.006362
1.000000 0.039785 0.006138
1.000000 0.039565 0.005917
0.046368 0.077552 0.013479
0.081243 0.077265 0.013192
0.115615 0.076982 0.012909
0.149821 0.076700 0.012627
0.184025 0.076418 0.012345
0.218324 0.076135 0.012062
0.252777 0.075851 0.011778
0.287427 0.075565 0.011492
0.322305 0.075278 0.011205
0.357432 0.074988 0.010915
0.392827 0.074696 0.010623
0.428504 0.074402 0.010329
0.464472 0.074105 0.010032
0.500741 0.073806 0.009733
0.537109 0.073507 0.009434
0.572871 0.073212 0.009139
0.607985 0.072922 0.008849
0.642466 0.072638 0.008565
0.676330 0.072359 0.008286
0.709589 0.072085 0.008012
0.742257 0.071815 0.007742
0.774344 0.071551 0.007478
0.805859 0.071291 0.007218
0.836813 0.071036 0.006963
0.867215 0.070785 0.006712
0.897071 0.070539 0.006466
0.926390 0.070297 0.006224
0.955179 0.070060 0.005987
0.983444 0.069827 0.005754
1.000000 0.069598 0.005525
1.000000 0.069374 0.005301
1.000000 0.069153 0.005080
0.045523 0.107408 0.012635
0.080399 0.107121 0.012347
0.114770 0.106837 0.012064
0.148976 0.106555 0.011782
0.183181 0.106273 0.011500
0.217479 0.105991 0.011217
0.251932 0.105707 0.010933
0.286583 0.105421 0.010648
0.321460 0.105133 0.010360
0.356588 0.104844 0.010070
0.391983 0.104552 0.009779
0.427659 0.104258 0.009484
0.463627 0.103961 0.009188
0.499896 0.103662 0.008889
0.536265 0.103362 0.008589
0.572027 0.103068 0.008294
0.607140 0.102778 0.008005
0.641621 0.102494 0.007721
0.675485 0.102215 0.007441
0.708745 0.101940 0.007167
0.741413 0.101671 0.006898
0.773499 0.101407 0.006633
0.805015 0.101147 0.006373
0.835969 0.100892 0.006118
0.866370 0.100641 0.005868
0.896227 0.100395 0.005621
0.925546 0.100153 0.005380
0.954335 0.099916 0.005142
0.982600 0.099683 0.004909
1.000000 0.099454 0.004681
1.000000 0.099229 0.004456
1.000000 0.099009 0.004236
0.044670 0.137588 0.011781
0.079545 0.137300 0.011494
0.113917 0.137017 0.011210
0.148123 0.136735 0.010928
0.182327 0.136453 0.010646
0.216626 0.136170 0.010364
0.251079 0.135886 0.010080
0.285729 0.135600 0.009794
0.320606 0.135313 0.009506
0.355734 0.135023 0.009217
0.391129 0.134731 0.008925
0.426805 0.134437 0.008631
0.462774 0.134141 0.008334
0.499043 0.133842 0.008035
0.535411 0.133542 0.007735
0.571173 0.133247 0.007441
0.606286 0.132958 0.007151
0.640768 0.132673 0.006867
0.674632 0.132394 0.006588
0.707891 0.132120 0.006313
0.740559 0.131851 0.006044
0.772646 0.131586 0.005780
0.804161 0.131326 0.005520
0.835115 0.131071 0.005265
0.865517 0.130820 0.005014
0.895373 0.130574 0.004768
0.924692 0.130333 0.004526
0.953481 0.130095 0.004289
0.981746 0.129862 0.004056
1.000000 0.129633 0.003827
1.000000 0.129409 0.003602
1.000000 0.129188 0.003382
0.043806 0.168121 0.010918
0.078682 0.167833 0.010630
0.113053 0.167550 0.010347
0.147259 0.167268 0.010065
0.181464 0.166986 0.009783
0.215762 0.166703 0.009500
0.250215 0.166419 0.009216
0.284865 0.166133 0.008930
0.319743 0.165846 0.008643
0.354870 0.165556 0.008353
0.390266 0.165264 0.008061
0.425942 0.164970 0.007767
0.461910 0.164674 0.007471
0.498179 0.164375 0.007172
0.534547 0.164075 0.006872
0.570309 0.163780 0.006577
0.605423 0.163491 0.006287
0.639904 0.163206 0.006003
0.673768 0.162927 0.005724
0.707028 0.162653 0.005450
0.739695 0.162384 0.005181
0.771782 0.162119 0.004916
0.803298 0.161859 0.004656
0.834252 0.161604 0.004401
0.864653 0.161353 0.004150
0.894509 0.161107 0.003904
0.923829 0.160865 0.003662
0.952618 0.160628 0.003425
0.980883 0.160395 0.003192
1.000000 0.160166 0.002963
1.000000 0.159942 0.002739
1.000000 0.159721 0.002518
0.042932 0.199025 0.010043
0.077807 0.198738 0.009756
0.112179 0.198455 0.009473
0.146385 0.198173 0.009191
0.180590 0.197891 0.008909
0.214888 0.197608 0.008626
0.249341 0.197324 0.008342
0.283991 0.197038 0.008056
0.318869 0.196751 0.007769
0.353996 0.196461 0.007479
0.389391 0.196169 0.007187
0.425068 0.195875 0.006893
0.461036 0.195578 0.006596
0.497305 0.195279 0.006297
0.533673 0.194980 0.005998
0.569435 0.194685 0.005703
0.604549 0.194395 0.005413
0.639030 0.194111 0.005129
0.672894 0.193832 0.004850
0.706154 0.193558 0.004576
0.738821 0.193288 0.004306
0.770908 0.193024 0.004042
0.802423 0.192764 0.003782
0.833378 0.192509 0.003527
0.863779 0.192258 0.003276
0.893635 0.192012 0.003030
0.922955 0.191770 0.002788
0.951743 0.191533 0.002551
0.980009 0.191300 0.002318
1.000000 0.191071 0.002089
1.000000 0.190847 0.001865
1.000000 0.190626 0.001644
0.042047 0.230314 0.009158
0.076922 0.230027 0.008871
0.111294 0.229743 0.008588
0.145500 0.229461 0.008306
0.179705 0.229179 0.008024
0.214003 0.228896 0.007741
0.248456 0.228612 0.007457
0.283106 0.228327 0.007171
0.317984 0.228039 0.006884
0.353111 0.227750 0.006594
0.388506 0.227458 0.006302
0.424183 0.227164 0.006008
0.460151 0.226867 0.005711
0.496420 0.226568 0.005412
0.532788 0.226268 0.005113
0.568550 0.225973 0.004818
0.603664 0.225684 0.004528
0.638145 0.225400 0.004244
0.672009 0.225121 0.003965
0.705269 0.224846 0.003691
0.737936 0.224577 0.003421
0.770023 0.224312 0.003157
0.801538 0.224053 0.002897
0.832493 0.223797 0.002642
0.862894 0.223547 0.002391
0.892750 0.223301 0.002145
0.922069 0.223059 0.001903
0.950858 0.222822 0.001666
0.979124 0.222589 0.001433
1.000000 0.222360 0.001204
1.000000 0.222135 0.000980
1.000000 0.221915 0.000759
0.041151 0.261995 0.008262
0.076026 0.261708 0.007975
0.110398 0.261424 0.007691
0.144604 0.261142 0.007409
0.178808 0.260860 0.007127
0.213107 0.260578 0.006845
0.247560 0.260294 0.006561
0.282210 0.260008 0.006275
0.317087 0.259720 0.005987
0.352215 0.259431 0.005698
0.387610 0.259139 0.005406
0.423286 0.258845 0.005112
0.459255 0.258548 0.004815
0.495524 0.258249 0.004516
0.531892 0.257950 0.004217
0.567654 0.257655 0.003922
0.602768 0.257365 0.003632
0.637249 0.257081 0.003348
0.671113 0.256802 0.003069
0.704372 0.256528 0.002795
0.737040 0.256258 0.002525
0.769127 0.255994 0.002261
0.800642 0.255734 0.002001
0.831596 0.255479 0.001746
0.861998 0.255228 0.001495
0.891854 0.254982 0.001249
0.921173 0.254740 0.001007
0.949962 0.254503 0.000770
0.978227 0.254270 0.000537
1.000000 0.254041 0.000308
1.000000 0.253816 0.000083
1.000000 0.253596 0.000000
0.040243 0.294075 0.007355
0.075119 0.293788 0.007067
0.109490 0.293504 0.006784
0.143696 0.293222 0.006502
0.177901 0.292940 0.006220
0.212199 0.292658 0.005937
0.246652 0.292374 0.005653
0.281303 0.292088 0.005368
0.316180 0.291800 0.005080
0.351308 0.291511 0.004790
0.386703 0.291219 0.004499
0.422379 0.290925 0.004204
0.458347 0.290628 0.003908
0.494616 0.290329 0.003609
0.530985 0.290029 0.003309
0.566747 0.289735 0.003014
0.601860 0.289445 0.002725
0.636341 0.289161 0.002440
0.670205 0.288882 0.002161
0.703465 0.288607 0.001887
0.736133 0.288338 0.001618
0.768219 0.288074 0.001353
0.799735 0.287814 0.001093
0.830689 0.287559 0.000838
0.861090 0.287308 0.000588
0.890947 0.287062 0.000341
0.920266 0.286820 0.000100
0.949055 0.286583 0.000000
0.977320 0.286350 0.000000
1.000000 0.286121 0.000000
1.000000 0.285896 0.000000
1.000000 0.285676 0.000000
0.039324 0.326559 0.006436
0.074200 0.326271 0.006149
0.108571 0.325988 0.005865
0.142778 0.325706 0.005583
0.176982 0.325424 0.005301
0.211280 0.325141 0.005018
0.245734 0.324857 0.004734
0.280384 0.324571 0.004449
0.315261 0.324284 0.004161
0.350389 0.323994 0.003872
0.385784 0.323702 0.003580
0.421460 0.323408 0.003286
0.457428 0.323112 0.002989
0.493697 0.322813 0.002690
0.530066 0.322513 0.002390
0.565828 0.322218 0.002095
0.600941 0.321928 0.001806
0.635423 0.321644 0.001522
0.669286 0.321365 0.001242
0.702546 0.321091 0.000968
0.735214 0.320821 0.000699
0.767300 0.320557 0.000434
0.798816 0.320297 0.000175
0.829770 0.320042 0.000000
0.860171 0.319791 0.000000
0.890028 0.319545 0.000000
0.919347 0.319303 0.000000
0.948136 0.319066 0.000000
0.976401 0.318833 0.000000
1.000000 0.318604 0.000000
1.000000 0.318380 0.000000
1.000000 0.318159 0.000000
0.038394 0.359449 0.005506
0.073270 0.359161 0.005218
0.107641 0.358878 0.004935
0.141847 0.358596 0.004653
0.176052 0.358314 0.004371
0.210350 0.358031 0.004088
0.244803 0.357747 0.003804
0.279453 0.357462 0.003518
0.314331 0.357174 0.003231
0.349459 0.356884 0.002941
0.384854 0.356593 0.002649
0.420530 0.356299 0.002355
0.456498 0.356002 0.002059
0.492767 0.355703 0.001760
0.529135 0.355403 0.001460
0.564897 0.355108 0.001165
0.600011 0.354819 0.000876
0.634492 0.354535 0.000591
0.668356 0.354255 0.000312
0.701616 0.353981 0.000038
0.734283 0.353712 0.000000
0.766370 0.353447 0.000000
0.797886 0.353188 0.000000
0.828840 0.352932 0.000000
0.859241 0.352682 0.000000
0.889098 0.352436 0.000000
0.918417 0.352194 0.000000
0.947206 0.351956 0.000000
0.975471 0.351723 0.000000
1.000000 0.351495 0.000000
1.000000 0.351270 0.000000
1.000000 0.351050 0.000000
0.037452 0.392749 0.004564
0.072328 0.392462 0.004276
0.106699 0.392178 0.003993
0.140905 0.391896 0.003711
0.175110 0.391614 0.003429
0.209408 0.391332 0.003146
0.243861 0.391048 0.002862
0.278511 0.390762 0.002576
0.313389 0.390474 0.002289
0.348517 0.390185 0.001999
0.383912 0.389893 0.001708
0.419588 0.389599 0.001413
0.455556 0.389302 0.001117
0.491825 0.389003 0.000818
0.528194 0.388704 0.000518
0.563956 0.388409 0.000223
0.599069 0.388119 0.000000
0.633550 0.387835 0.000000
0.667414 0.387556 0.000000
0.700674 0.387282 0.000000
0.733341 0.387012 0.000000
0.765428 0.386748 0.000000
0.796944 0.386488 0.000000
0.827898 0.386233 0.000000
0.858299 0.385982 0.000000
0.888156 0.385736 0.000000
0.917475 0.385494 0.000000
0.946264 0.385257 0.000000
0.974529 0.385024 0.000000
1.000000 0.384795 0.000000
1.000000 0.384571 0.000000
1.000000 0.384350 0.000000
0.036499 0.426462 0.003610
0.071374 0.426174 0.003323
0.105746 0.425891 0.003039
0.139952 0.425609 0.002757
0.174156 0.425327 0.002475
0.208455 0.425044 0.002193
0.242908 0.424760 0.001909
0.277558 0.424475 0.001623
0.312435 0.424187 0.001335
0.347563 0.423897 0.001046
0.382958 0.423606 0.000754
0.418634 0.423312 0.000460
0.454603 0.423015 0.000163
0.490872 0.422716 0.000000
0.527240 0.422416 0.000000
0.563002 0.422121 0.000000
0.598115 0.421832 0.000000
0.632597 0.421548 0.000000
0.666461 0.421268 0.000000
0.699720 0.420994 0.000000
0.732388 0.420725 0.000000
0.764474 0.420460 0.000000
0.795990 0.420200 0.000000
0.826944 0.419945 0.000000
0.857346 0.419695 0.000000
0.887202 0.419449 0.000000
0.916521 0.419207 0.000000
0.945310 0.418969 0.000000
0.973575 0.418736 0.000000
1.000000 0.418508 0.000000
1.000000 0.418283 0.000000
1.000000 0.418063 0.000000
0.035533 0.460589 0.002645
0.070409 0.460301 0.002357
0.104780 0.460018 0.002074
0.138986 0.459736 0.001792
0.173191 0.459454 0.001510
0.207489 0.459171 0.001227
0.241942 0.458887 0.000943
0.276593 0.458601 0.000658
0.311470 0.458314 0.000370
0.346598 0.458024 0.000080
0.381993 0.457732 0.000000
0.417669 0.457438 0.000000
0.453637 0.457142 0.000000
0.489906 0.456843 0.000000
0.526275 0.456543 0.000000
0.562037 0.456248 0.000000
0.597150 0.455959 0.000000
0.631631 0.455674 0.000000
0.665495 0.455395 0.000000
0.698755 0.455121 0.000000
0.731423 0.454852 0.000000
0.763509 0.454587 0.000000
0.795025 0.454327 0.000000
0.825979 0.454072 0.000000
0.856380 0.453821 0.000000
0.886237 0.453575 0.000000
0.915556 0.453333 0.000000
0.944345 0.453096 0.000000
0.972610 0.452863 0.000000
1.000000 0.452634 0.000000
1.000000 0.452410 0.000000
1.000000 0.452189 0.000000
0.034556 0.495131 0.001668
0.069432 0.494843 0.001380
0.103803 0.494560 0.001097
0.138009 0.494278 0.000815
0.172214 0.493996 0.000533
0.206512 0.493713 0.000250
0.240965 0.493429 0.000000
0.275615 0.493144 0.000000
0.310493 0.492856 0.000000
0.345621 0.492566 0.000000
0.381016 0.492275 0.000000
0.416692 0.491980 0.000000
0.452660 0.491684 0.000000
0.488929 0.491385 0.000000
0.525298 0.491085 0.000000
0.561060 0.490790 0.000000
0.596173 0.490501 0.000000
0.630654 0.490216 0.000000
0.664518 0.489937 0.000000
0.697778 0.489663 0.000000
0.730446 0.489394 0.000000
0.762532 0.489129 0.000000
0.794048 0.488869 0.000000
0.825002 0.488614 0.000000
0.855403 0.488364 0.000000
0.885260 0.488117 0.000000
0.914579 0.487876 0.000000
0.943368 0.487638 0.000000
0.971633 0.487405 0.000000
0.999381 0.487177 0.000000
1.000000 0.486952 0.000000
1.000000 0.486732 0.000000
0.033574 0.529859 0.000686
0.068450 0.529571 0.000398
0.102821 0.529288 0.000115
0.137027 0.529006 0.000000
0.171232 0.528724 0.000000
0.205530 0.528441 0.000000
0.239983 0.528157 0.000000
0.274633 0.527871 0.000000
0.309511 0.527584 0.000000
0.344638 0.527294 0.000000
0.380033 0.527002 0.000000
0.415710 0.526708 0.000000
0.451678 0.526412 0.000000
0.487947 0.526113 0.000000
0.524315 0.525813 0.000000
0.560077 0.525518 0.000000
0.595191 0.525229 0.000000
0.629672 0.524944 0.000000
0.663536 0.524665 0.000000
0.696796 0.524391 0.000000
0.729463 0.524122 0.000000
0.761550 0.523857 0.000000
0.793066 0.523597 0.000000
0.824020 0.523342 0.000000
0.854421 0.523091 0.000000
0.884277 0.522845 0.000000
0.913597 0.522604 0.000000
0.942386 0.522366 0.000000
0.970651 0.522133 0.000000
0.998398 0.521904 0.000000
1.000000 0.521680 0.000000
1.000000 0.521459 0.000000
0.032605 0.564125 0.000000
0.067480 0.563838 0.000000
0.101852 0.563554 0.000000
0.136058 0.563272 0.000000
0.170262 0.562990 0.000000
0.204561 0.562708 0.000000
0.239014 0.562424 0.000000
0.273664 0.562138 0.000000
0.308541 0.561850 0.000000
0.343669 0.561561 0.000000
0.379064 0.561269 0.000000
0.414740 0.560975 0.000000
0.450709 0.560678 0.000000
0.486978 0.560379 0.000000
0.523346 0.560080 0.000000
0.559108 0.559785 0.000000
0.594222 0.559495 0.000000
0.628703 0.559211 0.000000
0.662567 0.558932 0.000000
0.695826 0.558658 0.000000
0.728494 0.558388 0.000000
0.760581 0.558124 0.000000
0.792096 0.557864 0.000000
0.823050 0.557609 0.000000
0.853452 0.557358 0.000000
0.883308 0.557112 0.000000
0.912627 0.556870 0.000000
0.941416 0.556633 0.000000
0.969681 0.556400 0.000000
0.997429 0.556171 0.000000
1.000000 0.555946 0.000000
1.000000 0.555726 0.000000
0.031649 0.597896 0.000000
0.066525 0.597608 0.000000
0.100897 0.597325 0.000000
0.135103 0.597043 0.000000
0.169307 0.596761 0.000000
0.203605 0.596478 0.000000
0.238059 0.596194 0.000000
0.272709 0.595909 0.000000
0.307586 0.595621 0.000000
0.342714 0.595331 0.000000
0.378109 0.595040 0.000000
0.413785 0.594745 0.000000
0.449753 0.594449 0.000000
0.486022 0.594150 0.000000
0.522391 0.593850 0.000000
0.558153 0.593555 0.000000
0.593266 0.593266 0.000000
0.627748 0.592981 0.000000
0.661611 0.592702 0.000000
0.694871 0.592428 0.000000
0.727539 0.592159 0.000000
0.759625 0.591894 0.000000
0.791141 0.591634 0.000000
0.822095 0.591379 0.000000
0.852496 0.591129 0.000000
0.882353 0.590882 0.000000
0.911672 0.590641 0.000000
0.940461 0.590403 0.000000
0.968726 0.590170 0.000000
0.996474 0.589942 0.000000
1.000000 0.589717 0.000000
1.000000 0.589497 0.000000
0.030708 0.631174 0.000000
0.065584 0.630886 0.000000
0.099955 0.630603 0.000000
0.134161 0.630321 0.000000
0.168366 0.630039 0.000000
0.202664 0.629756 0.000000
0.237117 0.629472 0.000000
0.271767 0.629187 0.000000
0.306645 0.628899 0.000000
0.341773 0.628609 0.000000
0.377168 0.628318 0.000000
0.412844 0.628023 0.000000
0.448812 0.627727 0.000000
0.485081 0.627428 0.000000
0.521449 0.627128 0.000000
0.557212 0.626833 0.000000
0.592325 0.626544 0.000000
0.626806 0.626260 0.000000
0.660670 0.625980 0.000000
0.693930 0.625706 0.000000
0.726597 0.625437 0.000000
0.758684 0.625172 0.000000
0.790200 0.624912 0.000000
0.821154 0.624657 0.000000
0.851555 0.624407 0.000000
0.881412 0.624160 0.000000
0.910731 0.623919 0.000000
0.939520 0.623681 0.000000
0.967785 0.623448 0.000000
0.995532 0.623220 0.000000
1.000000 0.622995 0.000000
1.000000 0.622775 0.000000
0.029781 0.663963 0.000000
0.064656 0.663675 0.000000
0.099028 0.663392 0.000000
0.133234 0.663110 0.000000
0.167438 0.662828 0.000000
0.201737 0.662545 0.000000
0.236190 0.662261 0.000000
0.270840 0.661975 0.000000
0.305718 0.661688 0.000000
0.340845 0.661398 0.000000
0.376240 0.661106 0.000000
0.411916 0.660812 0.000000
0.447885 0.660516 0.000000
0.484154 0.660217 0.000000
0.520522 0.659917 0.000000
0.556284 0.659622 0.000000
0.591398 0.659332 0.000000
0.625879 0.659048 0.000000
0.659743 0.658769 0.000000
0.693002 0.658495 0.000000
0.725670 0.658225 0.000000
0.757757 0.657961 0.000000
0.789272 0.657701 0.000000
0.820226 0.657446 0.000000
0.850628 0.657195 0.000000
0.880484 0.656949 0.000000
0.909803 0.656707 0.000000
0.938592 0.656470 0.000000
0.966857 0.656237 0.000000
0.994605 0.656008 0.000000
1.000000 0.655784 0.000000
1.000000 0.655563 0.000000
0.028867 0.696265 0.000000
0.063743 0.695977 0.000000
0.098114 0.695694 0.000000
0.132320 0.695412 0.000000
0.166525 0.695130 0.000000
0.200823 0.694847 0.000000
0.235276 0.694563 0.000000
0.269926 0.694278 0.000000
0.304804 0.693990 0.000000
0.339931 0.693700 0.000000
0.375327 0.693409 0.000000
0.411003 0.693114 0.000000
0.446971 0.692818 0.000000
0.483240 0.692519 0.000000
0.519608 0.692219 0.000000
0.555370 0.691924 0.000000
0.590484 0.691635 0.000000
0.624965 0.691350 0.000000
0.658829 0.691071 0.000000
0.692089 0.690797 0.000000
0.724756 0.690528 0.000000
0.756843 0.690263 0.000000
0.788359 0.690003 0.000000
0.819313 0.689748 0.000000
0.849714 0.689498 0.000000
0.879571 0.689251 0.000000
0.908890 0.689010 0.000000
0.937679 0.688772 0.000000
0.965944 0.688539 0.000000
0.993691 0.688311 0.000000
1.000000 0.688086 0.000000
1.000000 0.687866 0.000000
0.027967 0.728084 0.000000
0.062843 0.727796 0.000000
0.097214 0.727513 0.000000
0.131420 0.727231 0.000000
0.165625 0.726949 0.000000
0.199923 0.726666 0.000000
0.234376 0.726382 0.000000
0.269026 0.726096 0.000000
0.303904 0.725809 0.000000
0.339031 0.725519 0.000000
0.374427 0.725227 0.000000
0.410103 0.724933 0.000000
0.446071 0.724637 0.000000
0.482340 0.724338 0.000000
0.518708 0.724038 0.000000
0.554470 0.723743 0.000000
0.589584 0.723453 0.000000
0.624065 0.723169 0.000000
0.657929 0.722890 0.000000
0.691189 0.722616 0.000000
0.723856 0.722346 0.000000
0.755943 0.722082 0.000000
0.787459 0.721822 0.000000
0.818413 0.721567 0.000000
0.848814 0.721316 0.000000
0.878671 0.721070 0.000000
0.907990 0.720828 0.000000
0.936779 0.720591 0.000000
0.965044 0.720358 0.000000
0.992791 0.720129 0.000000
1.000000 0.719905 0.000000
1.000000 0.719684 0.000000
0.027081 0.759421 0.000000
0.061956 0.759134 0.000000
0.096328 0.758850 0.000000
0.130534 0.758568 0.000000
0.164738 0.758286 0.000000
0.199037 0.758003 0.000000
0.233490 0.757719 0.000000
0.268140 0.757434 0.000000
0.303017 0.757146 0.000000
0.338145 0.756857 0.000000
0.373540 0.756565 0.000000
0.409216 0.756271 0.000000
0.445185 0.755974 0.000000
0.481454 0.755675 0.000000
0.517822 0.755375 0.000000
0.553584 0.755080 0.000000
0.588697 0.754791 0.000000
0.623179 0.754507 0.000000
0.657043 0.754227 0.000000
0.690302 0.753953 0.000000
0.722970 0.753684 0.000000
0.755056 0.753419 0.000000
0.786572 0.753160 0.000000
0.817526 0.752904 0.000000
0.847928 0.752654 0.000000
0.877784 0.752408 0.000000
0.907103 0.752166 0.000000
0.935892 0.751928 0.000000
0.964157 0.751695 0.000000
0.991905 0.751467 0.000000
1.000000 0.751242 0.000000
1.000000 0.751022 0.000000
0.026208 0.790280 0.000000
0.061083 0.789992 0.000000
0.095455 0.789709 0.000000
0.129661 0.789427 0.000000
0.163865 0.789145 0.000000
0.198164 0.788862 0.000000
0.232617 0.788578 0.000000
0.267267 0.788292 0.000000
0.302145 0.788005 0.000000
0.337272 0.787715 0.000000
0.372667 0.787423 0.000000
0.408344 0.787129 0.000000
0.444312 0.786833 0.000000
0.480581 0.786534 0.000000
0.516949 0.786234 0.000000
0.552711 0.785939 0.000000
0.587825 0.785650 0.000000
0.622306 0.785365 0.000000
0.656170 0.785086 0.000000
0.689429 0.784812 0.000000
0.722097 0.784543 0.000000
0.754184 0.784278 0.000000
0.785699 0.784018 0.000000
0.816653 0.783763 0.000000
0.847055 0.783512 0.000000
0.876911 0.783266 0.000000
0.906230 0.783024 0.000000
0.935019 0.782787 0.000000
0.963284 0.782554 0.000000
0.991032 0.782325 0.000000
1.000000 0.782101 0.000000
1.000000 0.781880 0.000000
0.025348 0.820662 0.000000
0.060224 0.820374 0.000000
0.094595 0.820091 0.000000
0.128801 0.819809 0.000000
0.163006 0.819527 0.000000
0.197304 0.819244 0.000000
0.231757 0.818960 0.000000
0.266408 0.818674 0.000000
0.301285 0.818387 0.000000
0.336413 0.818097 0.000000
0.371808 0.817805 0.000000
0.407484 0.817511 0.000000
0.443452 0.817215 0.000000
0.479721 0.816916 0.000000
0.516090 0.816616 0.000000
0.551852 0.816321 0.000000
0.586965 0.816032 0.000000
0.621447 0.815747 0.000000
0.655310 0.815468 0.000000
0.688570 0.815194 0.000000
0.721238 0.814925 0.000000
0.753324 0.814660 0.000000
0.784840 0.814400 0.000000
0.815794 0.814145 0.000000
0.846195 0.813894 0.000000
0.876052 0.813648 0.000000
0.905371 0.813407 0.000000
0.934160 0.813169 0.000000
0.962425 0.812936 0.000000
0.990173 0.812707 0.000000
1.000000 0.812483 0.000000
1.000000 0.812262 0.000000
0.024502 0.850569 0.000000
0.059378 0.850282 0.000000
0.093749 0.849998 0.000000
0.127956 0.849716 0.000000
0.162160 0.849434 0.000000
0.196458 0.849151 0.000000
0.230912 0.848867 0.000000
0.265562 0.848582 0.000000
0.300439 0.848294 0.000000
0.335567 0.848005 0.000000
0.370962 0.847713 0.000000
0.406638 0.847419 0.000000
0.442606 0.847122 0.000000
0.478875 0.846823 0.000000
0.515244 0.846523 0.000000
0.551006 0.846228 0.000000
0.586119 0.845939 0.000000
0.620601 0.845655 0.000000
0.654464 0.845375 0.000000
0.687724 0.845101 0.000000
0.720392 0.844832 0.000000
0.752478 0.844567 0.000000
0.783994 0.844308 0.000000
0.814948 0.844052 0.000000
0.845349 0.843802 0.000000
0.875206 0.843556 0.000000
0.904525 0.843314 0.000000
0.933314 0.843077 0.000000
0.961579 0.842843 0.000000
0.989327 0.842615 0.000000
1.000000 0.842390 0.000000
1.000000 0.842170 0.000000
0.023670 0.880004 0.000000
0.058545 0.879716 0.000000
0.092917 0.879433 0.000000
0.127123 0.879151 0.000000
0.161328 0.878869 0.000000
0.195626 0.878586 0.000000
0.230079 0.878302 0.000000
0.264729 0.878016 0.000000
0.299607 0.877729 0.000000
0.334734 0.877439 0.000000
0.370129 0.877147 0.000000
0.405806 0.876853 0.000000
0.441774 0.876557 0.000000
0.478043 0.876258 0.000000
0.514411 0.875958 0.000000
0.550173 0.875663 0.000000
0.585287 0.875374 0.000000
0.619768 0.875089 0.000000
