assets/luts/douyin_doll.cube
# Beauty Camera 3D LUT
# Filter: Búp Bê (douyin_doll)
# Category: Douyin
TITLE "Búp Bê"
LUT_3D_SIZE 5
DOMAIN_MIN 0.000000 0.000000 0.000000
DOMAIN_MAX 0.903226 0.903226 0.903226
0.000000 0.000000 0.000000
0.266675 0.000000 0.000000
0.533086 0.000000 0.000000
0.802121 0.000000 0.000000
0.938869 0.000000 0.000000
0.000000 0.218278 0.000000
0.266675 0.218278 0.000000
0.533086 0.218278 0.000000
0.802121 0.218278 0.000000
0.938869 0.218278 0.000000
0.000000 0.472441 0.000000
0.266675 0.472441 0.000000
0.533086 0.472441 0.000000
0.802121 0.472441 0.000000
0.938869 0.472441 0.000000
0.000000 0.729240 0.000000
0.266675 0.729240 0.000000
0.533086 0.729240 0.000000
0.802121 0.729240 0.000000
0.938869 0.729240 0.000000
0.000000 0.916029 0.000000
0.266675 0.916029 0.000000
0.533086 0.916029 0.000000
0.802121 0.916029 0.000000
0.938869 0.916029 0.000000
0.000000 0.000000 0.262591
0.266675 0.000000 0.262591
0.533086 0.000000 0.262591
0.802121 0.000000 0.262591
0.938869 0.000000 0.262591
0.000000 0.218278 0.262591
0.266675 0.218278 0.262591
0.533086 0.153447 0.195613
0.802121 0.087763 0.127120
0.938869 0.020743 0.056369
0.000000 0.472441 0.262591
0.266675 0.472441 0.262591
0.533086 0.472441 0.262591
0.802121 0.472441 0.262591
0.938869 0.346190 0.056369
0.000000 0.729240 0.262591
0.266675 0.729240 0.262591
0.533086 0.729240 0.262591
0.802121 0.729240 0.262591
0.938869 0.729240 0.262591
0.000000 0.916029 0.262591
0.266675 0.916029 0.262591
0.533086 0.916029 0.262591
0.802121 0.916029 0.262591
0.938869 0.916029 0.262591
0.000000 0.000000 0.521067
0.266675 0.000000 0.521067
0.533086 0.000000 0.521067
0.802121 0.000000 0.521067
0.938869 0.000000 0.521067
0.000000 0.218278 0.521067
0.266675 0.218278 0.521067
0.533086 0.218278 0.521067
0.802121 0.087763 0.457536
0.938869 0.020743 0.393360
0.000000 0.472441 0.521067
0.266675 0.472441 0.521067
0.533086 0.472441 0.521067
0.802121 0.409490 0.457536
0.938869 0.346190 0.393360
0.000000 0.729240 0.521067
0.266675 0.729240 0.521067
0.533086 0.729240 0.521067
0.802121 0.729240 0.521067
0.938869 0.659612 0.393360
0.000000 0.916029 0.521067
0.266675 0.916029 0.521067
0.533086 0.916029 0.521067
0.802121 0.916029 0.521067
0.938869 0.916029 0.521067
0.000000 0.000000 0.785201
0.266675 0.000000 0.785201
0.533086 0.000000 0.785201
0.802121 0.000000 0.785201
0.938869 0.000000 0.785201
0.000000 0.218278 0.785201
0.266675 0.218278 0.785201
0.533086 0.218278 0.785201
0.802121 0.218278 0.785201
0.938869 0.218278 0.785201
0.000000 0.472441 0.785201
0.266675 0.472441 0.785201
0.533086 0.472441 0.785201
0.802121 0.472441 0.785201
0.938869 0.346190 0.711947
0.000000 0.729240 0.785201
0.266675 0.729240 0.785201
0.533086 0.729240 0.785201
0.802121 0.729240 0.785201
0.938869 0.659612 0.711947
0.000000 0.916029 0.785201
0.266675 0.916029 0.785201
0.533086 0.916029 0.785201
0.802121 0.916029 0.785201
0.938869 0.916029 0.785201
0.000000 0.000000 0.932497
0.266675 0.000000 0.932497
0.533086 0.000000 0.932497
0.802121 0.000000 0.932497
0.938869 0.000000 0.932497
0.000000 0.218278 0.932497
0.266675 0.218278 0.932497
0.533086 0.218278 0.932497
0.802121 0.218278 0.932497
0.938869 0.218278 0.932497
0.000000 0.472441 0.932497
0.266675 0.472441 0.932497
0.533086 0.472441 0.932497
0.802121 0.472441 0.932497
0.938869 0.472441 0.932497
0.000000 0.729240 0.932497
0.266675 0.729240 0.932497
0.533086 0.729240 0.932497
0.802121 0.729240 0.932497
0.938869 0.729240 0.932497
0.000000 0.916029 0.932497
0.266675 0.916029 0.932497
0.533086 0.916029 0.932497
0.802121 0.916029 0.932497
0.938869 0.916029 0.932497
