assets/luts/douyin_radiant.cube
# Beauty Camera 3D LUT
# Filter: Phát Sáng (douyin_radiant)
# Category: Douyin
TITLE "Phát Sáng"
LUT_3D_SIZE 32
DOMAIN_MIN 0.0 0.0 0.0
DOMAIN_MAX 1.0 1.0 1.0
0.017553 0.015949 0.014437
0.063950 0.015206 0.013695
0.106424 0.014527 0.013015
0.147486 0.013870 0.012358
0.187876 0.013223 0.011712
0.227944 0.012582 0.011071
0.267889 0.011943 0.010431
0.307835 0.011304 0.009792
0.347867 0.010664 0.009152
0.388045 0.010021 0.008509
0.428414 0.009375 0.007863
0.469007 0.008725 0.007214
0.509850 0.008072 0.006560
0.550785 0.007417 0.005905
0.590770 0.006777 0.005265
0.629674 0.006155 0.004643
0.667545 0.005549 0.004037
0.706256 0.004959 0.003447
0.752444 0.004384 0.002872
0.790453 0.003824 0.002312
0.821872 0.003278 0.001766
0.847955 0.002746 0.001234
0.869700 0.002227 0.000716
0.887899 0.001722 0.000210
0.903190 0.001229 0.000000
0.916085 0.000749 0.000000
0.926999 0.000281 0.000000
0.936268 0.000000 0.000000
0.944167 0.000000 0.000000
0.950921 0.000000 0.000000
0.956714 0.000000 0.000000
0.961698 0.000000 0.000000
0.015201 0.057989 0.012085
0.061598 0.057247 0.011343
0.104072 0.056567 0.010663
0.145134 0.055910 0.010006
0.185524 0.055264 0.009360
0.225593 0.054623 0.008719
0.265537 0.053984 0.008080
0.305483 0.053345 0.007441
0.345515 0.052704 0.006800
0.385693 0.052061 0.006157
0.426062 0.051415 0.005511
0.466655 0.050766 0.004862
0.507498 0.050112 0.004208
0.548433 0.049457 0.003553
0.588418 0.048818 0.002914
0.627322 0.048195 0.002291
0.665194 0.047589 0.001685
0.702948 0.046999 0.001095
0.749656 0.046424 0.000520
0.788093 0.045864 0.000000
0.819866 0.045318 0.000000
0.846243 0.044786 0.000000
0.868232 0.044268 0.000000
0.886636 0.043762 0.000000
0.902099 0.043270 0.000000
0.915140 0.042789 0.000000
0.926177 0.042321 0.000000
0.935550 0.041865 0.000000
0.943539 0.041420 0.000000
0.950368 0.040987 0.000000
0.956226 0.040565 0.000000
0.961266 0.040154 0.000000
0.013022 0.096930 0.009907
0.059420 0.096188 0.009164
0.101894 0.095508 0.008485
0.142956 0.094851 0.007828
0.183346 0.094205 0.007181
0.223414 0.093564 0.006540
0.263359 0.092925 0.005901
0.303304 0.092286 0.005262
0.343336 0.091645 0.004622
0.383515 0.091002 0.003979
0.423884 0.090357 0.003333
0.464477 0.089707 0.002683
0.505319 0.089054 0.002030
0.546255 0.088399 0.001375
0.586240 0.087759 0.000735
0.625144 0.087136 0.000113
0.663015 0.086530 0.000000
0.699895 0.085940 0.000000
0.747046 0.085366 0.000000
0.785884 0.084805 0.000000
0.817988 0.084260 0.000000
0.844640 0.083728 0.000000
0.866858 0.083209 0.000000
0.885454 0.082704 0.000000
0.901078 0.082211 0.000000
0.914255 0.081731 0.000000
0.925407 0.081262 0.000000
0.934878 0.080806 0.000000
0.942950 0.080362 0.000000
0.949851 0.079928 0.000000
0.955770 0.079506 0.000000
0.960862 0.079095 0.000000
0.010904 0.134795 0.007788
0.057302 0.134052 0.007046
0.099776 0.133373 0.006366
0.140837 0.132716 0.005710
0.181228 0.132069 0.005063
0.221296 0.131428 0.004422
0.261240 0.130789 0.003783
0.301186 0.130150 0.003144
0.341218 0.129510 0.002503
0.381397 0.128867 0.001861
0.421765 0.128221 0.001215
0.462358 0.127571 0.000565
0.503201 0.126918 0.000000
0.544137 0.126263 0.000000
0.584121 0.125623 0.000000
0.623026 0.125001 0.000000
0.660897 0.124395 0.000000
0.697777 0.123805 0.000000
0.744482 0.123230 0.000000
0.783713 0.122670 0.000000
0.816142 0.122124 0.000000
0.843065 0.121592 0.000000
0.865508 0.121073 0.000000
0.884293 0.120568 0.000000
0.900076 0.120075 0.000000
0.913386 0.119595 0.000000
0.924651 0.119127 0.000000
0.934218 0.118670 0.000000
0.942371 0.118226 0.000000
0.949342 0.117793 0.000000
0.955321 0.117371 0.000000
0.960466 0.116960 0.000000
0.008812 0.172184 0.005697
0.055210 0.171442 0.004954
0.097684 0.170762 0.004275
0.138746 0.170105 0.003618
0.179136 0.169459 0.002972
0.219204 0.168818 0.002331
0.259149 0.168179 0.001691
0.299095 0.167540 0.001052
0.339127 0.166899 0.000412
0.379305 0.166256 0.000000
0.419674 0.165610 0.000000
0.460267 0.164961 0.000000
0.501110 0.164307 0.000000
0.542045 0.163652 0.000000
0.582030 0.163013 0.000000
0.620934 0.162390 0.000000
0.658805 0.161784 0.000000
0.695685 0.161194 0.000000
0.741924 0.160619 0.000000
0.781548 0.160059 0.000000
0.814302 0.159514 0.000000
0.841494 0.158982 0.000000
0.864162 0.158463 0.000000
0.883135 0.157957 0.000000
0.899075 0.157465 0.000000
0.912519 0.156984 0.000000
0.923896 0.156516 0.000000
0.933560 0.156060 0.000000
0.941795 0.155615 0.000000
0.948835 0.155182 0.000000
0.954874 0.154760 0.000000
0.960070 0.154349 0.000000
0.006731 0.209384 0.003616
0.053129 0.208642 0.002873
0.095603 0.207962 0.002194
0.136665 0.207305 0.001537
0.177055 0.206659 0.000891
0.217123 0.206018 0.000250
0.257068 0.205379 0.000000
0.297014 0.204740 0.000000
0.337046 0.204099 0.000000
0.377224 0.203456 0.000000
0.417593 0.202810 0.000000
0.458186 0.202161 0.000000
0.499029 0.201507 0.000000
0.539964 0.200852 0.000000
0.579949 0.200213 0.000000
0.618853 0.199590 0.000000
0.656724 0.198984 0.000000
0.693604 0.198394 0.000000
0.739354 0.197819 0.000000
0.779373 0.197259 0.000000
0.812453 0.196714 0.000000
0.839915 0.196182 0.000000
0.862809 0.195663 0.000000
0.881971 0.195157 0.000000
0.898070 0.194665 0.000000
0.911647 0.194184 0.000000
0.923138 0.193716 0.000000
0.932898 0.193260 0.000000
0.941215 0.192815 0.000000
0.948326 0.192382 0.000000
0.954425 0.191960 0.000000
0.959672 0.191549 0.000000
0.004652 0.246557 0.001536
0.051050 0.245815 0.000794
0.093523 0.245135 0.000114
0.134585 0.244478 0.000000
0.174976 0.243832 0.000000
0.215044 0.243191 0.000000
0.254988 0.242552 0.000000
0.294934 0.241913 0.000000
0.334966 0.241272 0.000000
0.375144 0.240629 0.000000
0.415513 0.239983 0.000000
0.456106 0.239334 0.000000
0.496949 0.238680 0.000000
0.537885 0.238025 0.000000
0.577869 0.237386 0.000000
0.616774 0.236763 0.000000
0.654645 0.236157 0.000000
0.691525 0.235567 0.000000
0.736760 0.234992 0.000000
0.777177 0.234432 0.000000
0.810586 0.233886 0.000000
0.838322 0.233354 0.000000
0.861444 0.232836 0.000000
0.880796 0.232330 0.000000
0.897056 0.231838 0.000000
0.910768 0.231357 0.000000
0.922374 0.230889 0.000000
0.932230 0.230433 0.000000
0.940630 0.229988 0.000000
0.947812 0.229555 0.000000
0.953971 0.229133 0.000000
0.959271 0.228722 0.000000
0.002568 0.283806 0.000000
0.048966 0.283063 0.000000
0.091440 0.282384 0.000000
0.132502 0.281727 0.000000
0.172892 0.281080 0.000000
0.212960 0.280439 0.000000
0.252905 0.279800 0.000000
0.292850 0.279161 0.000000
0.332882 0.278521 0.000000
0.373061 0.277878 0.000000
0.413430 0.277232 0.000000
0.454023 0.276582 0.000000
0.494865 0.275929 0.000000
0.535801 0.275274 0.000000
0.575786 0.274634 0.000000
0.614690 0.274012 0.000000
0.652561 0.273406 0.000000
0.689441 0.272816 0.000000
0.734135 0.272241 0.000000
0.774955 0.271681 0.000000
0.808697 0.271135 0.000000
0.836710 0.270603 0.000000
0.860062 0.270084 0.000000
0.879608 0.269579 0.000000
0.896029 0.269086 0.000000
0.909878 0.268606 0.000000
0.921599 0.268138 0.000000
0.931554 0.267681 0.000000
0.940038 0.267237 0.000000
0.947291 0.266804 0.000000
0.953512 0.266382 0.000000
0.958865 0.265971 0.000000
0.000476 0.321199 0.000000
0.046874 0.320457 0.000000
0.089348 0.319777 0.000000
0.130410 0.319120 0.000000
0.170800 0.318474 0.000000
0.210868 0.317833 0.000000
0.250813 0.317194 0.000000
0.290758 0.316555 0.000000
0.330790 0.315914 0.000000
0.370969 0.315272 0.000000
0.411338 0.314626 0.000000
0.451931 0.313976 0.000000
0.492773 0.313323 0.000000
0.533709 0.312668 0.000000
0.573694 0.312028 0.000000
0.612598 0.311405 0.000000
0.650469 0.310799 0.000000
0.687349 0.310209 0.000000
0.731473 0.309635 0.000000
0.772702 0.309074 0.000000
0.806782 0.308529 0.000000
0.835075 0.307997 0.000000
0.858661 0.307478 0.000000
0.878402 0.306973 0.000000
0.894989 0.306480 0.000000
0.908976 0.306000 0.000000
0.920815 0.305531 0.000000
0.930869 0.305075 0.000000
0.939438 0.304631 0.000000
0.946763 0.304197 0.000000
0.953047 0.303775 0.000000
0.958453 0.303364 0.000000
0.000000 0.358788 0.000000
0.044771 0.358046 0.000000
0.087245 0.357366 0.000000
0.128307 0.356709 0.000000
0.168697 0.356063 0.000000
0.208766 0.355422 0.000000
0.248710 0.354782 0.000000
0.288656 0.354143 0.000000
0.328688 0.353503 0.000000
0.368866 0.352860 0.000000
0.409235 0.352214 0.000000
0.449828 0.351565 0.000000
0.490671 0.350911 0.000000
0.531606 0.350256 0.000000
0.571591 0.349616 0.000000
0.610495 0.348994 0.000000
0.648366 0.348388 0.000000
0.685246 0.347798 0.000000
0.728771 0.347223 0.000000
0.770415 0.346663 0.000000
0.804838 0.346117 0.000000
0.833416 0.345585 0.000000
0.857239 0.345067 0.000000
0.877179 0.344561 0.000000
0.893932 0.344068 0.000000
0.908060 0.343588 0.000000
0.920018 0.343120 0.000000
0.930174 0.342664 0.000000
0.938828 0.342219 0.000000
0.946228 0.341786 0.000000
0.952574 0.341364 0.000000
0.958035 0.340953 0.000000
0.000000 0.396607 0.000000
0.042655 0.395865 0.000000
0.085129 0.395185 0.000000
0.126191 0.394528 0.000000
0.166582 0.393882 0.000000
0.206650 0.393241 0.000000
0.246594 0.392602 0.000000
0.286540 0.391963 0.000000
0.326572 0.391322 0.000000
0.366750 0.390679 0.000000
0.407119 0.390033 0.000000
0.447712 0.389384 0.000000
0.488555 0.388730 0.000000
0.529491 0.388076 0.000000
0.569475 0.387436 0.000000
0.608380 0.386813 0.000000
0.646251 0.386207 0.000000
0.683131 0.385617 0.000000
0.726025 0.385042 0.000000
0.768090 0.384482 0.000000
0.802862 0.383937 0.000000
0.831729 0.383405 0.000000
0.855794 0.382886 0.000000
0.875935 0.382381 0.000000
0.892858 0.381888 0.000000
0.907129 0.381407 0.000000
0.919208 0.380939 0.000000
0.929466 0.380483 0.000000
0.938209 0.380038 0.000000
0.945683 0.379605 0.000000
0.952094 0.379183 0.000000
0.957610 0.378772 0.000000
0.000000 0.434685 0.000000
0.040525 0.433943 0.000000
0.082999 0.433263 0.000000
0.124061 0.432606 0.000000
0.164452 0.431960 0.000000
0.204520 0.431319 0.000000
0.244464 0.430680 0.000000
0.284410 0.430041 0.000000
0.324442 0.429400 0.000000
0.364620 0.428757 0.000000
0.404989 0.428111 0.000000
0.445582 0.427462 0.000000
0.486425 0.426808 0.000000
0.527361 0.426153 0.000000
0.567345 0.425514 0.000000
0.606249 0.424891 0.000000
0.644121 0.424285 0.000000
0.681001 0.423695 0.000000
0.723232 0.423120 0.000000
0.765726 0.422560 0.000000
0.800852 0.422014 0.000000
0.830013 0.421482 0.000000
0.854323 0.420964 0.000000
0.874670 0.420458 0.000000
0.891765 0.419966 0.000000
0.906182 0.419485 0.000000
0.918384 0.419017 0.000000
0.928747 0.418561 0.000000
0.937579 0.418116 0.000000
0.945129 0.417683 0.000000
0.951606 0.417261 0.000000
0.957178 0.416850 0.000000
0.000000 0.473043 0.000000
0.038380 0.472300 0.000000
0.080854 0.471621 0.000000
0.121915 0.470964 0.000000
0.162306 0.470318 0.000000
0.202374 0.469676 0.000000
0.242318 0.469037 0.000000
0.282264 0.468398 0.000000
0.322296 0.467758 0.000000
0.362474 0.467115 0.000000
0.402843 0.466469 0.000000
0.443436 0.465819 0.000000
0.484279 0.465166 0.000000
0.525215 0.464511 0.000000
0.565199 0.463871 0.000000
0.604104 0.463249 0.000000
0.641975 0.462643 0.000000
0.678855 0.462053 0.000000
0.720389 0.461478 0.000000
0.763320 0.460918 0.000000
0.798807 0.460372 0.000000
0.828267 0.459840 0.000000
0.852827 0.459321 0.000000
0.873383 0.458816 0.000000
0.890654 0.458323 0.000000
0.905219 0.457843 0.000000
0.917546 0.457375 0.000000
0.928016 0.456918 0.000000
0.936938 0.456474 0.000000
0.944566 0.456041 0.000000
0.951109 0.455619 0.000000
0.956738 0.455208 0.000000
0.000000 0.511696 0.000000
0.036217 0.510954 0.000000
0.078691 0.510274 0.000000
0.119753 0.509617 0.000000
0.160143 0.508971 0.000000
0.200212 0.508330 0.000000
0.240156 0.507691 0.000000
0.280102 0.507052 0.000000
0.320134 0.506411 0.000000
0.360312 0.505768 0.000000
0.400681 0.505122 0.000000
0.441274 0.504473 0.000000
0.482117 0.503819 0.000000
0.523052 0.503164 0.000000
0.563037 0.502525 0.000000
0.601941 0.501902 0.000000
0.639813 0.501296 0.000000
0.676692 0.500706 0.000000
0.717495 0.500131 0.000000
0.760870 0.499571 0.000000
0.796724 0.499026 0.000000
0.826490 0.498494 0.000000
0.851304 0.497975 0.000000
0.872072 0.497469 0.000000
0.889522 0.496977 0.000000
0.904238 0.496496 0.000000
0.916693 0.496028 0.000000
0.927271 0.495572 0.000000
0.936285 0.495127 0.000000
0.943992 0.494694 0.000000
0.950603 0.494272 0.000000
0.956290 0.493861 0.000000
0.000000 0.549974 0.000000
0.034076 0.549232 0.000000
0.076550 0.548552 0.000000
0.117612 0.547895 0.000000
0.158002 0.547249 0.000000
0.198070 0.546608 0.000000
0.238015 0.545969 0.000000
0.277960 0.545330 0.000000
0.317992 0.544689 0.000000
0.358171 0.544046 0.000000
0.398540 0.543401 0.000000
0.439133 0.542751 0.000000
0.479975 0.542098 0.000000
0.520911 0.541443 0.000000
0.560896 0.540803 0.000000
0.599800 0.540180 0.000000
0.637671 0.539574 0.000000
0.674551 0.538984 0.000000
0.714600 0.538409 0.000000
0.758419 0.537849 0.000000
0.794641 0.537304 0.000000
0.824712 0.536772 0.000000
0.849780 0.536253 0.000000
0.870761 0.535748 0.000000
0.888390 0.535255 0.000000
0.903256 0.534775 0.000000
0.915839 0.534306 0.000000
0.926525 0.533850 0.000000
0.935632 0.533405 0.000000
0.943418 0.532972 0.000000
0.950096 0.532550 0.000000
0.955842 0.532139 0.000000
0.000000 0.587272 0.000000
0.031989 0.586530 0.000000
0.074463 0.585850 0.000000
0.115525 0.585193 0.000000
0.155916 0.584547 0.000000
0.195984 0.583906 0.000000
0.235928 0.583267 0.000000
0.275874 0.582627 0.000000
0.315906 0.581987 0.000000
0.356084 0.581344 0.000000
0.396453 0.580698 0.000000
0.437046 0.580049 0.000000
0.477889 0.579395 0.000000
0.518825 0.578740 0.000000
0.558809 0.578100 0.000000
0.597713 0.577478 0.000000
0.635585 0.576872 0.000000
0.672465 0.576282 0.000000
0.711750 0.575707 0.000000
0.756007 0.575147 0.000000
0.792590 0.574601 0.000000
0.822961 0.574069 0.000000
0.848280 0.573551 0.000000
0.869471 0.573045 0.000000
0.887275 0.572552 0.000000
0.902290 0.572072 0.000000
0.914998 0.571604 0.000000
0.925791 0.571148 0.000000
0.934989 0.570703 0.000000
0.942853 0.570270 0.000000
0.949598 0.569848 0.000000
0.955401 0.569437 0.000000
0.000000 0.623629 0.000000
0.029956 0.622886 0.000000
0.072430 0.622207 0.000000
0.113491 0.621550 0.000000
0.153882 0.620904 0.000000
0.193950 0.620263 0.000000
0.233894 0.619623 0.000000
0.273840 0.618984 0.000000
0.313872 0.618344 0.000000
0.354050 0.617701 0.000000
0.394419 0.617055 0.000000
0.435012 0.616405 0.000000
0.475855 0.615752 0.000000
0.516791 0.615097 0.000000
0.556775 0.614457 0.000000
0.595680 0.613835 0.000000
0.633551 0.613229 0.000000
0.670431 0.612639 0.000000
0.708945 0.612064 0.000000
0.753632 0.611504 0.000000
0.790572 0.610958 0.000000
0.821239 0.610426 0.000000
0.846803 0.609908 0.000000
0.868201 0.609402 0.000000
0.886178 0.608909 0.000000
0.901339 0.608429 0.000000
0.914171 0.607961 0.000000
0.925069 0.607505 0.000000
0.934357 0.607060 0.000000
0.942297 0.606627 0.000000
0.949108 0.606205 0.000000
0.954967 0.605794 0.000000
0.000000 0.659080 0.000000
0.027972 0.658338 0.000000
0.070446 0.657658 0.000000
0.111508 0.657001 0.000000
0.151899 0.656355 0.000000
0.191967 0.655714 0.000000
0.231911 0.655075 0.000000
0.271857 0.654435 0.000000
0.311889 0.653795 0.000000
0.352067 0.653152 0.000000
0.392436 0.652506 0.000000
0.433029 0.651857 0.000000
0.473872 0.651203 0.000000
0.514808 0.650548 0.000000
0.554792 0.649908 0.000000
0.593696 0.649286 0.000000
0.631568 0.648680 0.000000
0.668448 0.648090 0.000000
0.706183 0.647515 0.000000
0.751295 0.646955 0.000000
0.788585 0.646409 0.000000
0.819542 0.645877 0.000000
0.845350 0.645359 0.000000
0.866950 0.644853 0.000000
0.885098 0.644361 0.000000
0.900403 0.643880 0.000000
0.913357 0.643412 0.000000
0.924358 0.642956 0.000000
0.933734 0.642511 0.000000
0.941750 0.642078 0.000000
0.948625 0.641656 0.000000
0.954540 0.641245 0.000000
0.000000 0.693657 0.000000
0.026038 0.692914 0.000000
0.068512 0.692235 0.000000
0.109574 0.691578 0.000000
0.149964 0.690932 0.000000
0.190033 0.690290 0.000000
0.229977 0.689651 0.000000
0.269923 0.689012 0.000000
0.309955 0.688372 0.000000
0.350133 0.687729 0.000000
0.390502 0.687083 0.000000
0.431095 0.686433 0.000000
0.471938 0.685780 0.000000
0.512873 0.685125 0.000000
0.552858 0.684485 0.000000
0.591762 0.683863 0.000000
0.629633 0.683257 0.000000
0.666513 0.682667 0.000000
0.703464 0.682092 0.000000
0.748993 0.681532 0.000000
0.786628 0.680986 0.000000
0.817872 0.680454 0.000000
0.843919 0.679935 0.000000
0.865719 0.679430 0.000000
0.884035 0.678937 0.000000
0.899482 0.678457 0.000000
0.912555 0.677989 0.000000
0.923658 0.677533 0.000000
0.933121 0.677088 0.000000
0.941211 0.676655 0.000000
0.948149 0.676233 0.000000
0.954119 0.675822 0.000000
0.000000 0.736680 0.000000
0.024151 0.735748 0.000000
0.066625 0.734891 0.000000
0.107687 0.734061 0.000000
0.148077 0.733241 0.000000
0.188146 0.732425 0.000000
0.228090 0.731610 0.000000
0.268036 0.730792 0.000000
0.308068 0.729969 0.000000
0.348246 0.729141 0.000000
0.388615 0.728307 0.000000
0.429208 0.727466 0.000000
0.470051 0.726616 0.000000
0.510986 0.725762 0.000000
0.550971 0.724925 0.000000
0.589875 0.724109 0.000000
0.627746 0.723312 0.000000
0.664626 0.722533 0.000000
0.700788 0.721772 0.000000
0.746728 0.721029 0.000000
0.784702 0.720303 0.000000
0.816229 0.719594 0.000000
0.842510 0.718901 0.000000
0.864507 0.718223 0.000000
0.882988 0.717561 0.000000
0.898574 0.716915 0.000000
0.911766 0.716283 0.000000
0.922969 0.715666 0.000000
0.932517 0.715063 0.000000
0.940680 0.714475 0.000000
0.947681 0.713900 0.000000
0.953705 0.713340 0.000000
0.000000 0.774874 0.000000
0.022310 0.774077 0.000000
0.064784 0.773345 0.000000
0.105846 0.772634 0.000000
0.146236 0.771934 0.000000
0.186305 0.771236 0.000000
0.226249 0.770539 0.000000
0.266195 0.769840 0.000000
0.306227 0.769137 0.000000
0.346405 0.768429 0.000000
0.386774 0.767715 0.000000
0.427367 0.766996 0.000000
0.468210 0.766270 0.000000
0.509145 0.765539 0.000000
0.549130 0.764824 0.000000
0.588034 0.764126 0.000000
0.625906 0.763444 0.000000
0.662785 0.762779 0.000000
0.698711 0.762129 0.000000
0.744498 0.761493 0.000000
0.782807 0.760873 0.000000
0.814611 0.760266 0.000000
0.841123 0.759673 0.000000
0.863314 0.759094 0.000000
0.881958 0.758528 0.000000
0.897681 0.757975 0.000000
0.910989 0.757435 0.000000
0.922291 0.756908 0.000000
0.931923 0.756392 0.000000
0.940158 0.755889 0.000000
0.947221 0.755398 0.000000
0.953298 0.754919 0.000000
0.000000 0.806795 0.000000
0.020514 0.806111 0.000000
0.062988 0.805482 0.000000
0.104050 0.804873 0.000000
0.144440 0.804271 0.000000
0.184508 0.803673 0.000000
0.224453 0.803074 0.000000
0.264398 0.802474 0.000000
0.304430 0.801871 0.000000
0.344609 0.801263 0.000000
0.384978 0.800651 0.000000
0.425571 0.800033 0.000000
0.466413 0.799410 0.000000
0.507349 0.798784 0.000000
0.547334 0.798170 0.000000
0.586238 0.797571 0.000000
0.624109 0.796986 0.000000
0.660989 0.796414 0.000000
0.696915 0.795856 0.000000
0.742303 0.795311 0.000000
0.780941 0.794778 0.000000
0.813018 0.794258 0.000000
0.839759 0.793749 0.000000
0.862140 0.793252 0.000000
0.880944 0.792767 0.000000
0.896802 0.792292 0.000000
0.910224 0.791828 0.000000
0.921623 0.791376 0.000000
0.931338 0.790933 0.000000
0.939644 0.790502 0.000000
0.946767 0.790080 0.000000
0.952896 0.789669 0.000000
0.000000 0.833574 0.000000
0.018761 0.832985 0.000000
0.061235 0.832443 0.000000
0.102297 0.831918 0.000000
0.142687 0.831400 0.000000
0.182756 0.830885 0.000000
0.222700 0.830369 0.000000
0.262646 0.829852 0.000000
0.302678 0.829333 0.000000
0.342856 0.828809 0.000000
0.383225 0.828282 0.000000
0.423818 0.827750 0.000000
0.464661 0.827213 0.000000
0.505596 0.826673 0.000000
0.545581 0.826145 0.000000
0.584485 0.825629 0.000000
0.622356 0.825125 0.000000
0.659236 0.824633 0.000000
0.695162 0.824152 0.000000
0.740143 0.823682 0.000000
0.779105 0.823223 0.000000
0.811451 0.822775 0.000000
0.838415 0.822337 0.000000
0.860984 0.821909 0.000000
0.879946 0.821490 0.000000
0.895937 0.821082 0.000000
0.909472 0.820682 0.000000
0.920967 0.820292 0.000000
0.930762 0.819911 0.000000
0.939138 0.819540 0.000000
0.946321 0.819177 0.000000
0.952502 0.818822 0.000000
0.000000 0.856123 0.000000
0.017051 0.855614 0.000000
0.059525 0.855146 0.000000
0.100587 0.854692 0.000000
0.140977 0.854244 0.000000
0.181045 0.853798 0.000000
0.220990 0.853353 0.000000
0.260935 0.852906 0.000000
0.300967 0.852456 0.000000
0.341146 0.852004 0.000000
0.381515 0.851548 0.000000
0.422108 0.851088 0.000000
0.462950 0.850624 0.000000
0.503886 0.850157 0.000000
0.543871 0.849700 0.000000
0.582775 0.849254 0.000000
0.620646 0.848818 0.000000
0.657526 0.848393 0.000000
0.693452 0.847977 0.000000
0.738018 0.847571 0.000000
0.777298 0.847175 0.000000
0.809909 0.846787 0.000000
0.837094 0.846408 0.000000
0.859847 0.846038 0.000000
0.878964 0.845676 0.000000
0.895086 0.845323 0.000000
0.908731 0.844978 0.000000
0.920320 0.844641 0.000000
0.930196 0.844311 0.000000
0.938640 0.843990 0.000000
0.945882 0.843676 0.000000
0.952113 0.843370 0.000000
0.000000 0.875177 0.000000
0.015382 0.874735 0.000000
0.057856 0.874329 0.000000
0.098918 0.873935 0.000000
0.139308 0.873547 0.000000
0.179376 0.873160 0.000000
0.219321 0.872774 0.000000
0.259266 0.872386 0.000000
0.299298 0.871996 0.000000
0.339477 0.871603 0.000000
0.379846 0.871208 0.000000
0.420439 0.870809 0.000000
0.461281 0.870406 0.000000
0.502217 0.870002 0.000000
0.542202 0.869605 0.000000
0.581106 0.869218 0.000000
0.618977 0.868840 0.000000
0.655857 0.868471 0.000000
0.691783 0.868110 0.000000
0.735927 0.867758 0.000000
0.775522 0.867414 0.000000
0.808392 0.867078 0.000000
0.835794 0.866749 0.000000
0.858729 0.866428 0.000000
0.877999 0.866114 0.000000
0.894249 0.865807 0.000000
0.908003 0.865508 0.000000
0.919685 0.865215 0.000000
0.929639 0.864930 0.000000
0.938150 0.864651 0.000000
0.945450 0.864379 0.000000
0.951731 0.864113 0.000000
0.000000 0.891333 0.000000
0.013754 0.890949 0.000000
0.056227 0.890595 0.000000
0.097289 0.890252 0.000000
0.137680 0.889914 0.000000
0.177748 0.889578 0.000000
0.217692 0.889241 0.000000
0.257638 0.888903 0.000000
0.297670 0.888564 0.000000
0.337848 0.888222 0.000000
0.378217 0.887878 0.000000
0.418810 0.887531 0.000000
0.459653 0.887180 0.000000
0.500589 0.886828 0.000000
0.540573 0.886482 0.000000
0.579478 0.886145 0.000000
0.617349 0.885816 0.000000
0.654229 0.885495 0.000000
0.690154 0.885181 0.000000
0.733872 0.884875 0.000000
0.773774 0.884575 0.000000
0.806901 0.884282 0.000000
0.834516 0.883996 0.000000
0.857629 0.883717 0.000000
0.877049 0.883443 0.000000
0.893426 0.883177 0.000000
0.907287 0.882916 0.000000
0.919059 0.882661 0.000000
0.929092 0.882412 0.000000
0.937669 0.882170 0.000000
0.945026 0.881933 0.000000
0.951355 0.881701 0.000000
0.000000 0.905078 0.000000
0.012165 0.904742 0.000000
0.054639 0.904433 0.000000
0.095701 0.904134 0.000000
0.136091 0.903839 0.000000
0.176159 0.903545 0.000000
0.216104 0.903251 0.000000
0.256049 0.902956 0.000000
0.296081 0.902659 0.000000
0.336260 0.902361 0.000000
0.376629 0.902060 0.000000
0.417222 0.901757 0.000000
0.458064 0.901450 0.000000
0.499000 0.901143 0.000000
0.538985 0.900841 0.000000
0.577889 0.900547 0.000000
0.615760 0.900259 0.000000
0.652640 0.899979 0.000000
0.688566 0.899704 0.000000
0.731851 0.899437 0.000000
0.772056 0.899175 0.000000
0.805434 0.898919 0.000000
0.833259 0.898669 0.000000
0.856548 0.898425 0.000000
0.876115 0.898186 0.000000
0.892617 0.897953 0.000000
0.906583 0.897725 0.000000
0.918445 0.897503 0.000000
0.928553 0.897286 0.000000
0.937196 0.897074 0.000000
0.944608 0.896867 0.000000
0.950986 0.896665 0.000000
0.000000 0.916810 0.000000
0.010615 0.916515 0.000000
0.053089 0.916244 0.000000
0.094151 0.915982 0.000000
0.134541 0.915723 0.000000
0.174609 0.915465 0.000000
0.214554 0.915208 0.000000
0.254500 0.914949 0.000000
0.294532 0.914689 0.000000
0.334710 0.914428 0.000000
0.375079 0.914164 0.000000
0.415672 0.913898 0.000000
0.456515 0.913630 0.000000
0.497450 0.913360 0.000000
0.537435 0.913096 0.000000
0.576339 0.912838 0.000000
0.614210 0.912586 0.000000
0.651090 0.912340 0.000000
0.687016 0.912100 0.000000
