assets/luts/douyin_doll.cube
# Beauty Camera 3D LUT
# Filter: Búp Bê (douyin_doll)
# Category: Douyin
TITLE "Búp Bê"
LUT_3D_SIZE 32
DOMAIN_MIN 0.0 0.0 0.0
DOMAIN_MAX 1.0 1.0 1.0
0.000000 0.000000 0.000000
0.016469 0.000000 0.000000
0.061213 0.000000 0.000000
0.104173 0.000000 0.000000
0.145952 0.000000 0.000000
0.186851 0.000000 0.000000
0.227051 0.000000 0.000000
0.266675 0.000000 0.000000
0.305807 0.000000 0.000000
0.344513 0.000000 0.000000
0.382842 0.000000 0.000000
0.420834 0.000000 0.000000
0.458521 0.000000 0.000000
0.495931 0.000000 0.000000
0.533086 0.000000 0.000000
0.570006 0.000000 0.000000
0.606707 0.000000 0.000000
0.643204 0.000000 0.000000
0.679510 0.000000 0.000000
0.721525 0.000000 0.000000
0.765347 0.000000 0.000000
0.802121 0.000000 0.000000
0.833011 0.000000 0.000000
0.858982 0.000000 0.000000
0.880835 0.000000 0.000000
0.899239 0.000000 0.000000
0.914749 0.000000 0.000000
0.927830 0.000000 0.000000
0.938869 0.000000 0.000000
0.948193 0.000000 0.000000
0.956072 0.000000 0.000000
0.962734 0.000000 0.000000
0.000000 0.000000 0.000000
0.016469 0.000000 0.000000
0.061213 0.000000 0.000000
0.104173 0.000000 0.000000
0.145952 0.000000 0.000000
0.186851 0.000000 0.000000
0.227051 0.000000 0.000000
0.266675 0.000000 0.000000
0.305807 0.000000 0.000000
0.344513 0.000000 0.000000
0.382842 0.000000 0.000000
0.420834 0.000000 0.000000
0.458521 0.000000 0.000000
0.495931 0.000000 0.000000
0.533086 0.000000 0.000000
0.570006 0.000000 0.000000
0.606707 0.000000 0.000000
0.643204 0.000000 0.000000
0.679510 0.000000 0.000000
0.721525 0.000000 0.000000
0.765347 0.000000 0.000000
0.802121 0.000000 0.000000
0.833011 0.000000 0.000000
0.858982 0.000000 0.000000
0.880835 0.000000 0.000000
0.899239 0.000000 0.000000
0.914749 0.000000 0.000000
0.927830 0.000000 0.000000
0.938869 0.000000 0.000000
0.948193 0.000000 0.000000
0.956072 0.000000 0.000000
0.962734 0.000000 0.000000
0.000000 0.030435 0.000000
0.016469 0.030435 0.000000
0.061213 0.030435 0.000000
0.104173 0.030435 0.000000
0.145952 0.030435 0.000000
0.186851 0.030435 0.000000
0.227051 0.030435 0.000000
0.266675 0.030435 0.000000
0.305807 0.030435 0.000000
0.344513 0.030435 0.000000
0.382842 0.030435 0.000000
0.420834 0.030435 0.000000
0.458521 0.030435 0.000000
0.495931 0.030435 0.000000
0.533086 0.030435 0.000000
0.570006 0.030435 0.000000
0.606707 0.030435 0.000000
0.643204 0.030435 0.000000
0.679510 0.030435 0.000000
0.721525 0.030435 0.000000
0.765347 0.030435 0.000000
0.802121 0.030435 0.000000
0.833011 0.030435 0.000000
0.858982 0.030435 0.000000
0.880835 0.030435 0.000000
0.899239 0.030435 0.000000
0.914749 0.030435 0.000000
0.927830 0.030435 0.000000
0.938869 0.030435 0.000000
0.948193 0.030435 0.000000
0.956072 0.030435 0.000000
0.962734 0.030435 0.000000
0.000000 0.068785 0.000000
0.016469 0.068785 0.000000
0.061213 0.068785 0.000000
0.104173 0.068785 0.000000
0.145952 0.068785 0.000000
0.186851 0.068785 0.000000
0.227051 0.068785 0.000000
0.266675 0.068785 0.000000
0.305807 0.068785 0.000000
0.344513 0.068785 0.000000
0.382842 0.068785 0.000000
0.420834 0.068785 0.000000
0.458521 0.068785 0.000000
0.495931 0.068785 0.000000
0.533086 0.068785 0.000000
0.570006 0.068785 0.000000
0.606707 0.068785 0.000000
0.643204 0.068785 0.000000
0.679510 0.068785 0.000000
0.721525 0.068785 0.000000
0.765347 0.068785 0.000000
0.802121 0.068785 0.000000
0.833011 0.068785 0.000000
0.858982 0.068785 0.000000
0.880835 0.068785 0.000000
0.899239 0.068785 0.000000
0.914749 0.068785 0.000000
0.927830 0.068785 0.000000
0.938869 0.068785 0.000000
0.948193 0.068785 0.000000
0.956072 0.068785 0.000000
0.962734 0.068785 0.000000
0.000000 0.106637 0.000000
0.016469 0.106637 0.000000
0.061213 0.106637 0.000000
0.104173 0.106637 0.000000
0.145952 0.106637 0.000000
0.186851 0.106637 0.000000
0.227051 0.106637 0.000000
0.266675 0.106637 0.000000
0.305807 0.106637 0.000000
0.344513 0.106637 0.000000
0.382842 0.106637 0.000000
0.420834 0.106637 0.000000
0.458521 0.106637 0.000000
0.495931 0.106637 0.000000
0.533086 0.106637 0.000000
0.570006 0.106637 0.000000
0.606707 0.106637 0.000000
0.643204 0.106637 0.000000
0.679510 0.106637 0.000000
0.721525 0.106637 0.000000
0.765347 0.106637 0.000000
0.802121 0.106637 0.000000
0.833011 0.106637 0.000000
0.858982 0.106637 0.000000
0.880835 0.106637 0.000000
0.899239 0.106637 0.000000
0.914749 0.106637 0.000000
0.927830 0.106637 0.000000
0.938869 0.106637 0.000000
0.948193 0.106637 0.000000
0.956072 0.106637 0.000000
0.962734 0.106637 0.000000
0.000000 0.144123 0.000000
0.016469 0.144123 0.000000
0.061213 0.144123 0.000000
0.104173 0.144123 0.000000
0.145952 0.144123 0.000000
0.186851 0.144123 0.000000
0.227051 0.144123 0.000000
0.266675 0.144123 0.000000
0.305807 0.144123 0.000000
0.344513 0.144123 0.000000
0.382842 0.144123 0.000000
0.420834 0.144123 0.000000
0.458521 0.144123 0.000000
0.495931 0.144123 0.000000
0.533086 0.144123 0.000000
0.570006 0.144123 0.000000
0.606707 0.144123 0.000000
0.643204 0.144123 0.000000
0.679510 0.144123 0.000000
0.721525 0.144123 0.000000
0.765347 0.144123 0.000000
0.802121 0.144123 0.000000
0.833011 0.144123 0.000000
0.858982 0.144123 0.000000
0.880835 0.144123 0.000000
0.899239 0.144123 0.000000
0.914749 0.144123 0.000000
0.927830 0.144123 0.000000
0.938869 0.144123 0.000000
0.948193 0.144123 0.000000
0.956072 0.144123 0.000000
0.962734 0.144123 0.000000
0.000000 0.181320 0.000000
0.016469 0.181320 0.000000
0.061213 0.181320 0.000000
0.104173 0.181320 0.000000
0.145952 0.181320 0.000000
0.186851 0.181320 0.000000
0.227051 0.181320 0.000000
0.266675 0.181320 0.000000
0.305807 0.181320 0.000000
0.344513 0.181320 0.000000
0.382842 0.181320 0.000000
0.420834 0.181320 0.000000
0.458521 0.181320 0.000000
0.495931 0.181320 0.000000
0.533086 0.181320 0.000000
0.570006 0.181320 0.000000
0.606707 0.181320 0.000000
0.643204 0.181320 0.000000
0.679510 0.181320 0.000000
0.721525 0.181320 0.000000
0.765347 0.181320 0.000000
0.802121 0.181320 0.000000
0.833011 0.181320 0.000000
0.858982 0.181320 0.000000
0.880835 0.181320 0.000000
0.899239 0.181320 0.000000
0.914749 0.181320 0.000000
0.927830 0.181320 0.000000
0.938869 0.181320 0.000000
0.948193 0.181320 0.000000
0.956072 0.181320 0.000000
0.962734 0.181320 0.000000
0.000000 0.218278 0.000000
0.016469 0.218278 0.000000
0.061213 0.218278 0.000000
0.104173 0.218278 0.000000
0.145952 0.218278 0.000000
0.186851 0.218278 0.000000
0.227051 0.218278 0.000000
0.266675 0.218278 0.000000
0.305807 0.218278 0.000000
0.344513 0.218278 0.000000
0.382842 0.218278 0.000000
0.420834 0.218278 0.000000
0.458521 0.218278 0.000000
0.495931 0.218278 0.000000
0.533086 0.218278 0.000000
0.570006 0.218278 0.000000
0.606707 0.218278 0.000000
0.643204 0.218278 0.000000
0.679510 0.218278 0.000000
0.721525 0.218278 0.000000
0.765347 0.218278 0.000000
0.802121 0.218278 0.000000
0.833011 0.218278 0.000000
0.858982 0.218278 0.000000
0.880835 0.218278 0.000000
0.899239 0.218278 0.000000
0.914749 0.218278 0.000000
0.927830 0.218278 0.000000
0.938869 0.218278 0.000000
0.948193 0.218278 0.000000
0.956072 0.218278 0.000000
0.962734 0.218278 0.000000
0.000000 0.255033 0.000000
0.016469 0.255033 0.000000
0.061213 0.255033 0.000000
0.104173 0.255033 0.000000
0.145952 0.255033 0.000000
0.186851 0.255033 0.000000
0.227051 0.255033 0.000000
0.266675 0.255033 0.000000
0.305807 0.255033 0.000000
0.344513 0.255033 0.000000
0.382842 0.255033 0.000000
0.420834 0.255033 0.000000
0.458521 0.255033 0.000000
0.495931 0.255033 0.000000
0.533086 0.255033 0.000000
0.570006 0.255033 0.000000
0.606707 0.255033 0.000000
0.643204 0.255033 0.000000
0.679510 0.255033 0.000000
0.721525 0.255033 0.000000
0.765347 0.255033 0.000000
0.802121 0.255033 0.000000
0.833011 0.255033 0.000000
0.858982 0.255033 0.000000
0.880835 0.255033 0.000000
0.899239 0.255033 0.000000
0.914749 0.255033 0.000000
0.927830 0.255033 0.000000
0.938869 0.255033 0.000000
0.948193 0.255033 0.000000
0.956072 0.255033 0.000000
0.962734 0.255033 0.000000
0.000000 0.291611 0.000000
0.016469 0.291611 0.000000
0.061213 0.291611 0.000000
0.104173 0.291611 0.000000
0.145952 0.291611 0.000000
0.186851 0.291611 0.000000
0.227051 0.291611 0.000000
0.266675 0.291611 0.000000
0.305807 0.291611 0.000000
0.344513 0.291611 0.000000
0.382842 0.291611 0.000000
0.420834 0.291611 0.000000
0.458521 0.291611 0.000000
0.495931 0.291611 0.000000
0.533086 0.291611 0.000000
0.570006 0.291611 0.000000
0.606707 0.291611 0.000000
0.643204 0.291611 0.000000
0.679510 0.291611 0.000000
0.721525 0.291611 0.000000
0.765347 0.291611 0.000000
0.802121 0.291611 0.000000
0.833011 0.291611 0.000000
0.858982 0.291611 0.000000
0.880835 0.291611 0.000000
0.899239 0.291611 0.000000
0.914749 0.291611 0.000000
0.927830 0.291611 0.000000
0.938869 0.291611 0.000000
0.948193 0.291611 0.000000
0.956072 0.291611 0.000000
0.962734 0.291611 0.000000
0.000000 0.328033 0.000000
0.016469 0.328033 0.000000
0.061213 0.328033 0.000000
0.104173 0.328033 0.000000
0.145952 0.328033 0.000000
0.186851 0.328033 0.000000
0.227051 0.328033 0.000000
0.266675 0.328033 0.000000
0.305807 0.328033 0.000000
0.344513 0.328033 0.000000
0.382842 0.328033 0.000000
0.420834 0.328033 0.000000
0.458521 0.328033 0.000000
0.495931 0.328033 0.000000
0.533086 0.328033 0.000000
0.570006 0.328033 0.000000
0.606707 0.328033 0.000000
0.643204 0.328033 0.000000
0.679510 0.328033 0.000000
0.721525 0.328033 0.000000
0.765347 0.328033 0.000000
0.802121 0.328033 0.000000
0.833011 0.328033 0.000000
0.858982 0.328033 0.000000
0.880835 0.328033 0.000000
0.899239 0.328033 0.000000
0.914749 0.328033 0.000000
0.927830 0.328033 0.000000
0.938869 0.328033 0.000000
0.948193 0.328033 0.000000
0.956072 0.328033 0.000000
0.962734 0.328033 0.000000
0.000000 0.364315 0.000000
0.016469 0.364315 0.000000
0.061213 0.364315 0.000000
0.104173 0.364315 0.000000
0.145952 0.364315 0.000000
0.186851 0.364315 0.000000
0.227051 0.364315 0.000000
0.266675 0.364315 0.000000
0.305807 0.364315 0.000000
0.344513 0.364315 0.000000
0.382842 0.364315 0.000000
0.420834 0.364315 0.000000
0.458521 0.364315 0.000000
0.495931 0.364315 0.000000
0.533086 0.364315 0.000000
0.570006 0.364315 0.000000
0.606707 0.364315 0.000000
0.643204 0.364315 0.000000
0.679510 0.364315 0.000000
0.721525 0.364315 0.000000
0.765347 0.364315 0.000000
0.802121 0.364315 0.000000
0.833011 0.364315 0.000000
0.858982 0.364315 0.000000
0.880835 0.364315 0.000000
0.899239 0.364315 0.000000
0.914749 0.364315 0.000000
0.927830 0.364315 0.000000
0.938869 0.364315 0.000000
0.948193 0.364315 0.000000
0.956072 0.364315 0.000000
0.962734 0.364315 0.000000
0.000000 0.400470 0.000000
0.016469 0.400470 0.000000
0.061213 0.400470 0.000000
0.104173 0.400470 0.000000
0.145952 0.400470 0.000000
0.186851 0.400470 0.000000
0.227051 0.400470 0.000000
0.266675 0.400470 0.000000
0.305807 0.400470 0.000000
0.344513 0.400470 0.000000
0.382842 0.400470 0.000000
0.420834 0.400470 0.000000
0.458521 0.400470 0.000000
0.495931 0.400470 0.000000
0.533086 0.400470 0.000000
0.570006 0.400470 0.000000
0.606707 0.400470 0.000000
0.643204 0.400470 0.000000
0.679510 0.400470 0.000000
0.721525 0.400470 0.000000
0.765347 0.400470 0.000000
0.802121 0.400470 0.000000
0.833011 0.400470 0.000000
0.858982 0.400470 0.000000
0.880835 0.400470 0.000000
0.899239 0.400470 0.000000
0.914749 0.400470 0.000000
0.927830 0.400470 0.000000
0.938869 0.400470 0.000000
0.948193 0.400470 0.000000
0.956072 0.400470 0.000000
0.962734 0.400470 0.000000
0.000000 0.436509 0.000000
0.016469 0.436509 0.000000
0.061213 0.436509 0.000000
0.104173 0.436509 0.000000
0.145952 0.436509 0.000000
0.186851 0.436509 0.000000
0.227051 0.436509 0.000000
0.266675 0.436509 0.000000
0.305807 0.436509 0.000000
0.344513 0.436509 0.000000
0.382842 0.436509 0.000000
0.420834 0.436509 0.000000
0.458521 0.436509 0.000000
0.495931 0.436509 0.000000
0.533086 0.436509 0.000000
0.570006 0.436509 0.000000
0.606707 0.436509 0.000000
0.643204 0.436509 0.000000
0.679510 0.436509 0.000000
0.721525 0.436509 0.000000
0.765347 0.436509 0.000000
0.802121 0.436509 0.000000
0.833011 0.436509 0.000000
0.858982 0.436509 0.000000
0.880835 0.436509 0.000000
0.899239 0.436509 0.000000
0.914749 0.436509 0.000000
0.927830 0.436509 0.000000
0.938869 0.436509 0.000000
0.948193 0.436509 0.000000
0.956072 0.436509 0.000000
0.962734 0.436509 0.000000
0.000000 0.472441 0.000000
0.016469 0.472441 0.000000
0.061213 0.472441 0.000000
0.104173 0.472441 0.000000
0.145952 0.472441 0.000000
0.186851 0.472441 0.000000
0.227051 0.472441 0.000000
0.266675 0.472441 0.000000
0.305807 0.472441 0.000000
0.344513 0.472441 0.000000
0.382842 0.472441 0.000000
0.420834 0.472441 0.000000
0.458521 0.472441 0.000000
0.495931 0.472441 0.000000
0.533086 0.472441 0.000000
0.570006 0.472441 0.000000
0.606707 0.472441 0.000000
0.643204 0.472441 0.000000
0.679510 0.472441 0.000000
0.721525 0.472441 0.000000
0.765347 0.472441 0.000000
0.802121 0.472441 0.000000
0.833011 0.472441 0.000000
0.858982 0.472441 0.000000
0.880835 0.472441 0.000000
0.899239 0.472441 0.000000
0.914749 0.472441 0.000000
0.927830 0.472441 0.000000
0.938869 0.472441 0.000000
0.948193 0.472441 0.000000
0.956072 0.472441 0.000000
0.962734 0.472441 0.000000
0.000000 0.508275 0.000000
0.016469 0.508275 0.000000
0.061213 0.508275 0.000000
0.104173 0.508275 0.000000
0.145952 0.508275 0.000000
0.186851 0.508275 0.000000
0.227051 0.508275 0.000000
0.266675 0.508275 0.000000
0.305807 0.508275 0.000000
0.344513 0.508275 0.000000
0.382842 0.508275 0.000000
0.420834 0.508275 0.000000
0.458521 0.508275 0.000000
0.495931 0.508275 0.000000
0.533086 0.508275 0.000000
0.570006 0.508275 0.000000
0.606707 0.508275 0.000000
0.643204 0.508275 0.000000
0.679510 0.508275 0.000000
0.721525 0.508275 0.000000
0.765347 0.508275 0.000000
0.802121 0.508275 0.000000
0.833011 0.508275 0.000000
0.858982 0.508275 0.000000
0.880835 0.508275 0.000000
0.899239 0.508275 0.000000
0.914749 0.508275 0.000000
0.927830 0.508275 0.000000
0.938869 0.508275 0.000000
0.948193 0.508275 0.000000
0.956072 0.508275 0.000000
0.962734 0.508275 0.000000
0.000000 0.544017 0.000000
0.016469 0.544017 0.000000
0.061213 0.544017 0.000000
0.104173 0.544017 0.000000
0.145952 0.544017 0.000000
0.186851 0.544017 0.000000
0.227051 0.544017 0.000000
0.266675 0.544017 0.000000
0.305807 0.544017 0.000000
0.344513 0.544017 0.000000
0.382842 0.544017 0.000000
0.420834 0.544017 0.000000
0.458521 0.544017 0.000000
0.495931 0.544017 0.000000
0.533086 0.544017 0.000000
0.570006 0.544017 0.000000
0.606707 0.544017 0.000000
0.643204 0.544017 0.000000
0.679510 0.544017 0.000000
0.721525 0.544017 0.000000
0.765347 0.544017 0.000000
0.802121 0.544017 0.000000
0.833011 0.544017 0.000000
0.858982 0.544017 0.000000
0.880835 0.544017 0.000000
0.899239 0.544017 0.000000
0.914749 0.544017 0.000000
0.927830 0.544017 0.000000
0.938869 0.544017 0.000000
0.948193 0.544017 0.000000
0.956072 0.544017 0.000000
0.962734 0.544017 0.000000
0.000000 0.579673 0.000000
0.016469 0.579673 0.000000
0.061213 0.579673 0.000000
0.104173 0.579673 0.000000
0.145952 0.579673 0.000000
0.186851 0.579673 0.000000
0.227051 0.579673 0.000000
0.266675 0.579673 0.000000
0.305807 0.579673 0.000000
0.344513 0.579673 0.000000
0.382842 0.579673 0.000000
0.420834 0.579673 0.000000
0.458521 0.579673 0.000000
0.495931 0.579673 0.000000
0.533086 0.579673 0.000000
0.570006 0.579673 0.000000
0.606707 0.579673 0.000000
0.643204 0.579673 0.000000
0.679510 0.579673 0.000000
0.721525 0.579673 0.000000
0.765347 0.579673 0.000000
0.802121 0.579673 0.000000
0.833011 0.579673 0.000000
0.858982 0.579673 0.000000
0.880835 0.579673 0.000000
0.899239 0.579673 0.000000
0.914749 0.579673 0.000000
0.927830 0.579673 0.000000
0.938869 0.579673 0.000000
0.948193 0.579673 0.000000
0.956072 0.579673 0.000000
0.962734 0.579673 0.000000
0.000000 0.615249 0.000000
0.016469 0.615249 0.000000
0.061213 0.615249 0.000000
0.104173 0.615249 0.000000
0.145952 0.615249 0.000000
0.186851 0.615249 0.000000
0.227051 0.615249 0.000000
0.266675 0.615249 0.000000
0.305807 0.615249 0.000000
0.344513 0.615249 0.000000
0.382842 0.615249 0.000000
0.420834 0.615249 0.000000
0.458521 0.615249 0.000000
0.495931 0.615249 0.000000
0.533086 0.615249 0.000000
0.570006 0.615249 0.000000
0.606707 0.615249 0.000000
0.643204 0.615249 0.000000
0.679510 0.615249 0.000000
0.721525 0.615249 0.000000
0.765347 0.615249 0.000000
0.802121 0.615249 0.000000
0.833011 0.615249 0.000000
0.858982 0.615249 0.000000
0.880835 0.615249 0.000000
0.899239 0.615249 0.000000
0.914749 0.615249 0.000000
0.927830 0.615249 0.000000
0.938869 0.615249 0.000000
0.948193 0.615249 0.000000
0.956072 0.615249 0.000000
0.962734 0.615249 0.000000
0.000000 0.650748 0.000000
0.016469 0.650748 0.000000
0.061213 0.650748 0.000000
0.104173 0.650748 0.000000
0.145952 0.650748 0.000000
0.186851 0.650748 0.000000
0.227051 0.650748 0.000000
0.266675 0.650748 0.000000
0.305807 0.650748 0.000000
0.344513 0.650748 0.000000
0.382842 0.650748 0.000000
0.420834 0.650748 0.000000
0.458521 0.650748 0.000000
0.495931 0.650748 0.000000
0.533086 0.650748 0.000000
0.570006 0.650748 0.000000
0.606707 0.650748 0.000000
0.643204 0.650748 0.000000
0.679510 0.650748 0.000000
0.721525 0.650748 0.000000
0.765347 0.650748 0.000000
0.802121 0.650748 0.000000
0.833011 0.650748 0.000000
0.858982 0.650748 0.000000
0.880835 0.650748 0.000000
0.899239 0.650748 0.000000
0.914749 0.650748 0.000000
0.927830 0.650748 0.000000
0.938869 0.650748 0.000000
0.948193 0.650748 0.000000
0.956072 0.650748 0.000000
0.962734 0.650748 0.000000
0.000000 0.686176 0.000000
0.016469 0.686176 0.000000
0.061213 0.686176 0.000000
0.104173 0.686176 0.000000
0.145952 0.686176 0.000000
0.186851 0.686176 0.000000
0.227051 0.686176 0.000000
0.266675 0.686176 0.000000
0.305807 0.686176 0.000000
0.344513 0.686176 0.000000
0.382842 0.686176 0.000000
0.420834 0.686176 0.000000
0.458521 0.686176 0.000000
0.495931 0.686176 0.000000
0.533086 0.686176 0.000000
0.570006 0.686176 0.000000
0.606707 0.686176 0.000000
0.643204 0.686176 0.000000
0.679510 0.686176 0.000000
0.721525 0.686176 0.000000
0.765347 0.686176 0.000000
0.802121 0.686176 0.000000
0.833011 0.686176 0.000000
0.858982 0.686176 0.000000
0.880835 0.686176 0.000000
0.899239 0.686176 0.000000
0.914749 0.686176 0.000000
0.927830 0.686176 0.000000
0.938869 0.686176 0.000000
0.948193 0.686176 0.000000
0.956072 0.686176 0.000000
0.962734 0.686176 0.000000
0.000000 0.729240 0.000000
0.016469 0.729240 0.000000
0.061213 0.729240 0.000000
0.104173 0.729240 0.000000
0.145952 0.729240 0.000000
0.186851 0.729240 0.000000
0.227051 0.729240 0.000000
0.266675 0.729240 0.000000
0.305807 0.729240 0.000000
0.344513 0.729240 0.000000
0.382842 0.729240 0.000000
0.420834 0.729240 0.000000
0.458521 0.729240 0.000000
0.495931 0.729240 0.000000
0.533086 0.729240 0.000000
0.570006 0.729240 0.000000
0.606707 0.729240 0.000000
0.643204 0.729240 0.000000
0.679510 0.729240 0.000000
0.721525 0.729240 0.000000
0.765347 0.729240 0.000000
0.802121 0.729240 0.000000
0.833011 0.729240 0.000000
0.858982 0.729240 0.000000
0.880835 0.729240 0.000000
0.899239 0.729240 0.000000
0.914749 0.729240 0.000000
0.927830 0.729240 0.000000
0.938869 0.729240 0.000000
0.948193 0.729240 0.000000
0.956072 0.729240 0.000000
0.962734 0.729240 0.000000
0.000000 0.771128 0.000000
0.016469 0.771128 0.000000
0.061213 0.771128 0.000000
0.104173 0.771128 0.000000
0.145952 0.771128 0.000000
0.186851 0.771128 0.000000
0.227051 0.771128 0.000000
0.266675 0.771128 0.000000
0.305807 0.771128 0.000000
0.344513 0.771128 0.000000
0.382842 0.771128 0.000000
0.420834 0.771128 0.000000
0.458521 0.771128 0.000000
0.495931 0.771128 0.000000
0.533086 0.771128 0.000000
0.570006 0.771128 0.000000
0.606707 0.771128 0.000000
0.643204 0.771128 0.000000
0.679510 0.771128 0.000000
0.721525 0.771128 0.000000
0.765347 0.771128 0.000000
0.802121 0.771128 0.000000
0.833011 0.771128 0.000000
0.858982 0.771128 0.000000
0.880835 0.771128 0.000000
0.899239 0.771128 0.000000
0.914749 0.771128 0.000000
0.927830 0.771128 0.000000
0.938869 0.771128 0.000000
0.948193 0.771128 0.000000
0.956072 0.771128 0.000000
0.962734 0.771128 0.000000
0.000000 0.806479 0.000000
0.016469 0.806479 0.000000
0.061213 0.806479 0.000000
0.104173 0.806479 0.000000
0.145952 0.806479 0.000000
0.186851 0.806479 0.000000
0.227051 0.806479 0.000000
0.266675 0.806479 0.000000
0.305807 0.806479 0.000000
0.344513 0.806479 0.000000
0.382842 0.806479 0.000000
0.420834 0.806479 0.000000
0.458521 0.806479 0.000000
0.495931 0.806479 0.000000
0.533086 0.806479 0.000000
0.570006 0.806479 0.000000
0.606707 0.806479 0.000000
0.643204 0.806479 0.000000
0.679510 0.806479 0.000000
0.721525 0.806479 0.000000
0.765347 0.806479 0.000000
0.802121 0.806479 0.000000
0.833011 0.806479 0.000000
0.858982 0.806479 0.000000
0.880835 0.806479 0.000000
0.899239 0.806479 0.000000
0.914749 0.806479 0.000000
0.927830 0.806479 0.000000
0.938869 0.806479 0.000000
0.948193 0.806479 0.000000
0.956072 0.806479 0.000000
0.962734 0.806479 0.000000
0.000000 0.836324 0.000000
0.016469 0.836324 0.000000
0.061213 0.836324 0.000000
0.104173 0.836324 0.000000
0.145952 0.836324 0.000000
0.186851 0.836324 0.000000
0.227051 0.836324 0.000000
0.266675 0.836324 0.000000
0.305807 0.836324 0.000000
0.344513 0.836324 0.000000
0.382842 0.836324 0.000000
0.420834 0.836324 0.000000
0.458521 0.836324 0.000000
0.495931 0.836324 0.000000
0.533086 0.836324 0.000000
0.570006 0.836324 0.000000
0.606707 0.836324 0.000000
0.643204 0.836324 0.000000
0.679510 0.836324 0.000000
0.721525 0.836324 0.000000
0.765347 0.836324 0.000000
0.802121 0.836324 0.000000
0.833011 0.836324 0.000000
0.858982 0.836324 0.000000
0.880835 0.836324 0.000000
0.899239 0.836324 0.000000
0.914749 0.836324 0.000000
0.927830 0.836324 0.000000
0.938869 0.836324 0.000000
0.948193 0.836324 0.000000
0.956072 0.836324 0.000000
0.962734 0.836324 0.000000
0.000000 0.861529 0.000000
0.016469 0.861529 0.000000
0.061213 0.861529 0.000000
0.104173 0.861529 0.000000
0.145952 0.861529 0.000000
0.186851 0.861529 0.000000
0.227051 0.861529 0.000000
0.266675 0.861529 0.000000
0.305807 0.861529 0.000000
0.344513 0.861529 0.000000
0.382842 0.861529 0.000000
0.420834 0.861529 0.000000
0.458521 0.861529 0.000000
0.495931 0.861529 0.000000
0.533086 0.861529 0.000000
0.570006 0.861529 0.000000
0.606707 0.861529 0.000000
0.643204 0.861529 0.000000
0.679510 0.861529 0.000000
0.721525 0.861529 0.000000
0.765347 0.861529 0.000000
0.802121 0.861529 0.000000
0.833011 0.861529 0.000000
0.858982 0.861529 0.000000
0.880835 0.861529 0.000000
0.899239 0.861529 0.000000
0.914749 0.861529 0.000000
0.927830 0.861529 0.000000
0.938869 0.861529 0.000000
0.948193 0.861529 0.000000
0.956072 0.861529 0.000000
0.962734 0.861529 0.000000
0.000000 0.882823 0.000000
0.016469 0.882823 0.000000
0.061213 0.882823 0.000000
0.104173 0.882823 0.000000
0.145952 0.882823 0.000000
0.186851 0.882823 0.000000
0.227051 0.882823 0.000000
0.266675 0.882823 0.000000
0.305807 0.882823 0.000000
0.344513 0.882823 0.000000
0.382842 0.882823 0.000000
0.420834 0.882823 0.000000
0.458521 0.882823 0.000000
0.495931 0.882823 0.000000
0.533086 0.882823 0.000000
0.570006 0.882823 0.000000
0.606707 0.882823 0.000000
0.643204 0.882823 0.000000
0.679510 0.882823 0.000000
0.721525 0.882823 0.000000
0.765347 0.882823 0.000000
0.802121 0.882823 0.000000
0.833011 0.882823 0.000000
0.858982 0.882823 0.000000
0.880835 0.882823 0.000000
0.899239 0.882823 0.000000
0.914749 0.882823 0.000000
0.927830 0.882823 0.000000
0.938869 0.882823 0.000000
0.948193 0.882823 0.000000
0.956072 0.882823 0.000000
0.962734 0.882823 0.000000
0.000000 0.900817 0.000000
0.016469 0.900817 0.000000
0.061213 0.900817 0.000000
0.104173 0.900817 0.000000
0.145952 0.900817 0.000000
0.186851 0.900817 0.000000
0.227051 0.900817 0.000000
0.266675 0.900817 0.000000
0.305807 0.900817 0.000000
0.344513 0.900817 0.000000
0.382842 0.900817 0.000000
0.420834 0.900817 0.000000
0.458521 0.900817 0.000000
0.495931 0.900817 0.000000
0.533086 0.900817 0.000000
0.570006 0.900817 0.000000
0.606707 0.900817 0.000000
0.643204 0.900817 0.000000
0.679510 0.900817 0.000000
