assets/luts/douyin_vintage.cube
# Beauty Camera 3D LUT
# Filter: Cổ Điển Hồng (douyin_vintage)
# Category: Douyin
TITLE "Cổ Điển Hồng"
LUT_3D_SIZE 5
DOMAIN_MIN 0.000000 0.000000 0.000000
DOMAIN_MAX 0.903226 0.903226 0.903226
0.048038 0.018498 0.015150
0.289097 0.016511 0.013162
0.538779 0.014452 0.011104
0.776014 0.012497 0.009148
0.985115 0.010773 0.007424
0.042047 0.230314 0.009158
0.283106 0.228327 0.007171
0.532788 0.226268 0.005113
0.770023 0.224312 0.003157
0.979124 0.222589 0.001433
0.035533 0.460589 0.002645
0.276593 0.458601 0.000658
0.526275 0.456543 0.000000
0.763509 0.454587 0.000000
0.972610 0.452863 0.000000
0.028867 0.696265 0.000000
0.269926 0.694278 0.000000
0.519608 0.692219 0.000000
0.756843 0.690263 0.000000
0.965944 0.688539 0.000000
0.022851 0.908967 0.000000
0.263910 0.906980 0.000000
0.513592 0.904922 0.000000
0.750826 0.902966 0.000000
0.959927 0.901242 0.000000
0.047483 0.017943 0.214627
0.288542 0.015955 0.212639
0.538224 0.013897 0.210581
0.775459 0.011941 0.208625
0.984559 0.010217 0.206901
0.041491 0.229759 0.208635
0.282551 0.227771 0.206648
0.532233 0.225713 0.204589
0.769467 0.223757 0.202634
0.978568 0.222033 0.200910
0.034978 0.460033 0.202122
0.276037 0.458046 0.200134
0.525719 0.455987 0.198076
0.762954 0.454032 0.196120
0.972055 0.452308 0.194396
0.028312 0.695709 0.195455
0.269371 0.693722 0.193468
0.519053 0.691664 0.191410
0.756287 0.689708 0.189454
0.965388 0.687984 0.187730
0.022295 0.908412 0.189439
0.263354 0.906425 0.187452
0.513036 0.904366 0.185393
0.750271 0.902410 0.183437
0.959372 0.900686 0.181713
0.046854 0.017314 0.440451
0.287913 0.015327 0.438464
0.537595 0.013268 0.436405
0.774830 0.011312 0.434449
0.983931 0.009588 0.432726
0.040862 0.229130 0.434460
0.281922 0.227142 0.432472
0.531604 0.225084 0.430414
0.768838 0.223128 0.428458
0.977939 0.221404 0.426734
0.034349 0.459404 0.427946
0.275408 0.457417 0.425959
0.525090 0.455359 0.423900
0.762325 0.453403 0.421945
0.971426 0.451679 0.420221
0.027683 0.695081 0.421280
0.268742 0.693093 0.419293
0.518424 0.691035 0.417234
0.755659 0.689079 0.415278
0.964759 0.687355 0.413554
0.021666 0.907783 0.415264
0.262725 0.905796 0.413276
0.512408 0.903737 0.411218
0.749642 0.901781 0.409262
0.958743 0.900057 0.407538
0.046186 0.016646 0.680441
0.287245 0.014658 0.678454
0.536927 0.012600 0.676395
0.774161 0.010644 0.674440
0.983262 0.008920 0.672716
0.040194 0.228462 0.674450
0.281253 0.226474 0.672463
0.530936 0.224416 0.670404
0.768170 0.222460 0.668448
0.977271 0.220736 0.666724
0.033681 0.458736 0.667936
0.274740 0.456749 0.665949
0.524422 0.454690 0.663891
0.761657 0.452734 0.661935
0.970757 0.451010 0.660211
0.027014 0.694412 0.661270
0.268074 0.692425 0.659283
0.517756 0.690366 0.657224
0.754990 0.688411 0.655268
0.964091 0.686687 0.653545
0.020998 0.907115 0.655254
0.262057 0.905127 0.653266
0.511739 0.903069 0.651208
0.748974 0.901113 0.649252
0.958075 0.899389 0.647528
0.045569 0.016030 0.901713
0.286629 0.014042 0.899725
0.536311 0.011984 0.897667
0.773545 0.010028 0.895711
0.982646 0.008304 0.893987
0.039578 0.227845 0.895721
0.280637 0.225858 0.893734
0.530319 0.223800 0.891675
0.767554 0.221844 0.889720
0.976655 0.220120 0.887996
0.033065 0.458120 0.889208
0.274124 0.456133 0.887220
0.523806 0.454074 0.885162
0.761040 0.452118 0.883206
0.970141 0.450394 0.881482
0.026398 0.693796 0.882541
0.267457 0.691809 0.880554
0.517140 0.689750 0.878496
0.754374 0.687794 0.876540
0.963475 0.686071 0.874816
0.020382 0.906499 0.876525
0.261441 0.904511 0.874538
0.511123 0.902453 0.872479
0.748358 0.900497 0.870523
0.957459 0.898773 0.868799
