assets/luts/douyin_vintage.cube
# Beauty Camera 3D LUT
# Filter: Cổ Điển Hồng (douyin_vintage)
# Category: Douyin
TITLE "Cổ Điển Hồng"
LUT_3D_SIZE 8
DOMAIN_MIN 0.000000 0.000000 0.000000
DOMAIN_MAX 0.903226 0.903226 0.903226
0.048038 0.018498 0.015150
0.185696 0.017363 0.014015
0.323975 0.016223 0.012875
0.466142 0.015051 0.011703
0.609655 0.013868 0.010520
0.743927 0.012761 0.009413
0.868885 0.011731 0.008382
0.985115 0.010773 0.007424
0.044670 0.137588 0.011781
0.182327 0.136453 0.010646
0.320606 0.135313 0.009506
0.462774 0.134141 0.008334
0.606286 0.132958 0.007151
0.740559 0.131851 0.006044
0.865517 0.130820 0.005014
0.981746 0.129862 0.004056
0.041151 0.261995 0.008262
0.178808 0.260860 0.007127
0.317087 0.259720 0.005987
0.459255 0.258548 0.004815
0.602768 0.257365 0.003632
0.737040 0.256258 0.002525
0.861998 0.255228 0.001495
0.978227 0.254270 0.000537
0.037452 0.392749 0.004564
0.175110 0.391614 0.003429
0.313389 0.390474 0.002289
0.455556 0.389302 0.001117
0.599069 0.388119 0.000000
0.733341 0.387012 0.000000
0.858299 0.385982 0.000000
0.974529 0.385024 0.000000
0.033574 0.529859 0.000686
0.171232 0.528724 0.000000
0.309511 0.527584 0.000000
0.451678 0.526412 0.000000
0.595191 0.525229 0.000000
0.729463 0.524122 0.000000
0.854421 0.523091 0.000000
0.970651 0.522133 0.000000
0.029781 0.663963 0.000000
0.167438 0.662828 0.000000
0.305718 0.661688 0.000000
0.447885 0.660516 0.000000
0.591398 0.659332 0.000000
0.725670 0.658225 0.000000
0.850628 0.657195 0.000000
0.966857 0.656237 0.000000
0.026208 0.790280 0.000000
0.163865 0.789145 0.000000
0.302145 0.788005 0.000000
0.444312 0.786833 0.000000
0.587825 0.785650 0.000000
0.722097 0.784543 0.000000
0.847055 0.783512 0.000000
0.963284 0.782554 0.000000
0.022851 0.908967 0.000000
0.160508 0.907832 0.000000
0.298787 0.906692 0.000000
0.440955 0.905520 0.000000
0.584467 0.904337 0.000000
0.718740 0.903230 0.000000
0.843698 0.902200 0.000000
0.959927 0.901242 0.000000
0.047731 0.018191 0.125613
0.185388 0.017056 0.124479
0.323667 0.015916 0.123339
0.465835 0.014744 0.122166
0.609347 0.013561 0.120983
0.743620 0.012454 0.119876
0.868578 0.011423 0.118846
0.984807 0.010465 0.117888
0.044362 0.137280 0.122245
0.182020 0.136145 0.121110
0.320299 0.135005 0.119970
0.462466 0.133833 0.118798
0.605979 0.132650 0.117615
0.740251 0.131543 0.116508
0.865209 0.130513 0.115478
0.981439 0.129555 0.114519
0.040843 0.261688 0.118726
0.178501 0.260553 0.117591
0.316780 0.259413 0.116451
0.458947 0.258241 0.115279
0.602460 0.257058 0.114096
0.736732 0.255951 0.112989
0.861690 0.254920 0.111959
0.977920 0.253962 0.111000
0.037145 0.392442 0.115027
0.174802 0.391307 0.113893
0.313081 0.390167 0.112753
0.455249 0.388995 0.111581
0.598761 0.387812 0.110397
0.733034 0.386705 0.109290
0.857992 0.385674 0.108260
0.974221 0.384716 0.107302
0.033266 0.529551 0.111149
0.170924 0.528416 0.110014
0.309203 0.527276 0.108874
0.451370 0.526104 0.107702
0.594883 0.524921 0.106519
0.729156 0.523814 0.105412
0.854113 0.522784 0.104382
0.970343 0.521826 0.103424
0.029473 0.663655 0.107356
0.167131 0.662520 0.106221
0.305410 0.661380 0.105081
0.447577 0.660208 0.103909
0.591090 0.659025 0.102726
0.725362 0.657918 0.101619
0.850320 0.656888 0.100589
0.966550 0.655929 0.099630
0.025900 0.789972 0.103783
0.163558 0.788837 0.102648
0.301837 0.787697 0.101508
0.444004 0.786525 0.100336
0.587517 0.785342 0.099153
0.721789 0.784235 0.098046
0.846747 0.783205 0.097016
0.962977 0.782247 0.096057
0.022543 0.908660 0.100426
0.160201 0.907525 0.099291
0.298480 0.906385 0.098151
0.440647 0.905213 0.096979
0.584160 0.904030 0.095796
0.718432 0.902923 0.094689
0.843390 0.901892 0.093659
0.959620 0.900934 0.092700
0.047397 0.017857 0.245355
0.185055 0.016722 0.244220
0.323334 0.015582 0.243080
0.465501 0.014410 0.241908
0.609014 0.013227 0.240725
0.743286 0.012120 0.239618
0.868244 0.011090 0.238588
0.984474 0.010132 0.237630
0.044029 0.136947 0.241987
0.181686 0.135812 0.240852
0.319965 0.134672 0.239712
0.462133 0.133500 0.238540
0.605645 0.132317 0.237357
0.739918 0.131210 0.236250
0.864876 0.130179 0.235219
0.981105 0.129221 0.234261
0.040510 0.261354 0.238468
0.178167 0.260219 0.237333
0.316446 0.259079 0.236193
0.458614 0.257907 0.235021
0.602126 0.256724 0.233838
0.736399 0.255617 0.232731
0.861357 0.254587 0.231701
0.977586 0.253629 0.230742
0.036811 0.392108 0.234769
0.174469 0.390973 0.233634
0.312748 0.389833 0.232494
0.454915 0.388661 0.231322
0.598428 0.387478 0.230139
0.732700 0.386371 0.229032
0.857658 0.385341 0.228002
0.973888 0.384383 0.227044
0.032933 0.529218 0.230891
0.170591 0.528083 0.229756
0.308870 0.526943 0.228616
0.451037 0.525771 0.227444
0.594550 0.524588 0.226261
0.728822 0.523481 0.225154
0.853780 0.522450 0.224124
0.970010 0.521492 0.223166
0.029140 0.663322 0.227098
0.166797 0.662187 0.225963
0.305076 0.661047 0.224823
0.447244 0.659875 0.223651
0.590757 0.658691 0.222468
0.725029 0.657584 0.221361
0.849987 0.656554 0.220331
0.966216 0.655596 0.219372
0.025567 0.789639 0.223525
0.163224 0.788504 0.222390
0.301503 0.787364 0.221250
0.443671 0.786192 0.220078
0.587184 0.785008 0.218895
0.721456 0.783902 0.217788
0.846414 0.782871 0.216758
0.962643 0.781913 0.215799
0.022209 0.908326 0.220168
0.159867 0.907191 0.219033
0.298146 0.906051 0.217893
0.440314 0.904879 0.216721
0.583826 0.903696 0.215538
0.718099 0.902589 0.214431
0.843057 0.901559 0.213400
0.959286 0.900601 0.212442
0.047041 0.017501 0.373397
0.184698 0.016366 0.372262
0.322977 0.015226 0.371122
0.465145 0.014054 0.369950
0.608657 0.012871 0.368767
0.742930 0.011764 0.367660
0.867888 0.010733 0.366630
0.984117 0.009775 0.365672
0.043672 0.136590 0.370029
0.181330 0.135455 0.368894
0.319609 0.134315 0.367754
0.461776 0.133143 0.366582
0.605289 0.131960 0.365399
0.739561 0.130853 0.364292
0.864519 0.129823 0.363261
0.980749 0.128865 0.362303
0.040153 0.260998 0.366510
0.177811 0.259863 0.365375
0.316090 0.258723 0.364235
0.458257 0.257551 0.363063
0.601770 0.256368 0.361880
0.736042 0.255261 0.360773
0.861000 0.254230 0.359742
0.977230 0.253272 0.358784
0.036455 0.391752 0.362811
0.174112 0.390617 0.361676
0.312391 0.389477 0.360536
0.454559 0.388305 0.359364
0.598071 0.387122 0.358181
0.732344 0.386015 0.357074
0.857302 0.384984 0.356044
0.973531 0.384026 0.355086
0.032576 0.528861 0.358933
0.170234 0.527726 0.357798
0.308513 0.526586 0.356658
0.450680 0.525414 0.355486
0.594193 0.524231 0.354303
0.728466 0.523124 0.353196
0.853423 0.522094 0.352166
0.969653 0.521136 0.351207
0.028783 0.662965 0.355140
0.166441 0.661830 0.354005
0.304720 0.660690 0.352865
0.446887 0.659518 0.351693
0.590400 0.658335 0.350510
0.724672 0.657228 0.349403
0.849630 0.656198 0.348372
0.965860 0.655239 0.347414
0.025210 0.789282 0.351567
0.162868 0.788147 0.350432
0.301147 0.787007 0.349292
0.443314 0.785835 0.348120
0.586827 0.784652 0.346937
0.721099 0.783545 0.345830
0.846057 0.782515 0.344799
0.962287 0.781557 0.343841
0.021853 0.907970 0.348210
0.159511 0.906835 0.347075
0.297790 0.905695 0.345935
0.439957 0.904523 0.344763
0.583470 0.903340 0.343579
0.717742 0.902233 0.342472
0.842700 0.901202 0.341442
0.958930 0.900244 0.340484
0.046662 0.017122 0.509507
0.184319 0.015987 0.508372
0.322598 0.014847 0.507232
0.464766 0.013675 0.506060
0.608278 0.012492 0.504877
0.742551 0.011385 0.503770
0.867509 0.010354 0.502740
0.983738 0.009396 0.501782
0.043293 0.136211 0.506139
0.180951 0.135076 0.505004
0.319230 0.133936 0.503864
0.461397 0.132764 0.502692
0.604910 0.131581 0.501509
0.739182 0.130474 0.500402
0.864140 0.129444 0.499371
0.980370 0.128486 0.498413
0.039774 0.260619 0.502620
0.177432 0.259484 0.501485
0.315711 0.258344 0.500345
0.457878 0.257172 0.499173
0.601391 0.255989 0.497990
0.735663 0.254882 0.496883
0.860621 0.253851 0.495853
0.976851 0.252893 0.494894
0.036076 0.391373 0.498921
0.173733 0.390238 0.497786
0.312012 0.389098 0.496646
0.454180 0.387926 0.495474
0.597692 0.386743 0.494291
0.731965 0.385636 0.493184
0.856923 0.384605 0.492154
0.973152 0.383647 0.491196
0.032197 0.528482 0.495043
0.169855 0.527347 0.493908
0.308134 0.526207 0.492768
0.450301 0.525035 0.491596
0.593814 0.523852 0.490413
0.728087 0.522745 0.489306
0.853044 0.521715 0.488276
0.969274 0.520757 0.487318
0.028404 0.662586 0.491250
0.166062 0.661451 0.490115
0.304341 0.660311 0.488975
0.446508 0.659139 0.487803
0.590021 0.657956 0.486620
0.724293 0.656849 0.485513
0.849251 0.655819 0.484483
0.965481 0.654860 0.483524
0.024831 0.788903 0.487677
0.162489 0.787768 0.486542
0.300768 0.786628 0.485402
0.442935 0.785456 0.484230
0.586448 0.784273 0.483047
0.720720 0.783166 0.481940
0.845678 0.782136 0.480910
0.961908 0.781178 0.479951
0.021474 0.907591 0.484320
0.159132 0.906456 0.483185
0.297411 0.905316 0.482045
0.439578 0.904144 0.480873
0.583091 0.902961 0.479690
0.717363 0.901854 0.478583
0.842321 0.900823 0.477552
0.958551 0.899865 0.476594
0.046278 0.016739 0.647096
0.183936 0.015604 0.645961
0.322215 0.014464 0.644821
0.464382 0.013292 0.643649
0.607895 0.012108 0.642465
0.742168 0.011001 0.641359
0.867125 0.009971 0.640328
0.983355 0.009013 0.639370
0.042910 0.135828 0.643727
0.180568 0.134693 0.642592
0.318847 0.133553 0.641452
0.461014 0.132381 0.640280
0.604527 0.131198 0.639097
0.738799 0.130091 0.637990
0.863757 0.129061 0.636960
0.979987 0.128102 0.636002
0.039391 0.260236 0.640208
0.177049 0.259101 0.639073
0.315328 0.257961 0.637933
0.457495 0.256789 0.636761
0.601008 0.255605 0.635578
0.735280 0.254498 0.634471
0.860238 0.253468 0.633441
0.976468 0.252510 0.632483
0.035692 0.390990 0.636510
0.173350 0.389855 0.635375
0.311629 0.388715 0.634235
0.453796 0.387543 0.633063
0.597309 0.386359 0.631880
0.731582 0.385252 0.630773
0.856539 0.384222 0.629742
0.972769 0.383264 0.628784
0.031814 0.528099 0.632631
0.169472 0.526964 0.631497
0.307751 0.525824 0.630357
0.449918 0.524652 0.629184
0.593431 0.523469 0.628001
0.727704 0.522362 0.626894
0.852661 0.521332 0.625864
0.968891 0.520373 0.624906
0.028021 0.662203 0.628838
0.165679 0.661068 0.627703
0.303958 0.659928 0.626563
0.446125 0.658756 0.625391
0.589638 0.657573 0.624208
0.723910 0.656466 0.623101
0.848868 0.655436 0.622071
0.965098 0.654477 0.621113
0.024448 0.788520 0.625265
0.162106 0.787385 0.624130
0.300385 0.786245 0.622990
0.442552 0.785073 0.621818
0.586065 0.783890 0.620635
0.720337 0.782783 0.619528
0.845295 0.781753 0.618498
0.961525 0.780794 0.617540
0.021091 0.907208 0.621908
0.158749 0.906073 0.620773
0.297028 0.904933 0.619633
0.439195 0.903761 0.618461
0.582708 0.902577 0.617278
0.716980 0.901470 0.616171
0.841938 0.900440 0.615141
0.958168 0.899482 0.614182
0.045914 0.016374 0.777894
0.183572 0.015239 0.776759
0.321851 0.014099 0.775619
0.464018 0.012927 0.774447
0.607531 0.011744 0.773264
0.741803 0.010637 0.772157
0.866761 0.009607 0.771126
0.982991 0.008649 0.770168
0.042546 0.135464 0.774525
0.180203 0.134329 0.773390
0.318482 0.133189 0.772250
0.460650 0.132017 0.771078
0.604163 0.130834 0.769895
0.738435 0.129727 0.768788
0.863393 0.128696 0.767758
0.979622 0.127738 0.766800
0.039027 0.259871 0.771006
0.176684 0.258736 0.769871
0.314963 0.257596 0.768731
0.457131 0.256424 0.767559
0.600644 0.255241 0.766376
0.734916 0.254134 0.765269
0.859874 0.253104 0.764239
0.976103 0.252146 0.763281
0.035328 0.390625 0.767308
0.172986 0.389491 0.766173
0.311265 0.388350 0.765033
0.453432 0.387178 0.763861
0.596945 0.385995 0.762678
0.731218 0.384888 0.761571
0.856175 0.383858 0.760540
0.972405 0.382900 0.759582
0.031450 0.527735 0.763429
0.169108 0.526600 0.762295
0.307387 0.525460 0.761155
0.449554 0.524288 0.759982
0.593067 0.523105 0.758799
0.727339 0.521998 0.757692
0.852297 0.520967 0.756662
0.968527 0.520009 0.755704
0.027657 0.661839 0.759636
0.165314 0.660704 0.758501
0.303594 0.659564 0.757361
0.445761 0.658392 0.756189
0.589274 0.657208 0.755006
0.723546 0.656101 0.753899
0.848504 0.655071 0.752869
0.964733 0.654113 0.751911
0.024084 0.788156 0.756063
0.161741 0.787021 0.754928
0.300021 0.785881 0.753788
0.442188 0.784709 0.752616
0.585701 0.783526 0.751433
0.719973 0.782419 0.750326
0.844931 0.781388 0.749296
0.961160 0.780430 0.748338
0.020727 0.906843 0.752706
0.158384 0.905708 0.751571
0.296663 0.904568 0.750431
0.438831 0.903396 0.749259
0.582343 0.902213 0.748076
0.716616 0.901106 0.746969
0.841574 0.900076 0.745939
0.957803 0.899118 0.744981
0.045569 0.016030 0.901713
0.183227 0.014895 0.900578
0.321506 0.013755 0.899438
0.463673 0.012583 0.898266
0.607186 0.011399 0.897082
0.741459 0.010292 0.895975
0.866416 0.009262 0.894945
0.982646 0.008304 0.893987
0.042201 0.135119 0.898344
0.179859 0.133984 0.897209
0.318138 0.132844 0.896069
0.460305 0.131672 0.894897
0.603818 0.130489 0.893714
0.738090 0.129382 0.892607
0.863048 0.128352 0.891577
0.979278 0.127393 0.890619
0.038682 0.259527 0.894825
0.176340 0.258392 0.893690
0.314619 0.257252 0.892550
0.456786 0.256080 0.891378
0.600299 0.254896 0.890195
0.734571 0.253789 0.889088
0.859529 0.252759 0.888058
0.975759 0.251801 0.887100
0.034983 0.390281 0.891127
0.172641 0.389146 0.889992
0.310920 0.388006 0.888852
0.453087 0.386834 0.887680
0.596600 0.385650 0.886496
0.730873 0.384543 0.885389
0.855830 0.383513 0.884359
0.972060 0.382555 0.883401
0.031105 0.527390 0.887248
0.168763 0.526255 0.886114
0.307042 0.525115 0.884973
0.449209 0.523943 0.883801
0.592722 0.522760 0.882618
0.726994 0.521653 0.881511
0.851952 0.520623 0.880481
0.968182 0.519664 0.879523
0.027312 0.661494 0.883455
0.164970 0.660359 0.882320
0.303249 0.659219 0.881180
0.445416 0.658047 0.880008
0.588929 0.656864 0.878825
0.723201 0.655757 0.877718
0.848159 0.654726 0.876688
0.964389 0.653768 0.875730
0.023739 0.787811 0.879882
0.161397 0.786676 0.878747
0.299676 0.785536 0.877607
0.441843 0.784364 0.876435
0.585356 0.783181 0.875252
0.719628 0.782074 0.874145
0.844586 0.781044 0.873115
0.960816 0.780085 0.872157
0.020382 0.906499 0.876525
0.158040 0.905364 0.875390
0.296319 0.904224 0.874250
0.438486 0.903052 0.873078
0.581999 0.901868 0.871895
0.716271 0.900761 0.870788
0.841229 0.899731 0.869758
0.957459 0.898773 0.868799
