assets/luts/douyin_dreamy.cube
# Beauty Camera 3D LUT
# Filter: Mộng Ảo (douyin_dreamy)
# Category: Douyin
TITLE "Mộng Ảo"
LUT_3D_SIZE 5
DOMAIN_MIN 0.000000 0.000000 0.000000
DOMAIN_MAX 0.903226 0.903226 0.903226
0.096143 0.066641 0.108443
0.306835 0.070465 0.112267
0.494357 0.073869 0.115671
0.671467 0.077084 0.118886
0.841860 0.080176 0.121979
0.108642 0.280122 0.120942
0.319334 0.283946 0.124767
0.506857 0.287350 0.128170
0.683966 0.290565 0.131385
0.854360 0.293658 0.134478
0.120190 0.477354 0.132490
0.330882 0.481179 0.136315
0.518405 0.484583 0.139718
0.695514 0.487797 0.142933
0.865908 0.490890 0.146026
0.131329 0.667592 0.143629
0.342021 0.671416 0.147453
0.529543 0.674820 0.150857
0.706652 0.678035 0.154072
0.877046 0.681128 0.157165
0.142202 0.853310 0.154502
0.352895 0.857134 0.158327
0.540417 0.860538 0.161731
0.717526 0.863753 0.164945
0.887920 0.866846 0.168038
0.097443 0.067940 0.316738
0.308135 0.071765 0.320562
0.495657 0.075168 0.323966
0.672766 0.078383 0.327181
0.843160 0.081476 0.330273
0.109942 0.281421 0.329237
0.320634 0.285246 0.333061
0.508156 0.288649 0.336465
0.685265 0.291864 0.339680
0.855659 0.294957 0.342773
0.121490 0.478654 0.340785
0.332182 0.482478 0.344609
0.519704 0.485882 0.348013
0.696813 0.489097 0.351228
0.867207 0.492190 0.354321
0.132628 0.668892 0.351923
0.343320 0.672716 0.355748
0.530843 0.676120 0.359152
0.707952 0.679335 0.362366
0.878346 0.682427 0.365459
0.143502 0.854609 0.362797
0.354194 0.858434 0.366622
0.541716 0.861838 0.370025
0.718826 0.865052 0.373240
0.889219 0.868145 0.376333
0.098607 0.069104 0.503303
0.309299 0.072929 0.507128
0.496821 0.076332 0.510531
0.673930 0.079547 0.513746
0.844324 0.082640 0.516839
0.111106 0.282585 0.515803
0.321798 0.286410 0.519627
0.509320 0.289813 0.523031
0.686429 0.293028 0.526245
0.856823 0.296121 0.529338
0.122654 0.479818 0.527351
0.333346 0.483642 0.531175
0.520868 0.487046 0.534579
0.697977 0.490261 0.537793
0.868371 0.493354 0.540886
0.133792 0.670056 0.538489
0.344484 0.673880 0.542313
0.532007 0.677284 0.545717
0.709116 0.680499 0.548932
0.879510 0.683591 0.552025
0.144666 0.855773 0.549363
0.355358 0.859598 0.553187
0.542880 0.863002 0.556591
0.719990 0.866216 0.559806
0.890383 0.869309 0.562899
0.099707 0.070205 0.679745
0.310399 0.074029 0.683569
0.497922 0.077433 0.686973
0.675031 0.080648 0.690188
0.845425 0.083741 0.693281
0.112207 0.283686 0.692244
0.322899 0.287510 0.696069
0.510421 0.290914 0.699473
0.687530 0.294129 0.702687
0.857924 0.297222 0.705780
0.123755 0.480919 0.703792
0.334447 0.484743 0.707617
0.521969 0.488147 0.711020
0.699078 0.491362 0.714235
0.869472 0.494455 0.717328
0.134893 0.671157 0.714931
0.345585 0.674981 0.718755
0.533107 0.678385 0.722159
0.710217 0.681599 0.725374
0.880611 0.684692 0.728467
0.145767 0.856874 0.725805
0.356459 0.860699 0.729629
0.543981 0.864102 0.733033
0.721090 0.867317 0.736247
0.891484 0.870410 0.739340
0.100767 0.071265 0.849599
0.311459 0.075089 0.853424
0.498981 0.078493 0.856828
0.676091 0.081708 0.860042
0.846485 0.084801 0.863135
0.113266 0.284746 0.862099
0.323959 0.288570 0.865923
0.511481 0.291974 0.869327
0.688590 0.295189 0.872542
0.858984 0.298282 0.875635
0.124814 0.481979 0.873647
0.335506 0.485803 0.877471
0.523029 0.489207 0.880875
0.700138 0.492421 0.884090
0.870532 0.495514 0.887183
0.135953 0.672216 0.884785
0.346645 0.676041 0.888609
0.534167 0.679444 0.892013
0.711276 0.682659 0.895228
0.881670 0.685752 0.898321
0.146827 0.857934 0.895659
0.357519 0.861758 0.899483
0.545041 0.865162 0.902887
0.722150 0.868377 0.906102
0.892544 0.871470 0.909195
