assets/luts/douyin_moon.cube
# Beauty Camera 3D LUT
# Filter: Bạch Nguyệt (douyin_moon)
# Category: Douyin
TITLE "Bạch Nguyệt"
LUT_3D_SIZE 5
DOMAIN_MIN 0.000000 0.000000 0.000000
DOMAIN_MAX 0.903226 0.903226 0.903226
0.000000 0.000000 0.029276
0.239353 0.000000 0.029276
0.486353 0.000000 0.029276
0.735321 0.000000 0.029276
0.913743 0.000000 0.029276
0.000000 0.261117 0.029276
0.239353 0.261117 0.115704
0.486353 0.261117 0.029276
0.735321 0.261117 0.029276
0.913743 0.261117 0.029276
0.000000 0.510105 0.029276
0.239353 0.510105 0.029276
0.486353 0.510105 0.195511
0.735321 0.578008 0.271622
0.913743 0.510105 0.029276
0.000000 0.763620 0.029276
0.239353 0.763620 0.029276
0.486353 0.763620 0.029276
0.735321 0.763620 0.271622
0.913743 0.827421 0.345187
0.000000 0.922490 0.029276
0.239353 0.922490 0.029276
0.486353 0.922490 0.029276
0.735321 0.922490 0.029276
0.913743 0.922490 0.345187
0.000000 0.000000 0.313924
0.239353 0.000000 0.313924
0.486353 0.000000 0.313924
0.735321 0.000000 0.313924
0.913743 0.000000 0.313924
0.000000 0.261117 0.313924
0.239353 0.261117 0.313924
0.486353 0.261117 0.313924
0.735321 0.261117 0.313924
0.913743 0.261117 0.313924
0.000000 0.510105 0.313924
0.239353 0.510105 0.313924
0.486353 0.510105 0.386330
0.735321 0.510105 0.313924
0.913743 0.510105 0.313924
0.000000 0.763620 0.313924
0.239353 0.763620 0.313924
0.486353 0.763620 0.313924
0.735321 0.763620 0.457045
0.913743 0.763620 0.313924
0.000000 0.922490 0.313924
0.239353 0.922490 0.313924
0.486353 0.922490 0.313924
0.735321 0.922490 0.313924
0.913743 0.922490 0.526373
0.000000 0.000000 0.565452
0.239353 0.000000 0.565452
0.486353 0.000000 0.565452
0.735321 0.000000 0.565452
0.913743 0.000000 0.565452
0.000000 0.261117 0.565452
0.239353 0.261117 0.565452
0.486353 0.261117 0.565452
0.735321 0.261117 0.565452
0.913743 0.261117 0.565452
0.000000 0.510105 0.565452
0.239353 0.510105 0.565452
0.486353 0.510105 0.565452
0.735321 0.510105 0.565452
0.913743 0.510105 0.565452
0.000000 0.763620 0.565452
0.239353 0.763620 0.565452
0.486353 0.763620 0.565452
0.735321 0.763620 0.633013
0.913743 0.763620 0.565452
0.000000 0.922490 0.565452
0.239353 0.922490 0.565452
0.486353 0.922490 0.565452
0.735321 0.922490 0.565452
0.913743 0.922490 0.699636
0.000000 0.000000 0.816024
0.239353 0.000000 0.816024
0.486353 0.000000 0.816024
0.735321 0.000000 0.816024
0.913743 0.000000 0.816024
0.000000 0.261117 0.816024
0.239353 0.261117 0.816024
0.486353 0.261117 0.816024
0.735321 0.261117 0.816024
0.913743 0.261117 0.816024
0.000000 0.510105 0.816024
0.239353 0.510105 0.816024
0.486353 0.510105 0.816024
0.735321 0.510105 0.816024
0.913743 0.510105 0.816024
0.000000 0.763620 0.816024
0.239353 0.763620 0.816024
0.486353 0.763620 0.816024
0.735321 0.763620 0.816024
0.913743 0.763620 0.816024
0.000000 0.922490 0.816024
0.239353 0.922490 0.816024
0.486353 0.922490 0.816024
0.735321 0.922490 0.816024
0.913743 0.922490 0.864776
0.000000 0.000000 0.937908
0.239353 0.000000 0.937908
0.486353 0.000000 0.937908
0.735321 0.000000 0.937908
0.913743 0.000000 0.937908
0.000000 0.261117 0.937908
0.239353 0.261117 0.937908
0.486353 0.261117 0.937908
0.735321 0.261117 0.937908
0.913743 0.261117 0.937908
0.000000 0.510105 0.937908
0.239353 0.510105 0.937908
0.486353 0.510105 0.937908
0.735321 0.510105 0.937908
0.913743 0.510105 0.937908
0.000000 0.763620 0.937908
0.239353 0.763620 0.937908
0.486353 0.763620 0.937908
0.735321 0.763620 0.937908
0.913743 0.763620 0.937908
0.000000 0.922490 0.937908
0.239353 0.922490 0.937908
0.486353 0.922490 0.937908
0.735321 0.922490 0.937908
0.913743 0.922490 0.937908
