assets/luts/douyin_fairy.cube
# Beauty Camera 3D LUT
# Filter: Tiên Nữ (douyin_fairy)
# Category: Douyin
TITLE "Tiên Nữ"
LUT_3D_SIZE 8
DOMAIN_MIN 0.000000 0.000000 0.000000
DOMAIN_MAX 0.903226 0.903226 0.903226
0.044071 0.012477 0.073833
0.199314 0.010586 0.071942
0.341860 0.008850 0.070206
0.478525 0.007185 0.068541
0.611344 0.005567 0.066923
0.741318 0.003984 0.065340
0.881255 0.002279 0.063636
0.963289 0.001280 0.062636
0.037955 0.157444 0.067717
0.193079 0.155434 0.094749
0.335744 0.153817 0.064089
0.472409 0.152152 0.062425
0.605228 0.150534 0.060807
0.735201 0.148951 0.059224
0.875139 0.147247 0.057519
0.957172 0.146247 0.056520
0.032230 0.293126 0.061992
0.187473 0.291235 0.060101
0.329786 0.289266 0.115262
0.465328 0.311452 0.139859
0.599503 0.286217 0.055082
0.729477 0.284633 0.053499
0.869414 0.282929 0.051795
0.951448 0.281930 0.050796
0.026666 0.425005 0.056428
0.181909 0.423114 0.054537
0.324455 0.421378 0.052801
0.460775 0.419368 0.135306
0.592494 0.441094 0.159419
0.721374 0.462784 0.183115
0.863850 0.414808 0.046231
0.945884 0.413808 0.045231
0.021206 0.554436 0.050967
0.176448 0.552545 0.049076
0.318994 0.550808 0.047340
0.455659 0.549144 0.045675
0.588023 0.547071 0.154948
0.716915 0.568473 0.178656
0.855774 0.589699 0.201859
0.940423 0.543239 0.039771
0.015821 0.682064 0.045582
0.171064 0.680173 0.043692
0.313609 0.678436 0.041955
0.450274 0.676772 0.040291
0.583093 0.675154 0.038673
0.712504 0.673008 0.174246
0.851373 0.694011 0.197458
0.932341 0.715676 0.221044
0.009992 0.820208 0.039754
0.165235 0.818317 0.037863
0.307781 0.816581 0.036127
0.444446 0.814916 0.034462
0.577265 0.813298 0.032844
0.729712 0.810764 0.194015
0.846507 0.809342 0.192592
0.927450 0.831599 0.216153
0.005819 0.919128 0.035580
0.161062 0.917237 0.033690
0.303608 0.915500 0.031953
0.440273 0.913836 0.030289
0.573091 0.912218 0.028671
0.703065 0.910635 0.027088
0.861531 0.907921 0.213729
0.924262 0.907157 0.212965
0.043449 0.011855 0.225411
0.198692 0.009964 0.223520
0.341238 0.008228 0.221783
0.477903 0.006563 0.220119
0.610722 0.004945 0.218501
0.740696 0.003362 0.216918
0.880633 0.001657 0.215213
0.962667 0.000658 0.214214
0.037333 0.156822 0.219294
0.192576 0.154931 0.217403
0.335896 0.136592 0.199051
0.473342 0.118206 0.180601
0.606947 0.099730 0.162009
0.737716 0.081129 0.143240
0.878457 0.062211 0.124108
0.961306 0.043749 0.105399
0.031608 0.292504 0.213570
0.186851 0.290613 0.211679
0.329292 0.288772 0.235631
0.466062 0.287212 0.208278
0.600452 0.253674 0.155514
0.731181 0.236008 0.136706
0.871877 0.218158 0.117528
0.954674 0.200946 0.098767
0.026044 0.424383 0.208006
0.181287 0.422492 0.206115
0.323833 0.420756 0.204378
0.460289 0.418881 0.253780
0.592015 0.440615 0.276275
0.723291 0.415890 0.199513
0.865580 0.367402 0.111232
0.948356 0.350686 0.092449
0.020584 0.553814 0.202545
0.175826 0.551923 0.200654
0.318372 0.550186 0.198918
0.455037 0.548522 0.197253
0.587544 0.546591 0.271803
0.716441 0.567999 0.294100
0.855305 0.589231 0.316053
0.939801 0.542617 0.191348
0.015199 0.681442 0.197160
0.170442 0.679551 0.195269
0.312987 0.677814 0.193533
0.449652 0.676150 0.191868
0.582471 0.674532 0.190250
0.712030 0.672534 0.289690
0.850904 0.693542 0.311652
0.931877 0.715212 0.334117
0.009370 0.819586 0.191332
0.164613 0.817695 0.189441
0.307159 0.815959 0.187704
0.443824 0.814294 0.186040
0.576643 0.812676 0.184422
0.706616 0.811093 0.182839
0.846038 0.808873 0.306786
0.926986 0.831135 0.329226
0.005197 0.918506 0.187158
0.160440 0.916615 0.185267
0.302986 0.914878 0.183531
0.439651 0.913214 0.181866
0.572469 0.911596 0.180248
0.702443 0.910013 0.178665
0.861067 0.907457 0.326802
0.923798 0.906693 0.326038
0.042878 0.011283 0.364656
0.198121 0.009392 0.362765
0.340667 0.007656 0.361029
0.477332 0.005992 0.359364
0.610151 0.004374 0.357746
0.740124 0.002791 0.356163
0.880061 0.001086 0.354459
0.962095 0.000087 0.353460
0.036762 0.156251 0.358540
0.192004 0.154360 0.356649
0.334550 0.152623 0.354913
0.471215 0.150959 0.353248
0.606295 0.099078 0.321025
0.737057 0.080471 0.303654
0.877792 0.061546 0.286066
0.960635 0.043077 0.269082
0.031037 0.291933 0.352815
0.186280 0.290042 0.350924
0.328826 0.288306 0.349188
0.466234 0.270668 0.331881
0.599800 0.253021 0.314530
0.730523 0.235350 0.297119
0.871213 0.217494 0.279486
0.954002 0.200274 0.262449
0.025473 0.423812 0.347251
0.180716 0.421921 0.345360
0.323262 0.420184 0.343624
0.459827 0.418420 0.366277
0.592746 0.416902 0.340341
0.724246 0.384127 0.290842
0.864916 0.366738 0.273189
0.947685 0.350015 0.256132
0.020012 0.553242 0.341790
0.175255 0.551351 0.339899
0.317801 0.549615 0.338163
0.454466 0.547950 0.336498
0.587086 0.546134 0.383335
0.715987 0.567545 0.404747
0.857196 0.543045 0.331593
0.941524 0.496023 0.249972
0.014627 0.680870 0.336406
0.169870 0.678979 0.334515
0.312416 0.677243 0.332778
0.449081 0.675578 0.331114
0.581900 0.673961 0.329496
0.711576 0.672080 0.400337
0.850453 0.693091 0.421483
0.931429 0.714764 0.443189
0.008799 0.819015 0.330577
0.164042 0.817124 0.328686
0.306588 0.815387 0.326950
0.443253 0.813723 0.325285
0.576072 0.812105 0.323667
0.706045 0.810522 0.322084
0.845587 0.808422 0.416617
0.926539 0.830687 0.438299
0.004625 0.917934 0.326404
0.159868 0.916043 0.324513
0.302414 0.914307 0.322776
0.439079 0.912642 0.321112
0.571898 0.911025 0.319494
0.701872 0.909441 0.317911
0.841809 0.907737 0.316206
0.923351 0.906246 0.435111
0.042332 0.010738 0.497648
0.197575 0.008847 0.495757
0.340121 0.007110 0.494021
0.476786 0.005446 0.492356
0.609605 0.003828 0.490738
0.739578 0.002245 0.489155
0.879516 0.000540 0.487451
0.961549 0.000000 0.486451
0.036216 0.155705 0.491532
0.191459 0.153814 0.489641
0.334005 0.152078 0.487904
0.470670 0.150413 0.486240
0.603488 0.148795 0.484622
0.733462 0.147212 0.483039
0.877170 0.060924 0.437592
0.960009 0.042452 0.421429
0.030491 0.291387 0.485807
0.185734 0.289496 0.483916
0.328280 0.287760 0.482180
0.464945 0.286095 0.480515
0.597764 0.284477 0.478897
0.729904 0.234731 0.447869
0.870591 0.216872 0.431012
0.953377 0.199649 0.414797
0.024927 0.423266 0.480243
0.180170 0.421375 0.478352
0.322716 0.419639 0.476616
0.459381 0.417974 0.474951
0.592926 0.400742 0.458284
0.723627 0.383508 0.441592
0.864294 0.366116 0.424715
0.947059 0.349390 0.408479
0.019466 0.552696 0.474782
0.174709 0.550806 0.472891
0.317255 0.549069 0.471155
0.453920 0.547405 0.469490
0.586643 0.545691 0.491328
0.716713 0.544204 0.466289
0.858147 0.511813 0.418568
0.940899 0.495398 0.402319
0.014082 0.680325 0.469397
0.169324 0.678434 0.467506
0.311870 0.676697 0.465770
0.448535 0.675033 0.464105
0.581354 0.673415 0.462488
0.711136 0.671640 0.507690
0.850015 0.692653 0.528234
0.933299 0.669128 0.458201
0.008253 0.818469 0.463569
0.163496 0.816578 0.461678
0.306042 0.814842 0.459942
0.442707 0.813177 0.458277
0.575526 0.811559 0.456659
0.705499 0.809976 0.455076
0.845149 0.807984 0.523368
0.926103 0.830251 0.544481
0.004080 0.917389 0.459395
0.159322 0.915498 0.457504
0.301868 0.913761 0.455768
0.438533 0.912097 0.454103
0.571352 0.910479 0.452486
0.701326 0.908896 0.450902
0.841263 0.907191 0.449198
0.922915 0.905810 0.541293
0.041804 0.010209 0.626460
0.197046 0.008318 0.624569
0.339592 0.006582 0.622833
0.476257 0.004917 0.621168
0.609076 0.003299 0.619550
0.739050 0.001716 0.617967
0.878987 0.000012 0.616263
0.961021 0.000000 0.615263
0.035687 0.155176 0.620344
0.190930 0.153285 0.618453
0.333476 0.151549 0.616716
0.470141 0.149884 0.615052
0.602960 0.148267 0.613434
0.732933 0.146683 0.611851
0.872871 0.144979 0.610146
0.954905 0.143980 0.609147
0.029963 0.290859 0.614619
0.185206 0.288968 0.612728
0.327751 0.287231 0.610992
0.464416 0.285567 0.609327
0.597235 0.283949 0.607709
0.727209 0.282366 0.606126
0.867146 0.280661 0.604422
0.952778 0.199050 0.560862
0.024399 0.422737 0.609055
0.179641 0.420846 0.607164
0.322187 0.419110 0.605428
0.458852 0.417445 0.603763
0.591671 0.415827 0.602145
0.721645 0.414244 0.600562
0.863697 0.365519 0.570247
0.946460 0.348790 0.554544
0.018938 0.552168 0.603594
0.174181 0.550277 0.601703
0.316727 0.548541 0.599967
0.453392 0.546876 0.598302
0.586210 0.545258 0.596684
0.716898 0.528311 0.580475
0.857550 0.511215 0.564100
0.940300 0.494798 0.548384
0.013553 0.679796 0.598209
0.168796 0.677905 0.596318
0.311342 0.676169 0.594582
0.448007 0.674504 0.592917
0.580826 0.672886 0.591300
0.710706 0.671209 0.612549
0.850737 0.669599 0.588012
0.934245 0.638299 0.542329
0.007725 0.817940 0.592381
0.162967 0.816049 0.590490
0.305513 0.814313 0.588754
0.442178 0.812648 0.587089
0.574997 0.811031 0.585471
0.704971 0.809448 0.583888
0.844721 0.807556 0.627752
0.925676 0.829825 0.648412
0.003551 0.916860 0.588207
0.158794 0.914969 0.586316
0.301340 0.913233 0.584580
0.438005 0.911568 0.582915
0.570824 0.909950 0.581298
0.700797 0.908367 0.579714
0.840735 0.906663 0.578010
0.922488 0.905383 0.645224
0.041288 0.009693 0.752150
0.196531 0.007802 0.750259
0.339077 0.006066 0.748523
0.475742 0.004401 0.746858
0.608560 0.002784 0.745241
0.738534 0.001200 0.743658
0.878471 0.000000 0.741953
0.960505 0.000000 0.740954
0.035171 0.154661 0.746034
0.190414 0.152770 0.744143
0.332960 0.151033 0.742407
0.469625 0.149369 0.740742
0.602444 0.147751 0.739124
0.732418 0.146168 0.737541
0.872355 0.144463 0.735837
0.954389 0.143464 0.734837
0.029447 0.290343 0.740309
0.184690 0.288452 0.738419
0.327236 0.286716 0.736682
0.463901 0.285051 0.735018
0.596720 0.283433 0.733400
0.726693 0.281850 0.731817
0.866630 0.280145 0.730112
0.948664 0.279146 0.729113
0.023883 0.422221 0.734745
0.179126 0.420330 0.732854
0.321672 0.418594 0.731118
0.458337 0.416930 0.729454
0.591155 0.415312 0.727836
0.721129 0.413729 0.726253
0.861066 0.412024 0.724548
0.943100 0.411025 0.723549
0.018422 0.551652 0.729285
0.173665 0.549761 0.727394
0.316211 0.548025 0.725657
0.452876 0.546360 0.723993
0.585695 0.544742 0.722375
0.715668 0.543159 0.720792
0.855605 0.541455 0.719087
0.939718 0.494217 0.690124
0.013037 0.679280 0.723900
0.168280 0.677389 0.722009
0.310826 0.675653 0.720273
0.447491 0.673988 0.718608
0.580310 0.672370 0.716990
0.710283 0.670787 0.715407
0.850925 0.653910 0.699403
0.933664 0.637717 0.684070
0.007209 0.817425 0.718071
0.162452 0.815534 0.716180
0.304998 0.813797 0.714444
0.441663 0.812133 0.712779
0.574481 0.810515 0.711162
0.704455 0.808932 0.709579
0.844301 0.807136 0.730220
0.926426 0.806228 0.706875
0.003035 0.916344 0.713898
0.158278 0.914453 0.712007
0.300824 0.912717 0.710271
0.437489 0.911052 0.708606
0.570308 0.909434 0.706988
0.700281 0.907851 0.705405
0.840219 0.906147 0.703700
0.922059 0.904954 0.749798
0.040732 0.009137 0.887715
0.195974 0.007246 0.885824
0.338520 0.005510 0.884088
0.475185 0.003845 0.882423
0.608004 0.002227 0.880805
0.737978 0.000644 0.879222
0.877915 0.000000 0.877518
0.959949 0.000000 0.876519
0.034615 0.154104 0.881599
0.189858 0.152213 0.879708
0.332404 0.150477 0.877972
0.469069 0.148812 0.876307
0.601888 0.147195 0.874689
0.731861 0.145611 0.873106
0.871799 0.143907 0.871401
0.953832 0.142908 0.870402
0.028891 0.289787 0.875874
0.184133 0.287896 0.873983
0.326679 0.286159 0.872247
0.463344 0.284495 0.870582
0.596163 0.282877 0.868965
0.726137 0.281294 0.867381
0.866074 0.279589 0.865677
0.948108 0.278590 0.864678
0.023327 0.421665 0.870310
0.178569 0.419774 0.868419
0.321115 0.418038 0.866683
0.457780 0.416373 0.865018
0.590599 0.414755 0.863400
0.720573 0.413172 0.861817
0.860510 0.411468 0.860113
0.942544 0.410469 0.859114
0.017866 0.551096 0.864849
0.173109 0.549205 0.862958
0.315654 0.547469 0.861222
0.452319 0.545804 0.859557
0.585138 0.544186 0.857940
0.715112 0.542603 0.856356
0.855049 0.540898 0.854652
0.937083 0.539899 0.853653
0.012481 0.678724 0.859465
0.167724 0.676833 0.857574
0.310270 0.675097 0.855837
0.446935 0.673432 0.854173
0.579754 0.671814 0.852555
0.709727 0.670231 0.850972
0.849664 0.668526 0.849267
0.931698 0.667527 0.848268
0.006652 0.816868 0.853636
0.161895 0.814977 0.851745
0.304441 0.813241 0.850009
0.441106 0.811576 0.848344
0.573925 0.809959 0.846726
0.703899 0.808375 0.845143
0.843836 0.806671 0.843439
0.926658 0.788399 0.829382
0.002479 0.915788 0.849463
0.157722 0.913897 0.847572
0.300268 0.912161 0.845835
0.436933 0.910496 0.844171
0.569752 0.908878 0.842553
0.699725 0.907295 0.840970
0.839662 0.905591 0.839265
0.921620 0.904515 0.856957
0.040402 0.008808 0.967964
0.195645 0.006917 0.966073
0.338191 0.005180 0.964337
0.474856 0.003516 0.962672
0.607675 0.001898 0.961055
0.737648 0.000315 0.959471
0.877586 0.000000 0.957767
0.959619 0.000000 0.956768
0.034286 0.153775 0.961848
0.189529 0.151884 0.959957
0.332075 0.150148 0.958221
0.468740 0.148483 0.956556
0.601559 0.146865 0.954938
0.731532 0.145282 0.953355
0.871469 0.143578 0.951651
0.953503 0.142578 0.950651
0.028561 0.289457 0.956123
0.183804 0.287566 0.954232
0.326350 0.285830 0.952496
0.463015 0.284165 0.950831
0.595834 0.282548 0.949214
0.725808 0.280964 0.947630
0.865745 0.279260 0.945926
0.947779 0.278261 0.944927
0.022997 0.421336 0.950559
0.178240 0.419445 0.948668
0.320786 0.417709 0.946932
0.457451 0.416044 0.945267
0.590270 0.414426 0.943650
0.720243 0.412843 0.942066
0.860181 0.411138 0.940362
0.942214 0.410139 0.939363
0.017536 0.550767 0.945098
0.172779 0.548876 0.943207
0.315325 0.547139 0.941471
0.451990 0.545475 0.939807
0.584809 0.543857 0.938189
0.714783 0.542274 0.936606
0.854720 0.540569 0.934901
0.936754 0.539570 0.933902
0.012152 0.678395 0.939714
0.167394 0.676504 0.937823
0.309940 0.674767 0.936086
0.446605 0.673103 0.934422
0.579424 0.671485 0.932804
0.709398 0.669902 0.931221
0.849335 0.668197 0.929516
0.931369 0.667198 0.928517
0.006323 0.816539 0.933885
0.161566 0.814648 0.931994
0.304112 0.812912 0.930258
0.440777 0.811247 0.928593
0.573596 0.809629 0.926976
0.703569 0.808046 0.925392
0.843507 0.806342 0.923688
0.925540 0.805342 0.922689
0.002150 0.915459 0.929712
0.157392 0.913568 0.927821
0.299938 0.911831 0.926084
0.436603 0.910167 0.924420
0.569422 0.908549 0.922802
0.699396 0.906966 0.921219
0.839333 0.905261 0.919514
0.921367 0.904262 0.918515
