assets/luts/douyin_sweet.cube
# Beauty Camera 3D LUT
# Filter: Ngọt Ngào (douyin_sweet)
# Category: Douyin
TITLE "Ngọt Ngào"
LUT_3D_SIZE 32
DOMAIN_MIN 0.0 0.0 0.0
DOMAIN_MAX 1.0 1.0 1.0
0.008850 0.000000 0.000000
0.053917 0.000000 0.000000
0.095904 0.000000 0.000000
0.136172 0.000000 0.000000
0.175253 0.000000 0.000000
0.213434 0.000000 0.000000
0.250891 0.000000 0.000000
0.287746 0.000000 0.000000
0.324085 0.000000 0.000000
0.359975 0.000000 0.000000
0.395468 0.000000 0.000000
0.430604 0.000000 0.000000
0.465417 0.000000 0.000000
0.499936 0.000000 0.000000
0.534185 0.000000 0.000000
0.568183 0.000000 0.000000
0.601950 0.000000 0.000000
0.635499 0.000000 0.000000
0.668845 0.000000 0.000000
0.702842 0.000000 0.000000
0.746023 0.000000 0.000000
0.782752 0.000000 0.000000
0.814026 0.000000 0.000000
0.840681 0.000000 0.000000
0.863421 0.000000 0.000000
0.882836 0.000000 0.000000
0.899427 0.000000 0.000000
0.913616 0.000000 0.000000
0.925759 0.000000 0.000000
0.936159 0.000000 0.000000
0.945072 0.000000 0.000000
0.952716 0.000000 0.000000
0.008850 0.027235 0.000000
0.053917 0.027235 0.000000
0.095904 0.027235 0.000000
0.136172 0.027235 0.000000
0.175253 0.027235 0.000000
0.213434 0.027235 0.000000
0.250891 0.027235 0.000000
0.287746 0.027235 0.000000
0.324085 0.027235 0.000000
0.359975 0.027235 0.000000
0.395468 0.027235 0.000000
0.430604 0.027235 0.000000
0.465417 0.027235 0.000000
0.499936 0.027235 0.000000
0.534185 0.027235 0.000000
0.568183 0.027235 0.000000
0.601950 0.027235 0.000000
0.635499 0.027235 0.000000
0.668845 0.027235 0.000000
0.702842 0.027235 0.000000
0.746023 0.027235 0.000000
0.782752 0.027235 0.000000
0.814026 0.027235 0.000000
0.840681 0.027235 0.000000
0.863421 0.027235 0.000000
0.882836 0.027235 0.000000
0.899427 0.027235 0.000000
0.913616 0.027235 0.000000
0.925759 0.027235 0.000000
0.936159 0.027235 0.000000
0.945072 0.027235 0.000000
0.952716 0.027235 0.000000
0.008850 0.064566 0.000000
0.053917 0.064566 0.000000
0.095904 0.064566 0.000000
0.136172 0.064566 0.000000
0.175253 0.064566 0.000000
0.213434 0.064566 0.000000
0.250891 0.064566 0.000000
0.287746 0.064566 0.000000
0.324085 0.064566 0.000000
0.359975 0.064566 0.000000
0.395468 0.064566 0.000000
0.430604 0.064566 0.000000
0.465417 0.064566 0.000000
0.499936 0.064566 0.000000
0.534185 0.064566 0.000000
0.568183 0.064566 0.000000
0.601950 0.064566 0.000000
0.635499 0.064566 0.000000
0.668845 0.064566 0.000000
0.702842 0.064566 0.000000
0.746023 0.064566 0.000000
0.782752 0.064566 0.000000
0.814026 0.064566 0.000000
0.840681 0.064566 0.000000
0.863421 0.064566 0.000000
0.882836 0.064566 0.000000
0.899427 0.064566 0.000000
0.913616 0.064566 0.000000
0.925759 0.064566 0.000000
0.936159 0.064566 0.000000
0.945072 0.064566 0.000000
0.952716 0.064566 0.000000
0.008850 0.101111 0.000000
0.053917 0.101111 0.000000
0.095904 0.101111 0.000000
0.136172 0.101111 0.000000
0.175253 0.101111 0.000000
0.213434 0.101111 0.000000
0.250891 0.101111 0.000000
0.287746 0.101111 0.000000
0.324085 0.101111 0.000000
0.359975 0.101111 0.000000
0.395468 0.101111 0.000000
0.430604 0.101111 0.000000
0.465417 0.101111 0.000000
0.499936 0.101111 0.000000
0.534185 0.101111 0.000000
0.568183 0.101111 0.000000
0.601950 0.101111 0.000000
0.635499 0.101111 0.000000
0.668845 0.101111 0.000000
0.702842 0.101111 0.000000
0.746023 0.101111 0.000000
0.782752 0.101111 0.000000
0.814026 0.101111 0.000000
0.840681 0.101111 0.000000
0.863421 0.101111 0.000000
0.882836 0.101111 0.000000
0.899427 0.101111 0.000000
0.913616 0.101111 0.000000
0.925759 0.101111 0.000000
0.936159 0.101111 0.000000
0.945072 0.101111 0.000000
0.952716 0.101111 0.000000
0.008850 0.137126 0.000000
0.053917 0.137126 0.000000
0.095904 0.137126 0.000000
0.136172 0.137126 0.000000
0.175253 0.137126 0.000000
0.213434 0.137126 0.000000
0.250891 0.137126 0.000000
0.287746 0.137126 0.000000
0.324085 0.137126 0.000000
0.359975 0.137126 0.000000
0.395468 0.137126 0.000000
0.430604 0.137126 0.000000
0.465417 0.137126 0.000000
0.499936 0.137126 0.000000
0.534185 0.137126 0.000000
0.568183 0.137126 0.000000
0.601950 0.137126 0.000000
0.635499 0.137126 0.000000
0.668845 0.137126 0.000000
0.702842 0.137126 0.000000
0.746023 0.137126 0.000000
0.782752 0.137126 0.000000
0.814026 0.137126 0.000000
0.840681 0.137126 0.000000
0.863421 0.137126 0.000000
0.882836 0.137126 0.000000
0.899427 0.137126 0.000000
0.913616 0.137126 0.000000
0.925759 0.137126 0.000000
0.936159 0.137126 0.000000
0.945072 0.137126 0.000000
0.952716 0.137126 0.000000
0.008850 0.172742 0.000000
0.053917 0.172742 0.000000
0.095904 0.172742 0.000000
0.136172 0.172742 0.000000
0.175253 0.172742 0.000000
0.213434 0.172742 0.000000
0.250891 0.172742 0.000000
0.287746 0.172742 0.000000
0.324085 0.172742 0.000000
0.359975 0.172742 0.000000
0.395468 0.172742 0.000000
0.430604 0.172742 0.000000
0.465417 0.172742 0.000000
0.499936 0.172742 0.000000
0.534185 0.172742 0.000000
0.568183 0.172742 0.000000
0.601950 0.172742 0.000000
0.635499 0.172742 0.000000
0.668845 0.172742 0.000000
0.702842 0.172742 0.000000
0.746023 0.172742 0.000000
0.782752 0.172742 0.000000
0.814026 0.172742 0.000000
0.840681 0.172742 0.000000
0.863421 0.172742 0.000000
0.882836 0.172742 0.000000
0.899427 0.172742 0.000000
0.913616 0.172742 0.000000
0.925759 0.172742 0.000000
0.936159 0.172742 0.000000
0.945072 0.172742 0.000000
0.952716 0.172742 0.000000
0.008850 0.208038 0.000000
0.053917 0.208038 0.000000
0.095904 0.208038 0.000000
0.136172 0.208038 0.000000
0.175253 0.208038 0.000000
0.213434 0.208038 0.000000
0.250891 0.208038 0.000000
0.287746 0.208038 0.000000
0.324085 0.208038 0.000000
0.359975 0.208038 0.000000
0.395468 0.208038 0.000000
0.430604 0.208038 0.000000
0.465417 0.208038 0.000000
0.499936 0.208038 0.000000
0.534185 0.208038 0.000000
0.568183 0.208038 0.000000
0.601950 0.208038 0.000000
0.635499 0.208038 0.000000
0.668845 0.208038 0.000000
0.702842 0.208038 0.000000
0.746023 0.208038 0.000000
0.782752 0.208038 0.000000
0.814026 0.208038 0.000000
0.840681 0.208038 0.000000
0.863421 0.208038 0.000000
0.882836 0.208038 0.000000
0.899427 0.208038 0.000000
0.913616 0.208038 0.000000
0.925759 0.208038 0.000000
0.936159 0.208038 0.000000
0.945072 0.208038 0.000000
0.952716 0.208038 0.000000
0.008850 0.243067 0.000000
0.053917 0.243067 0.000000
0.095904 0.243067 0.000000
0.136172 0.243067 0.000000
0.175253 0.243067 0.000000
0.213434 0.243067 0.000000
0.250891 0.243067 0.000000
0.287746 0.243067 0.000000
0.324085 0.243067 0.000000
0.359975 0.243067 0.000000
0.395468 0.243067 0.000000
0.430604 0.243067 0.000000
0.465417 0.243067 0.000000
0.499936 0.243067 0.000000
0.534185 0.243067 0.000000
0.568183 0.243067 0.000000
0.601950 0.243067 0.000000
0.635499 0.243067 0.000000
0.668845 0.243067 0.000000
0.702842 0.243067 0.000000
0.746023 0.243067 0.000000
0.782752 0.243067 0.000000
0.814026 0.243067 0.000000
0.840681 0.243067 0.000000
0.863421 0.243067 0.000000
0.882836 0.243067 0.000000
0.899427 0.243067 0.000000
0.913616 0.243067 0.000000
0.925759 0.243067 0.000000
0.936159 0.243067 0.000000
0.945072 0.243067 0.000000
0.952716 0.243067 0.000000
0.008850 0.277869 0.000000
0.053917 0.277869 0.000000
0.095904 0.277869 0.000000
0.136172 0.277869 0.000000
0.175253 0.277869 0.000000
0.213434 0.277869 0.000000
0.250891 0.277869 0.000000
0.287746 0.277869 0.000000
0.324085 0.277869 0.000000
0.359975 0.277869 0.000000
0.395468 0.277869 0.000000
0.430604 0.277869 0.000000
0.465417 0.277869 0.000000
0.499936 0.277869 0.000000
0.534185 0.277869 0.000000
0.568183 0.277869 0.000000
0.601950 0.277869 0.000000
0.635499 0.277869 0.000000
0.668845 0.277869 0.000000
0.702842 0.277869 0.000000
0.746023 0.277869 0.000000
0.782752 0.277869 0.000000
0.814026 0.277869 0.000000
0.840681 0.277869 0.000000
0.863421 0.277869 0.000000
0.882836 0.277869 0.000000
0.899427 0.277869 0.000000
0.913616 0.277869 0.000000
0.925759 0.277869 0.000000
0.936159 0.277869 0.000000
0.945072 0.277869 0.000000
0.952716 0.277869 0.000000
0.008850 0.312471 0.000000
0.053917 0.312471 0.000000
0.095904 0.312471 0.000000
0.136172 0.312471 0.000000
0.175253 0.312471 0.000000
0.213434 0.312471 0.000000
0.250891 0.312471 0.000000
0.287746 0.312471 0.000000
0.324085 0.312471 0.000000
0.359975 0.312471 0.000000
0.395468 0.312471 0.000000
0.430604 0.312471 0.000000
0.465417 0.312471 0.000000
0.499936 0.312471 0.000000
0.534185 0.312471 0.000000
0.568183 0.312471 0.000000
0.601950 0.312471 0.000000
0.635499 0.312471 0.000000
0.668845 0.312471 0.000000
0.702842 0.312471 0.000000
0.746023 0.312471 0.000000
0.782752 0.312471 0.000000
0.814026 0.312471 0.000000
0.840681 0.312471 0.000000
0.863421 0.312471 0.000000
0.882836 0.312471 0.000000
0.899427 0.312471 0.000000
0.913616 0.312471 0.000000
0.925759 0.312471 0.000000
0.936159 0.312471 0.000000
0.945072 0.312471 0.000000
0.952716 0.312471 0.000000
0.008850 0.346896 0.000000
0.053917 0.346896 0.000000
0.095904 0.346896 0.000000
0.136172 0.346896 0.000000
0.175253 0.346896 0.000000
0.213434 0.346896 0.000000
0.250891 0.346896 0.000000
0.287746 0.346896 0.000000
0.324085 0.346896 0.000000
0.359975 0.346896 0.000000
0.395468 0.346896 0.000000
0.430604 0.346896 0.000000
0.465417 0.346896 0.000000
0.499936 0.346896 0.000000
0.534185 0.346896 0.000000
0.568183 0.346896 0.000000
0.601950 0.346896 0.000000
0.635499 0.346896 0.000000
0.668845 0.346896 0.000000
0.702842 0.346896 0.000000
0.746023 0.346896 0.000000
0.782752 0.346896 0.000000
0.814026 0.346896 0.000000
0.840681 0.346896 0.000000
0.863421 0.346896 0.000000
0.882836 0.346896 0.000000
0.899427 0.346896 0.000000
0.913616 0.346896 0.000000
0.925759 0.346896 0.000000
0.936159 0.346896 0.000000
0.945072 0.346896 0.000000
0.952716 0.346896 0.000000
0.008850 0.381163 0.000000
0.053917 0.381163 0.000000
0.095904 0.381163 0.000000
0.136172 0.381163 0.000000
0.175253 0.381163 0.000000
0.213434 0.381163 0.000000
0.250891 0.381163 0.000000
0.287746 0.381163 0.000000
0.324085 0.381163 0.000000
0.359975 0.381163 0.000000
0.395468 0.381163 0.000000
0.430604 0.381163 0.000000
0.465417 0.381163 0.000000
0.499936 0.381163 0.000000
0.534185 0.381163 0.000000
0.568183 0.381163 0.000000
0.601950 0.381163 0.000000
0.635499 0.381163 0.000000
0.668845 0.381163 0.000000
0.702842 0.381163 0.000000
0.746023 0.381163 0.000000
0.782752 0.381163 0.000000
0.814026 0.381163 0.000000
0.840681 0.381163 0.000000
0.863421 0.381163 0.000000
0.882836 0.381163 0.000000
0.899427 0.381163 0.000000
0.913616 0.381163 0.000000
0.925759 0.381163 0.000000
0.936159 0.381163 0.000000
0.945072 0.381163 0.000000
0.952716 0.381163 0.000000
0.008850 0.415285 0.000000
0.053917 0.415285 0.000000
0.095904 0.415285 0.000000
0.136172 0.415285 0.000000
0.175253 0.415285 0.000000
0.213434 0.415285 0.000000
0.250891 0.415285 0.000000
0.287746 0.415285 0.000000
0.324085 0.415285 0.000000
0.359975 0.415285 0.000000
0.395468 0.415285 0.000000
0.430604 0.415285 0.000000
0.465417 0.415285 0.000000
0.499936 0.415285 0.000000
0.534185 0.415285 0.000000
0.568183 0.415285 0.000000
0.601950 0.415285 0.000000
0.635499 0.415285 0.000000
0.668845 0.415285 0.000000
0.702842 0.415285 0.000000
0.746023 0.415285 0.000000
0.782752 0.415285 0.000000
0.814026 0.415285 0.000000
0.840681 0.415285 0.000000
0.863421 0.415285 0.000000
0.882836 0.415285 0.000000
0.899427 0.415285 0.000000
0.913616 0.415285 0.000000
0.925759 0.415285 0.000000
0.936159 0.415285 0.000000
0.945072 0.415285 0.000000
0.952716 0.415285 0.000000
0.008850 0.449276 0.000000
0.053917 0.449276 0.000000
0.095904 0.449276 0.000000
0.136172 0.449276 0.000000
0.175253 0.449276 0.000000
0.213434 0.449276 0.000000
0.250891 0.449276 0.000000
0.287746 0.449276 0.000000
0.324085 0.449276 0.000000
0.359975 0.449276 0.000000
0.395468 0.449276 0.000000
0.430604 0.449276 0.000000
0.465417 0.449276 0.000000
0.499936 0.449276 0.000000
0.534185 0.449276 0.000000
0.568183 0.449276 0.000000
0.601950 0.449276 0.000000
0.635499 0.449276 0.000000
0.668845 0.449276 0.000000
0.702842 0.449276 0.000000
0.746023 0.449276 0.000000
0.782752 0.449276 0.000000
0.814026 0.449276 0.000000
0.840681 0.449276 0.000000
0.863421 0.449276 0.000000
0.882836 0.449276 0.000000
0.899427 0.449276 0.000000
0.913616 0.449276 0.000000
0.925759 0.449276 0.000000
0.936159 0.449276 0.000000
0.945072 0.449276 0.000000
0.952716 0.449276 0.000000
0.008850 0.483145 0.000000
0.053917 0.483145 0.000000
0.095904 0.483145 0.000000
0.136172 0.483145 0.000000
0.175253 0.483145 0.000000
0.213434 0.483145 0.000000
0.250891 0.483145 0.000000
0.287746 0.483145 0.000000
0.324085 0.483145 0.000000
0.359975 0.483145 0.000000
0.395468 0.483145 0.000000
0.430604 0.483145 0.000000
0.465417 0.483145 0.000000
0.499936 0.483145 0.000000
0.534185 0.483145 0.000000
0.568183 0.483145 0.000000
0.601950 0.483145 0.000000
0.635499 0.483145 0.000000
0.668845 0.483145 0.000000
0.702842 0.483145 0.000000
0.746023 0.483145 0.000000
0.782752 0.483145 0.000000
0.814026 0.483145 0.000000
0.840681 0.483145 0.000000
0.863421 0.483145 0.000000
0.882836 0.483145 0.000000
0.899427 0.483145 0.000000
0.913616 0.483145 0.000000
0.925759 0.483145 0.000000
0.936159 0.483145 0.000000
0.945072 0.483145 0.000000
0.952716 0.483145 0.000000
0.008850 0.516902 0.000000
0.053917 0.516902 0.000000
0.095904 0.516902 0.000000
0.136172 0.516902 0.000000
0.175253 0.516902 0.000000
0.213434 0.516902 0.000000
0.250891 0.516902 0.000000
0.287746 0.516902 0.000000
0.324085 0.516902 0.000000
0.359975 0.516902 0.000000
0.395468 0.516902 0.000000
0.430604 0.516902 0.000000
0.465417 0.516902 0.000000
0.499936 0.516902 0.000000
0.534185 0.516902 0.000000
0.568183 0.516902 0.000000
0.601950 0.516902 0.000000
0.635499 0.516902 0.000000
0.668845 0.516902 0.000000
0.702842 0.516902 0.000000
0.746023 0.516902 0.000000
0.782752 0.516902 0.000000
0.814026 0.516902 0.000000
0.840681 0.516902 0.000000
0.863421 0.516902 0.000000
0.882836 0.516902 0.000000
0.899427 0.516902 0.000000
0.913616 0.516902 0.000000
0.925759 0.516902 0.000000
0.936159 0.516902 0.000000
0.945072 0.516902 0.000000
0.952716 0.516902 0.000000
0.008850 0.550553 0.000000
0.053917 0.550553 0.000000
0.095904 0.550553 0.000000
0.136172 0.550553 0.000000
0.175253 0.550553 0.000000
0.213434 0.550553 0.000000
0.250891 0.550553 0.000000
0.287746 0.550553 0.000000
0.324085 0.550553 0.000000
0.359975 0.550553 0.000000
0.395468 0.550553 0.000000
0.430604 0.550553 0.000000
0.465417 0.550553 0.000000
0.499936 0.550553 0.000000
0.534185 0.550553 0.000000
0.568183 0.550553 0.000000
0.601950 0.550553 0.000000
0.635499 0.550553 0.000000
0.668845 0.550553 0.000000
0.702842 0.550553 0.000000
0.746023 0.550553 0.000000
0.782752 0.550553 0.000000
0.814026 0.550553 0.000000
0.840681 0.550553 0.000000
0.863421 0.550553 0.000000
0.882836 0.550553 0.000000
0.899427 0.550553 0.000000
0.913616 0.550553 0.000000
0.925759 0.550553 0.000000
0.936159 0.550553 0.000000
0.945072 0.550553 0.000000
0.952716 0.550553 0.000000
0.008850 0.584107 0.000000
0.053917 0.584107 0.000000
0.095904 0.584107 0.000000
0.136172 0.584107 0.000000
0.175253 0.584107 0.000000
0.213434 0.584107 0.000000
0.250891 0.584107 0.000000
0.287746 0.584107 0.000000
0.324085 0.584107 0.000000
0.359975 0.584107 0.000000
0.395468 0.584107 0.000000
0.430604 0.584107 0.000000
0.465417 0.584107 0.000000
0.499936 0.584107 0.000000
0.534185 0.584107 0.000000
0.568183 0.584107 0.000000
0.601950 0.584107 0.000000
0.635499 0.584107 0.000000
0.668845 0.584107 0.000000
0.702842 0.584107 0.000000
0.746023 0.584107 0.000000
0.782752 0.584107 0.000000
0.814026 0.584107 0.000000
0.840681 0.584107 0.000000
0.863421 0.584107 0.000000
0.882836 0.584107 0.000000
0.899427 0.584107 0.000000
0.913616 0.584107 0.000000
0.925759 0.584107 0.000000
0.936159 0.584107 0.000000
0.945072 0.584107 0.000000
0.952716 0.584107 0.000000
0.008850 0.617568 0.000000
0.053917 0.617568 0.000000
0.095904 0.617568 0.000000
0.136172 0.617568 0.000000
0.175253 0.617568 0.000000
0.213434 0.617568 0.000000
0.250891 0.617568 0.000000
0.287746 0.617568 0.000000
0.324085 0.617568 0.000000
0.359975 0.617568 0.000000
0.395468 0.617568 0.000000
0.430604 0.617568 0.000000
0.465417 0.617568 0.000000
0.499936 0.617568 0.000000
0.534185 0.617568 0.000000
0.568183 0.617568 0.000000
0.601950 0.617568 0.000000
0.635499 0.617568 0.000000
0.668845 0.617568 0.000000
0.702842 0.617568 0.000000
0.746023 0.617568 0.000000
0.782752 0.617568 0.000000
0.814026 0.617568 0.000000
0.840681 0.617568 0.000000
0.863421 0.617568 0.000000
0.882836 0.617568 0.000000
0.899427 0.617568 0.000000
0.913616 0.617568 0.000000
0.925759 0.617568 0.000000
0.936159 0.617568 0.000000
0.945072 0.617568 0.000000
0.952716 0.617568 0.000000
0.008850 0.650942 0.000000
0.053917 0.650942 0.000000
0.095904 0.650942 0.000000
0.136172 0.650942 0.000000
0.175253 0.650942 0.000000
0.213434 0.650942 0.000000
0.250891 0.650942 0.000000
0.287746 0.650942 0.000000
0.324085 0.650942 0.000000
0.359975 0.650942 0.000000
0.395468 0.650942 0.000000
0.430604 0.650942 0.000000
0.465417 0.650942 0.000000
0.499936 0.650942 0.000000
0.534185 0.650942 0.000000
0.568183 0.650942 0.000000
0.601950 0.650942 0.000000
0.635499 0.650942 0.000000
0.668845 0.650942 0.000000
0.702842 0.650942 0.000000
0.746023 0.650942 0.000000
0.782752 0.650942 0.000000
0.814026 0.650942 0.000000
0.840681 0.650942 0.000000
0.863421 0.650942 0.000000
0.882836 0.650942 0.000000
0.899427 0.650942 0.000000
0.913616 0.650942 0.000000
0.925759 0.650942 0.000000
0.936159 0.650942 0.000000
0.945072 0.650942 0.000000
0.952716 0.650942 0.000000
0.008850 0.684234 0.000000
0.053917 0.684234 0.000000
0.095904 0.684234 0.000000
0.136172 0.684234 0.000000
0.175253 0.684234 0.000000
0.213434 0.684234 0.000000
0.250891 0.684234 0.000000
0.287746 0.684234 0.000000
0.324085 0.684234 0.000000
0.359975 0.684234 0.000000
0.395468 0.684234 0.000000
0.430604 0.684234 0.000000
0.465417 0.684234 0.000000
0.499936 0.684234 0.000000
0.534185 0.684234 0.000000
0.568183 0.684234 0.000000
0.601950 0.684234 0.000000
0.635499 0.684234 0.000000
0.668845 0.684234 0.000000
0.702842 0.684234 0.000000
0.746023 0.684234 0.000000
0.782752 0.684234 0.000000
0.814026 0.684234 0.000000
0.840681 0.684234 0.000000
0.863421 0.684234 0.000000
0.882836 0.684234 0.000000
0.899427 0.684234 0.000000
0.913616 0.684234 0.000000
0.925759 0.684234 0.000000
0.936159 0.684234 0.000000
0.945072 0.684234 0.000000
0.952716 0.684234 0.000000
0.008850 0.723919 0.000000
0.053917 0.723919 0.000000
0.095904 0.723919 0.000000
0.136172 0.723919 0.000000
0.175253 0.723919 0.000000
0.213434 0.723919 0.000000
0.250891 0.723919 0.000000
0.287746 0.723919 0.000000
0.324085 0.723919 0.000000
0.359975 0.723919 0.000000
0.395468 0.723919 0.000000
0.430604 0.723919 0.000000
0.465417 0.723919 0.000000
0.499936 0.723919 0.000000
0.534185 0.723919 0.000000
0.568183 0.723919 0.000000
0.601950 0.723919 0.000000
0.635499 0.723919 0.000000
0.668845 0.723919 0.000000
0.702842 0.723919 0.000000
0.746023 0.723919 0.000000
0.782752 0.723919 0.000000
0.814026 0.723919 0.000000
0.840681 0.723919 0.000000
0.863421 0.723919 0.000000
0.882836 0.723919 0.000000
0.899427 0.723919 0.000000
0.913616 0.723919 0.000000
0.925759 0.723919 0.000000
0.936159 0.723919 0.000000
0.945072 0.723919 0.000000
0.952716 0.723919 0.000000
0.008850 0.764223 0.000000
0.053917 0.764223 0.000000
0.095904 0.764223 0.000000
0.136172 0.764223 0.000000
0.175253 0.764223 0.000000
0.213434 0.764223 0.000000
0.250891 0.764223 0.000000
0.287746 0.764223 0.000000
0.324085 0.764223 0.000000
0.359975 0.764223 0.000000
0.395468 0.764223 0.000000
0.430604 0.764223 0.000000
0.465417 0.764223 0.000000
0.499936 0.764223 0.000000
0.534185 0.764223 0.000000
0.568183 0.764223 0.000000
0.601950 0.764223 0.000000
0.635499 0.764223 0.000000
0.668845 0.764223 0.000000
0.702842 0.764223 0.000000
0.746023 0.764223 0.000000
0.782752 0.764223 0.000000
0.814026 0.764223 0.000000
0.840681 0.764223 0.000000
0.863421 0.764223 0.000000
0.882836 0.764223 0.000000
0.899427 0.764223 0.000000
0.913616 0.764223 0.000000
0.925759 0.764223 0.000000
0.936159 0.764223 0.000000
0.945072 0.764223 0.000000
0.952716 0.764223 0.000000
0.008850 0.798576 0.000000
0.053917 0.798576 0.000000
0.095904 0.798576 0.000000
0.136172 0.798576 0.000000
0.175253 0.798576 0.000000
0.213434 0.798576 0.000000
0.250891 0.798576 0.000000
0.287746 0.798576 0.000000
0.324085 0.798576 0.000000
0.359975 0.798576 0.000000
0.395468 0.798576 0.000000
0.430604 0.798576 0.000000
0.465417 0.798576 0.000000
0.499936 0.798576 0.000000
0.534185 0.798576 0.000000
0.568183 0.798576 0.000000
0.601950 0.798576 0.000000
0.635499 0.798576 0.000000
0.668845 0.798576 0.000000
0.702842 0.798576 0.000000
0.746023 0.798576 0.000000
0.782752 0.798576 0.000000
0.814026 0.798576 0.000000
0.840681 0.798576 0.000000
0.863421 0.798576 0.000000
0.882836 0.798576 0.000000
0.899427 0.798576 0.000000
0.913616 0.798576 0.000000
0.925759 0.798576 0.000000
0.936159 0.798576 0.000000
0.945072 0.798576 0.000000
0.952716 0.798576 0.000000
0.008850 0.827868 0.000000
0.053917 0.827868 0.000000
0.095904 0.827868 0.000000
0.136172 0.827868 0.000000
0.175253 0.827868 0.000000
0.213434 0.827868 0.000000
0.250891 0.827868 0.000000
0.287746 0.827868 0.000000
0.324085 0.827868 0.000000
0.359975 0.827868 0.000000
0.395468 0.827868 0.000000
0.430604 0.827868 0.000000
0.465417 0.827868 0.000000
0.499936 0.827868 0.000000
0.534185 0.827868 0.000000
0.568183 0.827868 0.000000
0.601950 0.827868 0.000000
0.635499 0.827868 0.000000
0.668845 0.827868 0.000000
0.702842 0.827868 0.000000
0.746023 0.827868 0.000000
0.782752 0.827868 0.000000
0.814026 0.827868 0.000000
0.840681 0.827868 0.000000
0.863421 0.827868 0.000000
0.882836 0.827868 0.000000
0.899427 0.827868 0.000000
0.913616 0.827868 0.000000
0.925759 0.827868 0.000000
0.936159 0.827868 0.000000
0.945072 0.827868 0.000000
0.952716 0.827868 0.000000
0.008850 0.852855 0.000000
0.053917 0.852855 0.000000
0.095904 0.852855 0.000000
0.136172 0.852855 0.000000
0.175253 0.852855 0.000000
0.213434 0.852855 0.000000
0.250891 0.852855 0.000000
0.287746 0.852855 0.000000
0.324085 0.852855 0.000000
0.359975 0.852855 0.000000
0.395468 0.852855 0.000000
0.430604 0.852855 0.000000
0.465417 0.852855 0.000000
0.499936 0.852855 0.000000
0.534185 0.852855 0.000000
0.568183 0.852855 0.000000
0.601950 0.852855 0.000000
0.635499 0.852855 0.000000
0.668845 0.852855 0.000000
0.702842 0.852855 0.000000
0.746023 0.852855 0.000000
0.782752 0.852855 0.000000
0.814026 0.852855 0.000000
0.840681 0.852855 0.000000
0.863421 0.852855 0.000000
0.882836 0.852855 0.000000
0.899427 0.852855 0.000000
0.913616 0.852855 0.000000
0.925759 0.852855 0.000000
0.936159 0.852855 0.000000
0.945072 0.852855 0.000000
0.952716 0.852855 0.000000
0.008850 0.874178 0.000000
0.053917 0.874178 0.000000
0.095904 0.874178 0.000000
0.136172 0.874178 0.000000
0.175253 0.874178 0.000000
0.213434 0.874178 0.000000
0.250891 0.874178 0.000000
0.287746 0.874178 0.000000
0.324085 0.874178 0.000000
0.359975 0.874178 0.000000
0.395468 0.874178 0.000000
0.430604 0.874178 0.000000
0.465417 0.874178 0.000000
0.499936 0.874178 0.000000
0.534185 0.874178 0.000000
0.568183 0.874178 0.000000
0.601950 0.874178 0.000000
0.635499 0.874178 0.000000
0.668845 0.874178 0.000000
0.702842 0.874178 0.000000
0.746023 0.874178 0.000000
0.782752 0.874178 0.000000
0.814026 0.874178 0.000000
0.840681 0.874178 0.000000
0.863421 0.874178 0.000000
0.882836 0.874178 0.000000
0.899427 0.874178 0.000000
0.913616 0.874178 0.000000
0.925759 0.874178 0.000000
0.936159 0.874178 0.000000
0.945072 0.874178 0.000000
0.952716 0.874178 0.000000
0.008850 0.892381 0.000000
0.053917 0.892381 0.000000
0.095904 0.892381 0.000000
0.136172 0.892381 0.000000
0.175253 0.892381 0.000000
0.213434 0.892381 0.000000
0.250891 0.892381 0.000000
0.287746 0.892381 0.000000
0.324085 0.892381 0.000000
0.359975 0.892381 0.000000
0.395468 0.892381 0.000000
0.430604 0.892381 0.000000
0.465417 0.892381 0.000000
0.499936 0.892381 0.000000
0.534185 0.892381 0.000000
0.568183 0.892381 0.000000
0.601950 0.892381 0.000000
0.635499 0.892381 0.000000
0.668845 0.892381 0.000000
