assets/luts/douyin_fairy.cube
# Beauty Camera 3D LUT
# Filter: Tiên Nữ (douyin_fairy)
# Category: Douyin
TITLE "Tiên Nữ"
LUT_3D_SIZE 5
DOMAIN_MIN 0.000000 0.000000 0.000000
DOMAIN_MAX 0.903226 0.903226 0.903226
0.044071 0.012477 0.073833
0.306897 0.009275 0.070632
0.545339 0.006371 0.067727
0.773441 0.003593 0.064949
0.963289 0.001280 0.062636
0.033643 0.259646 0.063405
0.296264 0.256239 0.110180
0.534911 0.253540 0.057299
0.763013 0.250762 0.054521
0.952860 0.248449 0.052208
0.023925 0.489977 0.053687
0.286751 0.486776 0.050485
0.524793 0.483471 0.145174
0.750990 0.521168 0.186747
0.943142 0.478781 0.042490
0.014484 0.713737 0.044246
0.277311 0.710535 0.041045
0.515752 0.707631 0.038140
0.743265 0.704263 0.179022
0.931249 0.741555 0.219952
0.005819 0.919128 0.035580
0.268645 0.915926 0.032379
0.507087 0.913022 0.029475
0.735189 0.910244 0.026696
0.924262 0.907157 0.212965
0.043018 0.011423 0.330553
0.305844 0.008222 0.327352
0.544286 0.005318 0.324447
0.772388 0.002539 0.321669
0.962235 0.000227 0.319356
0.032590 0.258592 0.320125
0.295416 0.255391 0.316923
0.535171 0.224282 0.286240
0.764598 0.193091 0.255354
0.955781 0.162124 0.224561
0.022872 0.488924 0.310407
0.285698 0.485722 0.307205
0.523964 0.482642 0.347207
0.752242 0.480039 0.301523
0.944751 0.423549 0.213531
0.013431 0.712683 0.300966
0.276257 0.709482 0.297765
0.514699 0.706578 0.294860
0.742451 0.703449 0.377311
0.930448 0.740754 0.415133
0.004765 0.918074 0.292300
0.267591 0.914873 0.289099
0.506033 0.911969 0.286195
0.734135 0.909190 0.283416
0.923461 0.906356 0.408146
0.042066 0.010472 0.562497
0.304892 0.007270 0.559295
0.543334 0.004366 0.556391
0.771436 0.001587 0.553612
0.961283 0.000000 0.551300
0.031638 0.257641 0.552068
0.294464 0.254439 0.548867
0.532906 0.251535 0.545963
0.761008 0.248756 0.543184
0.954691 0.161035 0.490077
0.021920 0.487972 0.542350
0.284746 0.484770 0.539149
0.523188 0.481866 0.536245
0.752550 0.451978 0.507494
0.943661 0.422460 0.479047
0.012479 0.711732 0.532910
0.275305 0.708530 0.529708
0.513747 0.705626 0.526804
0.741684 0.702682 0.564418
0.931696 0.700535 0.521713
0.003814 0.917122 0.524244
0.266640 0.913921 0.521043
0.505082 0.911017 0.518138
0.733184 0.908238 0.515360
0.922701 0.905596 0.593510
0.041161 0.009566 0.783166
0.303987 0.006365 0.779965
0.542429 0.003460 0.777060
0.770531 0.000682 0.774282
0.960378 0.000000 0.771969
0.030732 0.256735 0.772738
0.293558 0.253534 0.769536
0.532000 0.250629 0.766632
0.760102 0.247851 0.763854
0.949950 0.245538 0.761541
0.021014 0.487066 0.763020
0.283840 0.483865 0.759818
0.522282 0.480961 0.756914
0.750384 0.478182 0.754136
0.940232 0.475870 0.751823
0.011574 0.710826 0.753579
0.274400 0.707625 0.750378
0.512842 0.704720 0.747473
0.740944 0.701942 0.744695
0.932020 0.673137 0.717462
0.002908 0.916217 0.744913
0.265734 0.913016 0.741712
0.504176 0.910111 0.738808
0.732278 0.907333 0.736029
0.921925 0.904820 0.782440
0.040402 0.008808 0.967964
0.303228 0.005606 0.964763
0.541670 0.002702 0.961858
0.769772 0.000000 0.959080
0.959619 0.000000 0.956768
0.029974 0.255977 0.957536
0.292800 0.252775 0.954335
0.531242 0.249871 0.951430
0.759344 0.247093 0.948652
0.949191 0.244780 0.946339
0.020256 0.486308 0.947818
0.283082 0.483107 0.944617
0.521524 0.480202 0.941712
0.749626 0.477424 0.938934
0.939473 0.475111 0.936621
0.010815 0.710068 0.938377
0.273641 0.706866 0.935176
0.512083 0.703962 0.932272
0.740185 0.701184 0.929493
0.930033 0.698871 0.927181
0.002150 0.915459 0.929712
0.264976 0.912257 0.926510
0.503418 0.909353 0.923606
0.731520 0.906574 0.920828
0.921367 0.904262 0.918515
