assets/luts/douyin_moon.cube
# Beauty Camera 3D LUT
# Filter: Bạch Nguyệt (douyin_moon)
# Category: Douyin
TITLE "Bạch Nguyệt"
LUT_3D_SIZE 32
DOMAIN_MIN 0.0 0.0 0.0
DOMAIN_MAX 1.0 1.0 1.0
0.000000 0.000000 0.029276
0.015281 0.000000 0.029276
0.054308 0.000000 0.029276
0.092359 0.000000 0.029276
0.129755 0.000000 0.029276
0.166659 0.000000 0.029276
0.203170 0.000000 0.029276
0.239353 0.000000 0.029276
0.275256 0.000000 0.029276
0.310915 0.000000 0.029276
0.346358 0.000000 0.029276
0.381606 0.000000 0.029276
0.416679 0.000000 0.029276
0.451590 0.000000 0.029276
0.486353 0.000000 0.029276
0.520978 0.000000 0.029276
0.555476 0.000000 0.029276
0.589854 0.000000 0.029276
0.624120 0.000000 0.029276
0.658280 0.000000 0.029276
0.692340 0.000000 0.029276
0.735321 0.000000 0.029276
0.774751 0.000000 0.029276
0.808228 0.000000 0.029276
0.836666 0.000000 0.029276
0.860835 0.000000 0.029276
0.881386 0.000000 0.029276
0.898867 0.000000 0.029276
0.913743 0.000000 0.029276
0.926407 0.000000 0.029276
0.937193 0.000000 0.029276
0.946382 0.000000 0.029276
0.000000 0.032205 0.029276
0.015281 0.032205 0.042287
0.054308 0.032205 0.029276
0.092359 0.032205 0.029276
0.129755 0.032205 0.029276
0.166659 0.032205 0.029276
0.203170 0.032205 0.029276
0.239353 0.032205 0.029276
0.275256 0.032205 0.029276
0.310915 0.032205 0.029276
0.346358 0.032205 0.029276
0.381606 0.032205 0.029276
0.416679 0.032205 0.029276
0.451590 0.032205 0.029276
0.486353 0.032205 0.029276
0.520978 0.032205 0.029276
0.555476 0.032205 0.029276
0.589854 0.032205 0.029276
0.624120 0.032205 0.029276
0.658280 0.032205 0.029276
0.692340 0.032205 0.029276
0.735321 0.032205 0.029276
0.774751 0.032205 0.029276
0.808228 0.032205 0.029276
0.836666 0.032205 0.029276
0.860835 0.032205 0.029276
0.881386 0.032205 0.029276
0.898867 0.032205 0.029276
0.913743 0.032205 0.029276
0.926407 0.032205 0.029276
0.937193 0.032205 0.029276
0.946382 0.032205 0.029276
0.000000 0.072382 0.029276
0.015281 0.072382 0.029276
0.054308 0.072382 0.055014
0.092359 0.072382 0.029276
0.129755 0.072382 0.029276
0.166659 0.072382 0.029276
0.203170 0.072382 0.029276
0.239353 0.072382 0.029276
0.275256 0.072382 0.029276
0.310915 0.072382 0.029276
0.346358 0.072382 0.029276
0.381606 0.072382 0.029276
0.416679 0.072382 0.029276
0.451590 0.072382 0.029276
0.486353 0.072382 0.029276
0.520978 0.072382 0.029276
0.555476 0.072382 0.029276
0.589854 0.072382 0.029276
0.624120 0.072382 0.029276
0.658280 0.072382 0.029276
0.692340 0.072382 0.029276
0.735321 0.072382 0.029276
0.774751 0.072382 0.029276
0.808228 0.072382 0.029276
0.836666 0.072382 0.029276
0.860835 0.072382 0.029276
0.881386 0.072382 0.029276
0.898867 0.072382 0.029276
0.913743 0.072382 0.029276
0.926407 0.072382 0.029276
0.937193 0.072382 0.029276
0.946382 0.072382 0.029276
0.000000 0.111415 0.029276
0.015281 0.111415 0.029276
0.054308 0.111415 0.029276
0.092359 0.111415 0.067506
0.129755 0.122191 0.079798
0.166659 0.111415 0.029276
0.203170 0.111415 0.029276
0.239353 0.111415 0.029276
0.275256 0.111415 0.029276
0.310915 0.111415 0.029276
0.346358 0.111415 0.029276
0.381606 0.111415 0.029276
0.416679 0.111415 0.029276
0.451590 0.111415 0.029276
0.486353 0.111415 0.029276
0.520978 0.111415 0.029276
0.555476 0.111415 0.029276
0.589854 0.111415 0.029276
0.624120 0.111415 0.029276
0.658280 0.111415 0.029276
0.692340 0.111415 0.029276
0.735321 0.111415 0.029276
0.774751 0.111415 0.029276
0.808228 0.111415 0.029276
0.836666 0.111415 0.029276
0.860835 0.111415 0.029276
0.881386 0.111415 0.029276
0.898867 0.111415 0.029276
0.913743 0.111415 0.029276
0.926407 0.111415 0.029276
0.937193 0.111415 0.029276
0.946382 0.111415 0.029276
0.000000 0.149649 0.029276
0.015281 0.149649 0.029276
0.054308 0.149649 0.029276
0.092359 0.149649 0.029276
0.129755 0.149649 0.079798
0.166659 0.160240 0.091915
0.203170 0.149649 0.029276
0.239353 0.149649 0.029276
0.275256 0.149649 0.029276
0.310915 0.149649 0.029276
0.346358 0.149649 0.029276
0.381606 0.149649 0.029276
0.416679 0.149649 0.029276
0.451590 0.149649 0.029276
0.486353 0.149649 0.029276
0.520978 0.149649 0.029276
0.555476 0.149649 0.029276
0.589854 0.149649 0.029276
0.624120 0.149649 0.029276
0.658280 0.149649 0.029276
0.692340 0.149649 0.029276
0.735321 0.149649 0.029276
0.774751 0.149649 0.029276
0.808228 0.149649 0.029276
0.836666 0.149649 0.029276
0.860835 0.149649 0.029276
0.881386 0.149649 0.029276
0.898867 0.149649 0.029276
0.913743 0.149649 0.029276
0.926407 0.149649 0.029276
0.937193 0.149649 0.029276
0.946382 0.149649 0.029276
0.000000 0.187273 0.029276
0.015281 0.187273 0.029276
0.054308 0.187273 0.029276
0.092359 0.187273 0.029276
0.140133 0.187273 0.091915
0.166659 0.187273 0.091915
0.203170 0.197715 0.103879
0.239353 0.208120 0.115704
0.275256 0.187273 0.029276
0.310915 0.187273 0.029276
0.346358 0.187273 0.029276
0.381606 0.187273 0.029276
0.416679 0.187273 0.029276
0.451590 0.187273 0.029276
0.486353 0.187273 0.029276
0.520978 0.187273 0.029276
0.555476 0.187273 0.029276
0.589854 0.187273 0.029276
0.624120 0.187273 0.029276
0.658280 0.187273 0.029276
0.692340 0.187273 0.029276
0.735321 0.187273 0.029276
0.774751 0.187273 0.029276
0.808228 0.187273 0.029276
0.836666 0.187273 0.029276
0.860835 0.187273 0.029276
0.881386 0.187273 0.029276
0.898867 0.187273 0.029276
0.913743 0.187273 0.029276
0.926407 0.187273 0.029276
0.937193 0.187273 0.029276
0.946382 0.187273 0.029276
0.000000 0.224402 0.029276
0.015281 0.224402 0.029276
0.054308 0.224402 0.029276
0.092359 0.224402 0.029276
0.129755 0.224402 0.029276
0.176918 0.224402 0.103879
0.203170 0.224402 0.103879
0.239353 0.234721 0.115704
0.275256 0.245009 0.127405
0.310915 0.224402 0.029276
0.346358 0.224402 0.029276
0.381606 0.224402 0.029276
0.416679 0.224402 0.029276
0.451590 0.224402 0.029276
0.486353 0.224402 0.029276
0.520978 0.224402 0.029276
0.555476 0.224402 0.029276
0.589854 0.224402 0.029276
0.624120 0.224402 0.029276
0.658280 0.224402 0.029276
0.692340 0.224402 0.029276
0.735321 0.224402 0.029276
0.774751 0.224402 0.029276
0.808228 0.224402 0.029276
0.836666 0.224402 0.029276
0.860835 0.224402 0.029276
0.881386 0.224402 0.029276
0.898867 0.224402 0.029276
0.913743 0.224402 0.029276
0.926407 0.224402 0.029276
0.937193 0.224402 0.029276
0.946382 0.224402 0.029276
0.000000 0.261117 0.029276
0.015281 0.261117 0.029276
0.054308 0.261117 0.029276
0.092359 0.261117 0.029276
0.129755 0.261117 0.029276
0.166659 0.261117 0.029276
0.213332 0.261117 0.115704
0.239353 0.261117 0.115704
0.275256 0.271331 0.127405
0.310915 0.281519 0.138992
0.346358 0.291680 0.150475
0.381606 0.261117 0.029276
0.416679 0.261117 0.029276
0.451590 0.261117 0.029276
0.486353 0.261117 0.029276
0.520978 0.261117 0.029276
0.555476 0.261117 0.029276
0.589854 0.261117 0.029276
0.624120 0.261117 0.029276
0.658280 0.261117 0.029276
0.692340 0.261117 0.029276
0.735321 0.261117 0.029276
0.774751 0.261117 0.029276
0.808228 0.261117 0.029276
0.836666 0.261117 0.029276
0.860835 0.261117 0.029276
0.881386 0.261117 0.029276
0.898867 0.261117 0.029276
0.913743 0.261117 0.029276
0.926407 0.261117 0.029276
0.937193 0.261117 0.029276
0.946382 0.261117 0.029276
0.000000 0.297476 0.029276
0.015281 0.297476 0.029276
0.054308 0.297476 0.029276
0.092359 0.297476 0.029276
0.129755 0.297476 0.029276
0.166659 0.297476 0.029276
0.203170 0.297476 0.029276
0.249432 0.297476 0.127405
0.275256 0.297476 0.127405
0.310915 0.307599 0.138992
0.346358 0.317699 0.150475
0.381606 0.327776 0.161862
0.416679 0.297476 0.029276
0.451590 0.297476 0.029276
0.486353 0.297476 0.029276
0.520978 0.297476 0.029276
0.555476 0.297476 0.029276
0.589854 0.297476 0.029276
0.624120 0.297476 0.029276
0.658280 0.297476 0.029276
0.692340 0.297476 0.029276
0.735321 0.297476 0.029276
0.774751 0.297476 0.029276
0.808228 0.297476 0.029276
0.836666 0.297476 0.029276
0.860835 0.297476 0.029276
0.881386 0.297476 0.029276
0.898867 0.297476 0.029276
0.913743 0.297476 0.029276
0.926407 0.297476 0.029276
0.937193 0.297476 0.029276
0.946382 0.297476 0.029276
0.000000 0.333524 0.029276
0.015281 0.333524 0.029276
0.054308 0.333524 0.029276
0.092359 0.333524 0.029276
0.129755 0.333524 0.029276
0.166659 0.333524 0.029276
0.203170 0.333524 0.029276
0.259491 0.333524 0.138992
0.285264 0.333524 0.138992
0.310915 0.333524 0.138992
0.346358 0.343567 0.150475
0.381606 0.353588 0.161862
0.416679 0.363589 0.173160
0.451590 0.373571 0.184374
0.486353 0.333524 0.029276
0.520978 0.333524 0.029276
0.555476 0.333524 0.029276
0.589854 0.333524 0.029276
0.624120 0.333524 0.029276
0.658280 0.333524 0.029276
0.692340 0.333524 0.029276
0.735321 0.333524 0.029276
0.774751 0.333524 0.029276
0.808228 0.333524 0.029276
0.836666 0.333524 0.029276
0.860835 0.333524 0.029276
0.881386 0.333524 0.029276
0.898867 0.333524 0.029276
0.913743 0.333524 0.029276
0.926407 0.333524 0.029276
0.937193 0.333524 0.029276
0.946382 0.333524 0.029276
0.000000 0.369295 0.029276
0.015281 0.369295 0.029276
0.054308 0.369295 0.029276
0.092359 0.369295 0.029276
0.129755 0.369295 0.029276
0.166659 0.369295 0.029276
0.203170 0.369295 0.029276
0.239353 0.369295 0.029276
0.295254 0.369295 0.150475
0.320860 0.369295 0.150475
0.346358 0.369295 0.150475
0.381606 0.379266 0.161862
0.416679 0.389217 0.173160
0.451590 0.399150 0.184374
0.486353 0.409065 0.195511
0.520978 0.369295 0.029276
0.555476 0.369295 0.029276
0.589854 0.369295 0.029276
0.624120 0.369295 0.029276
0.658280 0.369295 0.029276
0.692340 0.369295 0.029276
0.735321 0.369295 0.029276
0.774751 0.369295 0.029276
0.808228 0.369295 0.029276
0.836666 0.369295 0.029276
0.860835 0.369295 0.029276
0.881386 0.369295 0.029276
0.898867 0.369295 0.029276
0.913743 0.369295 0.029276
0.926407 0.369295 0.029276
0.937193 0.369295 0.029276
0.946382 0.369295 0.029276
0.000000 0.404818 0.029276
0.015281 0.404818 0.029276
0.054308 0.404818 0.029276
0.092359 0.404818 0.029276
0.129755 0.404818 0.029276
0.166659 0.404818 0.029276
0.203170 0.404818 0.029276
0.239353 0.404818 0.029276
0.275256 0.404818 0.029276
0.330788 0.404818 0.161862
0.356246 0.404818 0.161862
0.381606 0.404818 0.161862
0.416679 0.414723 0.173160
0.451590 0.424611 0.184374
0.486353 0.434482 0.195511
0.520978 0.444336 0.206574
0.555476 0.454175 0.217568
0.589854 0.404818 0.029276
0.624120 0.404818 0.029276
0.658280 0.404818 0.029276
0.692340 0.404818 0.029276
0.735321 0.404818 0.029276
0.774751 0.404818 0.029276
0.808228 0.404818 0.029276
0.836666 0.404818 0.029276
0.860835 0.404818 0.029276
0.881386 0.404818 0.029276
0.898867 0.404818 0.029276
0.913743 0.404818 0.029276
0.926407 0.404818 0.029276
0.937193 0.404818 0.029276
0.946382 0.404818 0.029276
0.000000 0.440115 0.029276
0.015281 0.440115 0.029276
0.054308 0.440115 0.029276
0.092359 0.440115 0.029276
0.129755 0.440115 0.029276
0.166659 0.440115 0.029276
0.203170 0.440115 0.029276
0.239353 0.440115 0.029276
0.275256 0.440115 0.029276
0.310915 0.440115 0.029276
0.366120 0.440115 0.173160
0.391444 0.440115 0.173160
0.416679 0.440115 0.173160
0.451590 0.449960 0.184374
0.486353 0.459790 0.195511
0.520978 0.469604 0.206574
0.555476 0.479403 0.217568
0.589854 0.489187 0.228497
0.624120 0.440115 0.029276
0.658280 0.440115 0.029276
0.692340 0.440115 0.029276
0.735321 0.440115 0.029276
0.774751 0.440115 0.029276
0.808228 0.440115 0.029276
0.836666 0.440115 0.029276
0.860835 0.440115 0.029276
0.881386 0.440115 0.029276
0.898867 0.440115 0.029276
0.913743 0.440115 0.029276
0.926407 0.440115 0.029276
0.937193 0.440115 0.029276
0.946382 0.440115 0.029276
0.000000 0.475205 0.029276
0.015281 0.475205 0.029276
0.054308 0.475205 0.029276
0.092359 0.475205 0.029276
0.129755 0.475205 0.029276
0.166659 0.475205 0.029276
0.203170 0.475205 0.029276
0.239353 0.475205 0.029276
0.275256 0.475205 0.029276
0.310915 0.475205 0.029276
0.375979 0.475205 0.184374
0.401268 0.475205 0.184374
0.426469 0.475205 0.184374
0.451590 0.475205 0.184374
0.486353 0.484995 0.195511
0.520978 0.494771 0.206574
0.555476 0.504533 0.217568
0.589854 0.514281 0.228497
0.624120 0.524015 0.239364
0.658280 0.533735 0.250172
0.692340 0.475205 0.029276
0.735321 0.475205 0.029276
0.774751 0.475205 0.029276
0.808228 0.475205 0.029276
0.836666 0.475205 0.029276
0.860835 0.475205 0.029276
0.881386 0.475205 0.029276
0.898867 0.475205 0.029276
0.913743 0.475205 0.029276
0.926407 0.475205 0.029276
0.937193 0.475205 0.029276
0.946382 0.475205 0.029276
0.000000 0.510105 0.029276
0.015281 0.510105 0.029276
0.054308 0.510105 0.029276
0.092359 0.510105 0.029276
0.129755 0.510105 0.029276
0.166659 0.510105 0.029276
0.203170 0.510105 0.029276
0.239353 0.510105 0.029276
0.275256 0.510105 0.029276
0.310915 0.510105 0.029276
0.346358 0.510105 0.029276
0.411078 0.510105 0.195511
0.436248 0.510105 0.195511
0.461338 0.510105 0.195511
0.486353 0.510105 0.195511
0.520978 0.519845 0.206574
0.555476 0.529571 0.217568
0.589854 0.539284 0.228497
0.624120 0.548984 0.239364
0.658280 0.558671 0.250172
0.692340 0.568346 0.260924
0.735321 0.578008 0.271622
0.774751 0.510105 0.029276
0.808228 0.510105 0.029276
0.836666 0.510105 0.029276
0.860835 0.510105 0.029276
0.881386 0.510105 0.029276
0.898867 0.510105 0.029276
0.913743 0.510105 0.029276
0.926407 0.510105 0.029276
0.937193 0.510105 0.029276
0.946382 0.510105 0.029276
0.000000 0.544828 0.029276
0.015281 0.544828 0.029276
0.054308 0.544828 0.029276
0.092359 0.544828 0.029276
0.129755 0.544828 0.029276
0.166659 0.544828 0.029276
0.203170 0.544828 0.029276
0.239353 0.544828 0.029276
0.275256 0.544828 0.029276
0.310915 0.544828 0.029276
0.346358 0.544828 0.029276
0.381606 0.544828 0.029276
0.446014 0.544828 0.206574
0.471075 0.544828 0.206574
0.496061 0.544828 0.206574
0.520978 0.544828 0.206574
0.555476 0.554521 0.217568
0.589854 0.564201 0.228497
0.624120 0.573869 0.239364
0.658280 0.583524 0.250172
0.692340 0.593168 0.260924
0.735321 0.602800 0.271622
0.774751 0.612420 0.282269
0.808228 0.544828 0.029276
0.836666 0.544828 0.029276
0.860835 0.544828 0.029276
0.881386 0.544828 0.029276
0.898867 0.544828 0.029276
0.913743 0.544828 0.029276
0.926407 0.544828 0.029276
0.937193 0.544828 0.029276
0.946382 0.544828 0.029276
0.000000 0.579388 0.029276
0.015281 0.579388 0.029276
0.054308 0.579388 0.029276
0.092359 0.579388 0.029276
0.129755 0.579388 0.029276
0.166659 0.579388 0.029276
0.203170 0.579388 0.029276
0.239353 0.579388 0.029276
0.275256 0.579388 0.029276
0.310915 0.579388 0.029276
0.346358 0.579388 0.029276
0.381606 0.579388 0.029276
0.416679 0.579388 0.029276
0.480800 0.579388 0.217568
0.505759 0.579388 0.217568
0.530650 0.579388 0.217568
0.555476 0.579388 0.217568
0.589854 0.589036 0.228497
0.624120 0.598673 0.239364
0.658280 0.608298 0.250172
0.692340 0.617912 0.260924
0.735321 0.627515 0.271622
0.774751 0.637106 0.282269
0.808228 0.646687 0.292867
0.836666 0.579388 0.029276
0.860835 0.579388 0.029276
0.881386 0.579388 0.029276
0.898867 0.579388 0.029276
0.913743 0.579388 0.029276
0.926407 0.579388 0.029276
0.937193 0.579388 0.029276
0.946382 0.579388 0.029276
0.000000 0.613793 0.029276
0.015281 0.613793 0.029276
0.054308 0.613793 0.029276
0.092359 0.613793 0.029276
0.129755 0.613793 0.029276
0.166659 0.613793 0.029276
0.203170 0.613793 0.029276
0.239353 0.613793 0.029276
0.275256 0.613793 0.029276
0.310915 0.613793 0.029276
0.346358 0.613793 0.029276
0.381606 0.613793 0.029276
0.416679 0.613793 0.029276
0.490515 0.613793 0.228497
0.515447 0.613793 0.228497
0.540312 0.613793 0.228497
0.565114 0.613793 0.228497
0.589854 0.613793 0.228497
0.624120 0.623401 0.239364
0.658280 0.632997 0.250172
0.692340 0.642582 0.260924
0.735321 0.652157 0.271622
0.774751 0.661721 0.282269
0.808228 0.671274 0.292867
0.836666 0.680817 0.303418
0.860835 0.690351 0.313924
0.881386 0.613793 0.029276
0.898867 0.613793 0.029276
0.913743 0.613793 0.029276
0.926407 0.613793 0.029276
0.937193 0.613793 0.029276
0.946382 0.613793 0.029276
0.000000 0.648055 0.029276
0.015281 0.648055 0.029276
0.054308 0.648055 0.029276
0.092359 0.648055 0.029276
0.129755 0.648055 0.029276
0.166659 0.648055 0.029276
0.203170 0.648055 0.029276
0.239353 0.648055 0.029276
0.275256 0.648055 0.029276
0.310915 0.648055 0.029276
0.346358 0.648055 0.029276
0.381606 0.648055 0.029276
0.416679 0.648055 0.029276
0.451590 0.648055 0.029276
0.525125 0.648055 0.239364
0.549965 0.648055 0.239364
0.574742 0.648055 0.239364
0.599460 0.648055 0.239364
0.624120 0.648055 0.239364
0.658280 0.657623 0.250172
0.692340 0.667181 0.260924
0.735321 0.676729 0.271622
0.774751 0.686266 0.282269
0.808228 0.695794 0.292867
0.836666 0.707492 0.303418
0.860835 0.720441 0.313924
0.881386 0.732803 0.324386
0.898867 0.744608 0.334807
0.913743 0.648055 0.029276
0.926407 0.648055 0.029276
0.937193 0.648055 0.029276
0.946382 0.648055 0.029276
0.000000 0.682180 0.029276
0.015281 0.682180 0.029276
0.054308 0.682180 0.029276
0.092359 0.682180 0.029276
0.129755 0.682180 0.029276
0.166659 0.682180 0.029276
0.203170 0.682180 0.029276
0.239353 0.682180 0.029276
0.275256 0.682180 0.029276
0.310915 0.682180 0.029276
0.346358 0.682180 0.029276
0.381606 0.682180 0.029276
0.416679 0.682180 0.029276
0.451590 0.682180 0.029276
0.486353 0.682180 0.029276
0.559608 0.682180 0.250172
0.584361 0.682180 0.250172
0.609057 0.682180 0.250172
0.633695 0.682180 0.250172
0.658280 0.682180 0.250172
0.692340 0.691712 0.260924
0.735321 0.701757 0.271622
0.774751 0.714965 0.282269
0.808228 0.727575 0.292867
0.836666 0.739616 0.303418
0.860835 0.751113 0.313924
0.881386 0.762092 0.324386
0.898867 0.772577 0.334807
0.913743 0.782591 0.345187
0.926407 0.682180 0.029276
0.937193 0.682180 0.029276
0.946382 0.682180 0.029276
0.000000 0.722242 0.029276
0.015281 0.722242 0.029276
0.054308 0.722242 0.029276
0.092359 0.722242 0.029276
0.129755 0.722242 0.029276
0.166659 0.722242 0.029276
0.203170 0.722242 0.029276
0.239353 0.722242 0.029276
0.275256 0.722242 0.029276
0.310915 0.722242 0.029276
0.346358 0.722242 0.029276
0.381606 0.722242 0.029276
0.416679 0.722242 0.029276
0.451590 0.722242 0.029276
0.486353 0.722242 0.029276
0.520978 0.722242 0.029276
0.593972 0.722242 0.260924
0.618645 0.722242 0.260924
0.643262 0.722242 0.260924
0.667827 0.722242 0.260924
0.692340 0.722242 0.260924
0.735321 0.734523 0.271622
0.774751 0.746250 0.282269
0.808228 0.757449 0.292867
0.836666 0.768143 0.303418
0.860835 0.778356 0.313924
0.881386 0.788110 0.324386
0.898867 0.797426 0.334807
0.913743 0.806325 0.345187
0.926407 0.814825 0.355528
0.937193 0.722242 0.029276
0.946382 0.722242 0.029276
0.000000 0.763620 0.029276
0.015281 0.763620 0.029276
0.054308 0.763620 0.029276
0.092359 0.763620 0.029276
0.129755 0.763620 0.029276
0.166659 0.763620 0.029276
0.203170 0.763620 0.029276
0.239353 0.763620 0.029276
0.275256 0.763620 0.029276
0.310915 0.763620 0.029276
0.346358 0.763620 0.029276
0.381606 0.763620 0.029276
0.416679 0.763620 0.029276
0.451590 0.763620 0.029276
0.486353 0.763620 0.029276
0.520978 0.763620 0.029276
0.603574 0.763620 0.271622
0.628225 0.763620 0.271622
0.652822 0.763620 0.271622
0.677366 0.763620 0.271622
0.702645 0.763620 0.271622
0.735321 0.763620 0.271622
0.774751 0.774036 0.282269
0.808228 0.783984 0.292867
0.836666 0.793486 0.303418
0.860835 0.802561 0.313924
0.881386 0.811230 0.324386
0.898867 0.819511 0.334807
0.913743 0.827421 0.345187
0.926407 0.834979 0.355528
0.937193 0.842199 0.365832
0.946382 0.849098 0.376098
0.000000 0.798722 0.029276
0.015281 0.798722 0.029276
0.054308 0.798722 0.029276
0.092359 0.798722 0.029276
0.129755 0.798722 0.029276
0.166659 0.798722 0.029276
0.203170 0.798722 0.029276
0.239353 0.798722 0.029276
0.275256 0.798722 0.029276
0.310915 0.798722 0.029276
0.346358 0.798722 0.029276
0.381606 0.798722 0.029276
0.416679 0.798722 0.029276
0.451590 0.798722 0.029276
0.486353 0.798722 0.029276
0.520978 0.798722 0.029276
0.555476 0.798722 0.029276
0.637797 0.798722 0.282269
0.662373 0.798722 0.282269
0.686897 0.798722 0.282269
0.715814 0.798722 0.282269
0.747020 0.798722 0.282269
0.774751 0.798722 0.282269
0.808228 0.807563 0.292867
0.836666 0.816008 0.303418
0.860835 0.824075 0.313924
0.881386 0.831782 0.324386
0.898867 0.839145 0.334807
0.913743 0.846180 0.345187
0.926407 0.852901 0.355528
0.937193 0.859324 0.365832
0.946382 0.865461 0.376098
0.000000 0.828522 0.029276
0.015281 0.828522 0.029276
0.054308 0.828522 0.029276
0.092359 0.828522 0.029276
0.129755 0.828522 0.029276
0.166659 0.828522 0.029276
0.203170 0.828522 0.029276
0.239353 0.828522 0.029276
0.275256 0.828522 0.029276
0.310915 0.828522 0.029276
0.346358 0.828522 0.029276
0.381606 0.828522 0.029276
0.416679 0.828522 0.029276
0.451590 0.828522 0.029276
0.486353 0.828522 0.029276
0.520978 0.828522 0.029276
0.555476 0.828522 0.029276
0.589854 0.828522 0.029276
0.671916 0.828522 0.292867
0.696421 0.828522 0.292867
0.728390 0.828522 0.292867
0.758195 0.828522 0.292867
0.784682 0.828522 0.292867
0.808228 0.828522 0.292867
0.836666 0.836031 0.303418
0.860835 0.843204 0.313924
0.881386 0.850058 0.324386
0.898867 0.856607 0.334807
0.913743 0.862865 0.345187
0.926407 0.868845 0.355528
0.937193 0.874559 0.365832
0.946382 0.880020 0.376098
0.000000 0.853837 0.029276
0.015281 0.853837 0.029276
0.054308 0.853837 0.029276
0.092359 0.853837 0.029276
0.129755 0.853837 0.029276
0.166659 0.853837 0.029276
0.203170 0.853837 0.029276
0.239353 0.853837 0.029276
0.275256 0.853837 0.029276
0.310915 0.853837 0.029276
0.346358 0.853837 0.029276
0.381606 0.853837 0.029276
0.416679 0.853837 0.029276
0.451590 0.853837 0.029276
0.486353 0.853837 0.029276
0.520978 0.853837 0.029276
0.555476 0.853837 0.029276
0.589854 0.853837 0.029276
0.624120 0.853837 0.029276
0.708363 0.853837 0.303418
0.740401 0.853837 0.303418
0.768868 0.853837 0.303418
0.794169 0.853837 0.303418
0.816663 0.853837 0.303418
0.836666 0.853837 0.303418
0.860835 0.860218 0.313924
0.881386 0.866315 0.324386
0.898867 0.872142 0.334807
0.913743 0.877710 0.345187
0.926407 0.883032 0.355528
0.937193 0.888118 0.365832
0.946382 0.892979 0.376098
0.000000 0.875355 0.029276
0.015281 0.875355 0.029276
0.054308 0.875355 0.029276
0.092359 0.875355 0.029276
0.129755 0.875355 0.029276
0.166659 0.875355 0.029276
0.203170 0.875355 0.029276
0.239353 0.875355 0.029276
0.275256 0.875355 0.029276
0.310915 0.875355 0.029276
0.346358 0.875355 0.029276
0.381606 0.875355 0.029276
0.416679 0.875355 0.029276
0.451590 0.875355 0.029276
0.486353 0.875355 0.029276
0.520978 0.875355 0.029276
0.555476 0.875355 0.029276
0.589854 0.875355 0.029276
0.624120 0.875355 0.029276
0.721275 0.875355 0.313924
0.751872 0.875355 0.313924
0.779063 0.875355 0.313924
0.803232 0.875355 0.313924
0.824722 0.875355 0.313924
0.843834 0.875355 0.313924
0.860835 0.875355 0.313924
0.881386 0.880781 0.324386
0.898867 0.885966 0.334807
0.913743 0.890923 0.345187
0.926407 0.895660 0.355528
0.937193 0.900188 0.365832
0.946382 0.904516 0.376098
0.000000 0.893656 0.029276
0.015281 0.893656 0.029276
0.054308 0.893656 0.029276
0.092359 0.893656 0.029276
0.129755 0.893656 0.029276
0.166659 0.893656 0.029276
0.203170 0.893656 0.029276
0.239353 0.893656 0.029276
0.275256 0.893656 0.029276
0.310915 0.893656 0.029276
0.346358 0.893656 0.029276
0.381606 0.893656 0.029276
0.416679 0.893656 0.029276
0.451590 0.893656 0.029276
0.486353 0.893656 0.029276
0.520978 0.893656 0.029276
0.555476 0.893656 0.029276
0.589854 0.893656 0.029276
0.624120 0.893656 0.029276
0.658280 0.893656 0.029276
0.762829 0.893656 0.324386
0.788801 0.893656 0.324386
0.811890 0.893656 0.324386
0.832422 0.893656 0.324386
0.850683 0.893656 0.324386
0.866929 0.893656 0.324386
0.881386 0.893656 0.324386
0.898867 0.898272 0.334807
0.913743 0.902685 0.345187
0.926407 0.906903 0.355528
0.937193 0.910936 0.365832
0.946382 0.914791 0.376098
0.000000 0.909230 0.029276
0.015281 0.909230 0.029276
0.054308 0.909230 0.029276
0.092359 0.909230 0.029276
0.129755 0.909230 0.029276
0.166659 0.909230 0.029276
0.203170 0.909230 0.029276
0.239353 0.909230 0.029276
0.275256 0.909230 0.029276
0.310915 0.909230 0.029276
0.346358 0.909230 0.029276
0.381606 0.909230 0.029276
0.416679 0.909230 0.029276
0.451590 0.909230 0.029276
0.486353 0.909230 0.029276
0.520978 0.909230 0.029276
0.555476 0.909230 0.029276
0.589854 0.909230 0.029276
0.624120 0.909230 0.029276
