assets/luts/douyin_sweet.cube
# Beauty Camera 3D LUT
# Filter: Ngọt Ngào (douyin_sweet)
# Category: Douyin
TITLE "Ngọt Ngào"
LUT_3D_SIZE 5
DOMAIN_MIN 0.000000 0.000000 0.000000
DOMAIN_MAX 0.903226 0.903226 0.903226
0.008850 0.000000 0.000000
0.287746 0.000000 0.000000
0.534185 0.000000 0.000000
0.782752 0.000000 0.000000
0.925759 0.000000 0.000000
0.008850 0.243067 0.000000
0.287746 0.243067 0.000000
0.534185 0.243067 0.000000
0.782752 0.243067 0.000000
0.925759 0.243067 0.000000
0.008850 0.483145 0.000000
0.287746 0.483145 0.000000
0.534185 0.483145 0.000000
0.782752 0.483145 0.000000
0.925759 0.483145 0.000000
0.008850 0.723919 0.000000
0.287746 0.723919 0.000000
0.534185 0.723919 0.000000
0.782752 0.723919 0.000000
0.925759 0.723919 0.000000
0.008850 0.907925 0.000000
0.287746 0.907925 0.000000
0.534185 0.907925 0.000000
0.782752 0.907925 0.000000
0.925759 0.907925 0.000000
0.008850 0.000000 0.222273
0.287746 0.000000 0.222273
0.534185 0.000000 0.222273
0.782752 0.000000 0.222273
0.925759 0.000000 0.222273
0.008850 0.243067 0.222273
0.287746 0.243067 0.222273
0.534185 0.243067 0.222273
0.782752 0.243067 0.222273
0.925759 0.243067 0.222273
0.008850 0.483145 0.222273
0.287746 0.483145 0.222273
0.534185 0.483145 0.222273
0.782752 0.447579 0.152441
0.925759 0.411879 0.117328
0.008850 0.723919 0.222273
0.287746 0.723919 0.222273
0.534185 0.723919 0.222273
0.782752 0.723919 0.222273
0.925759 0.682572 0.117328
0.008850 0.907925 0.222273
0.287746 0.907925 0.222273
0.534185 0.907925 0.222273
0.782752 0.907925 0.222273
0.925759 0.907925 0.222273
0.008850 0.000000 0.452628
0.287746 0.000000 0.452628
0.534185 0.000000 0.452628
0.782752 0.000000 0.452628
0.925759 0.000000 0.452628
0.008850 0.243067 0.452628
0.287746 0.243067 0.452628
0.534185 0.243067 0.452628
0.782752 0.243067 0.452628
0.925759 0.243067 0.452628
0.008850 0.483145 0.452628
0.287746 0.483145 0.452628
0.534185 0.483145 0.452628
0.782752 0.483145 0.452628
0.925759 0.483145 0.452628
0.008850 0.723919 0.452628
0.287746 0.723919 0.452628
0.534185 0.723919 0.452628
0.782752 0.723919 0.452628
0.925759 0.682572 0.383821
0.008850 0.907925 0.452628
0.287746 0.907925 0.452628
0.534185 0.907925 0.452628
0.782752 0.907925 0.452628
0.925759 0.907925 0.452628
0.008850 0.000000 0.680687
0.287746 0.000000 0.680687
0.534185 0.000000 0.680687
0.782752 0.000000 0.680687
0.925759 0.000000 0.680687
0.008850 0.243067 0.680687
0.287746 0.243067 0.680687
0.534185 0.243067 0.680687
0.782752 0.243067 0.680687
0.925759 0.243067 0.680687
0.008850 0.483145 0.680687
0.287746 0.483145 0.680687
0.534185 0.483145 0.680687
0.782752 0.483145 0.680687
0.925759 0.483145 0.680687
0.008850 0.723919 0.680687
0.287746 0.723919 0.680687
0.534185 0.723919 0.680687
0.782752 0.723919 0.680687
0.925759 0.723919 0.680687
0.008850 0.907925 0.680687
0.287746 0.907925 0.680687
0.534185 0.907925 0.680687
0.782752 0.907925 0.680687
0.925759 0.907925 0.680687
0.008850 0.000000 0.888184
0.287746 0.000000 0.888184
0.534185 0.000000 0.888184
0.782752 0.000000 0.888184
0.925759 0.000000 0.888184
0.008850 0.243067 0.888184
0.287746 0.243067 0.888184
0.534185 0.243067 0.888184
0.782752 0.243067 0.888184
0.925759 0.243067 0.888184
0.008850 0.483145 0.888184
0.287746 0.483145 0.888184
0.534185 0.483145 0.888184
0.782752 0.483145 0.888184
0.925759 0.483145 0.888184
0.008850 0.723919 0.888184
0.287746 0.723919 0.888184
0.534185 0.723919 0.888184
0.782752 0.723919 0.888184
0.925759 0.723919 0.888184
0.008850 0.907925 0.888184
0.287746 0.907925 0.888184
0.534185 0.907925 0.888184
0.782752 0.907925 0.888184
0.925759 0.907925 0.888184
