assets/luts/douyin_fairy.cube
# Beauty Camera 3D LUT
# Filter: Tiên Nữ (douyin_fairy)
# Category: Douyin
TITLE "Tiên Nữ"
LUT_3D_SIZE 32
DOMAIN_MIN 0.0 0.0 0.0
DOMAIN_MAX 1.0 1.0 1.0
0.044071 0.012477 0.073833
0.085172 0.011976 0.073332
0.124316 0.011499 0.072856
0.162250 0.011037 0.072394
0.199314 0.010586 0.071942
0.235700 0.010143 0.071499
0.271532 0.009706 0.071062
0.306897 0.009275 0.070632
0.341860 0.008850 0.070206
0.376469 0.008428 0.069784
0.410763 0.008010 0.069367
0.444773 0.007596 0.068952
0.478525 0.007185 0.068541
0.512041 0.006777 0.068133
0.545339 0.006371 0.067727
0.578436 0.005968 0.067324
0.611344 0.005567 0.066923
0.644076 0.005168 0.066525
0.676643 0.004772 0.066128
0.709054 0.004377 0.065733
0.741318 0.003984 0.065340
0.773441 0.003593 0.064949
0.812742 0.003114 0.064470
0.850028 0.002660 0.064016
0.881255 0.002279 0.063636
0.907428 0.001961 0.063317
0.929382 0.001693 0.063049
0.947810 0.001469 0.062825
0.963289 0.001280 0.062636
0.976299 0.001122 0.062478
0.987242 0.000988 0.062345
0.996451 0.000876 0.062233
0.042459 0.050695 0.072221
0.083529 0.050164 0.079060
0.122703 0.049718 0.071243
0.160638 0.049256 0.070781
0.197702 0.048804 0.070330
0.234087 0.048361 0.069886
0.269920 0.047924 0.069450
0.305285 0.047494 0.069019
0.340248 0.047068 0.068593
0.374856 0.046646 0.068172
0.409150 0.046229 0.067754
0.443160 0.045814 0.067340
0.476913 0.045403 0.066929
0.510429 0.044995 0.066520
0.543727 0.044589 0.066115
0.576823 0.044186 0.065712
0.609731 0.043785 0.065311
0.642464 0.043387 0.064912
0.675030 0.042990 0.064516
0.707441 0.042595 0.064121
0.739705 0.042202 0.063728
0.771829 0.041811 0.063336
0.811129 0.041332 0.062858
0.848416 0.040878 0.062404
0.879642 0.040498 0.062023
0.905815 0.040179 0.061704
0.927769 0.039911 0.061437
0.946197 0.039687 0.061213
0.961676 0.039498 0.061024
0.974687 0.039340 0.060866
0.985630 0.039207 0.060732
0.994839 0.039095 0.060620
0.040923 0.087088 0.070685
0.082024 0.086588 0.070184
0.121108 0.086051 0.084310
0.158741 0.092002 0.090768
0.196166 0.085197 0.068794
0.232552 0.084754 0.068351
0.268384 0.084318 0.067915
0.303749 0.083887 0.067484
0.338712 0.083461 0.067058
0.373321 0.083039 0.066636
0.407615 0.082622 0.066219
0.441625 0.082208 0.065804
0.475377 0.081796 0.065393
0.508893 0.081388 0.064985
0.542191 0.080983 0.064579
0.575288 0.080579 0.064176
0.608196 0.080179 0.063775
0.640928 0.079780 0.063377
0.673495 0.079383 0.062980
0.705906 0.078988 0.062585
0.738170 0.078595 0.062192
0.770294 0.078204 0.061801
0.809594 0.077725 0.061322
0.846880 0.077271 0.060868
0.878107 0.076891 0.060488
0.904280 0.076572 0.060169
0.926234 0.076305 0.059902
0.944662 0.076080 0.059677
0.960141 0.075892 0.059489
0.973151 0.075733 0.059330
0.984094 0.075600 0.059197
0.993303 0.075488 0.059085
0.039426 0.122572 0.069188
0.080527 0.122071 0.068687
0.119671 0.121594 0.068211
0.157516 0.121043 0.089543
0.194284 0.126878 0.095954
0.230375 0.132704 0.102315
0.266887 0.119801 0.066417
0.302252 0.119370 0.065987
0.337215 0.118944 0.065561
0.371824 0.118523 0.065139
0.406118 0.118105 0.064722
0.440128 0.117691 0.064307
0.473880 0.117280 0.063896
0.507396 0.116871 0.063488
0.540694 0.116466 0.063082
0.573791 0.116063 0.062679
0.606699 0.115662 0.062278
0.639431 0.115263 0.061880
0.671998 0.114866 0.061483
0.704409 0.114472 0.061088
0.736673 0.114079 0.060695
0.768796 0.113687 0.060304
0.808097 0.113209 0.059825
0.845383 0.112755 0.059371
0.876610 0.112374 0.058991
0.902783 0.112055 0.058672
0.924737 0.111788 0.058404
0.943165 0.111564 0.058180
0.958644 0.111375 0.057991
0.971654 0.111216 0.057833
0.982597 0.111083 0.057700
0.991806 0.110971 0.057588
0.037955 0.157444 0.067717
0.079056 0.156943 0.067216
0.118199 0.156467 0.066739
0.156134 0.156005 0.066277
0.193079 0.155434 0.094749
0.229173 0.161187 0.101113
0.264715 0.166933 0.107431
0.300781 0.154243 0.064515
0.335744 0.153817 0.064089
0.370353 0.153395 0.063668
0.404646 0.152978 0.063250
0.438657 0.152563 0.062836
0.472409 0.152152 0.062425
0.505925 0.151744 0.062017
0.539223 0.151338 0.061611
0.572319 0.150935 0.061208
0.605228 0.150534 0.060807
0.637960 0.150136 0.060408
0.670527 0.149739 0.060012
0.702938 0.149344 0.059617
0.735201 0.148951 0.059224
0.767325 0.148560 0.058833
0.806626 0.148081 0.058354
0.843912 0.147627 0.057900
0.875139 0.147247 0.057519
0.901312 0.146928 0.057201
0.923265 0.146661 0.056933
0.941693 0.146436 0.056709
0.957172 0.146247 0.056520
0.970183 0.146089 0.056362
0.981126 0.145956 0.056228
0.990335 0.145844 0.056116
0.036503 0.191858 0.066265
0.077604 0.191357 0.065764
0.116747 0.190880 0.065287
0.154682 0.190418 0.064825
0.191746 0.189967 0.064374
0.227984 0.189376 0.099924
0.263528 0.195064 0.106244
0.298605 0.200747 0.112521
0.333281 0.206423 0.118757
0.368901 0.187809 0.062216
0.403194 0.187391 0.061798
0.437205 0.186977 0.061384
0.470957 0.186566 0.060973
0.504473 0.186158 0.060565
0.537771 0.185752 0.060159
0.570867 0.185349 0.059756
0.603776 0.184948 0.059355
0.636508 0.184549 0.058956
0.669075 0.184153 0.058560
0.701486 0.183758 0.058165
0.733749 0.183365 0.057772
0.765873 0.182974 0.057381
0.805174 0.182495 0.056902
0.842460 0.182041 0.056448
0.873687 0.181660 0.056067
0.899860 0.181342 0.055749
0.921813 0.181074 0.055481
0.940241 0.180850 0.055257
0.955720 0.180661 0.055068
0.968731 0.180503 0.054910
0.979674 0.180369 0.054776
0.988883 0.180257 0.054664
0.035067 0.225904 0.064828
0.076167 0.225404 0.064328
0.115311 0.224927 0.063851
0.153246 0.224465 0.063389
0.190309 0.224013 0.062937
0.233006 0.223315 0.105425
0.262351 0.222957 0.105067
0.297430 0.228592 0.111346
0.332108 0.234223 0.117584
0.366432 0.239849 0.123783
0.400442 0.245470 0.129946
0.435768 0.221024 0.059948
0.469520 0.220612 0.059536
0.503036 0.220204 0.059128
0.536335 0.219799 0.058723
0.569431 0.219396 0.058319
0.602339 0.218995 0.057919
0.635071 0.218596 0.057520
0.667638 0.218199 0.057123
0.700049 0.217805 0.056728
0.732313 0.217412 0.056335
0.764437 0.217020 0.055944
0.803737 0.216542 0.055465
0.841023 0.216087 0.055011
0.872250 0.215707 0.054631
0.898423 0.215388 0.054312
0.920377 0.215121 0.054045
0.938805 0.214896 0.053820
0.954284 0.214708 0.053632
0.967295 0.214549 0.053473
0.978237 0.214416 0.053340
0.987446 0.214304 0.053228
0.033643 0.259646 0.063405
0.074744 0.259145 0.062904
0.113887 0.258668 0.062427
0.151822 0.258206 0.061965
0.188886 0.257755 0.061514
0.225272 0.257312 0.061071
0.267297 0.256592 0.110533
0.296264 0.256239 0.110180
0.330943 0.261830 0.116419
0.365269 0.267416 0.122620
0.399281 0.272999 0.128784
0.433009 0.278578 0.134914
0.468097 0.254354 0.058113
0.501613 0.253946 0.057705
0.534911 0.253540 0.057299
0.568007 0.253137 0.056896
0.600916 0.252736 0.056495
0.633648 0.252337 0.056096
0.666215 0.251941 0.055700
0.698626 0.251546 0.055305
0.730889 0.251153 0.054912
0.763013 0.250762 0.054521
0.802314 0.250283 0.054042
0.839600 0.249829 0.053588
0.870827 0.249448 0.053207
0.897000 0.249130 0.052889
0.918953 0.248862 0.052621
0.937381 0.248638 0.052397
0.952860 0.248449 0.052208
0.965871 0.248291 0.052050
0.976814 0.248158 0.051916
0.986023 0.248045 0.051804
0.032230 0.293126 0.061992
0.073331 0.292626 0.061492
0.112475 0.292149 0.061015
0.150409 0.291687 0.060553
0.187473 0.291235 0.060101
0.223859 0.290792 0.059658
0.259691 0.290356 0.059222
0.301144 0.289614 0.115611
0.329786 0.289266 0.115262
0.364113 0.294817 0.121464
0.398126 0.300366 0.127630
0.431856 0.305911 0.133761
0.465328 0.311452 0.139859
0.498564 0.316990 0.145927
0.533498 0.287021 0.055886
0.566595 0.286617 0.055483
0.599503 0.286217 0.055082
0.632235 0.285818 0.054684
0.664802 0.285421 0.054287
0.697213 0.285026 0.053892
0.729477 0.284633 0.053499
0.761601 0.284242 0.053108
0.800901 0.283764 0.052629
0.838187 0.283309 0.052175
0.869414 0.282929 0.051795
0.895587 0.282610 0.051476
0.917541 0.282343 0.051209
0.935969 0.282118 0.050984
0.951448 0.281930 0.050796
0.964458 0.281771 0.050637
0.975401 0.281638 0.050504
0.984610 0.281526 0.050392
0.030827 0.326379 0.060589
0.071928 0.325878 0.060089
0.111072 0.325402 0.059612
0.149006 0.324940 0.059150
0.186070 0.324488 0.058698
0.222456 0.324045 0.058255
0.258288 0.323608 0.057819
0.293654 0.323178 0.057388
0.334609 0.322414 0.120660
0.362963 0.322069 0.120314
0.396978 0.327586 0.126481
0.430708 0.333101 0.132614
0.464182 0.338613 0.138713
0.497419 0.344122 0.144782
0.530440 0.349627 0.150821
0.563258 0.355129 0.156831
0.598100 0.319469 0.053679
0.630832 0.319071 0.053281
0.663399 0.318674 0.052884
0.695810 0.318279 0.052489
0.728074 0.317886 0.052096
0.760198 0.317495 0.051705
0.799498 0.317016 0.051226
0.836784 0.316562 0.050772
0.868011 0.316182 0.050392
0.894184 0.315863 0.050073
0.916138 0.315595 0.049806
0.934566 0.315371 0.049581
0.950045 0.315182 0.049393
0.963055 0.315024 0.049234
0.973998 0.314891 0.049101
0.983207 0.314779 0.048989
0.029433 0.359430 0.059195
0.070534 0.358929 0.058694
0.109677 0.358452 0.058217
0.147612 0.357990 0.057755
0.184676 0.357539 0.057304
0.221062 0.357096 0.056861
0.256894 0.356659 0.056424
0.292259 0.356229 0.055993
0.327222 0.355803 0.055567
0.367736 0.355016 0.125681
0.395835 0.354674 0.125338
0.429567 0.360161 0.131472
0.463041 0.365646 0.137573
0.496280 0.371128 0.143642
0.529301 0.376607 0.149682
0.562121 0.382084 0.155694
0.594753 0.387557 0.161678
0.627209 0.393028 0.167637
0.662005 0.351725 0.051490
0.694416 0.351330 0.051095
0.726679 0.350937 0.050702
0.758803 0.350546 0.050311
0.798104 0.350067 0.049832
0.835390 0.349613 0.049378
0.866617 0.349233 0.048997
0.892790 0.348914 0.048679
0.914743 0.348646 0.048411
0.933171 0.348422 0.048187
0.948650 0.348233 0.047998
0.961661 0.348075 0.047840
0.972604 0.347942 0.047706
0.981813 0.347829 0.047594
0.028046 0.392300 0.057808
0.069147 0.391799 0.057307
0.108290 0.391322 0.056831
0.146225 0.390860 0.056368
0.183289 0.390409 0.055917
0.219675 0.389965 0.055474
0.255507 0.389529 0.055037
0.290872 0.389098 0.054607
0.325835 0.388672 0.054181
0.360444 0.388251 0.053759
0.400562 0.387441 0.130675
0.428430 0.387101 0.130335
0.461906 0.392561 0.136437
0.495145 0.398018 0.142508
0.528168 0.403474 0.148549
0.560989 0.408926 0.154561
0.593622 0.414377 0.160547
0.626079 0.419824 0.166506
0.658371 0.425269 0.172441
0.693029 0.384200 0.049708
0.725292 0.383807 0.049315
0.757416 0.383415 0.048924
0.796717 0.382937 0.048445
0.834003 0.382483 0.047991
0.865230 0.382102 0.047611
0.891403 0.381783 0.047292
0.913356 0.381516 0.047024
0.931784 0.381292 0.046800
0.947263 0.381103 0.046611
0.960274 0.380944 0.046453
0.971217 0.380811 0.046320
0.980426 0.380699 0.046207
0.026666 0.425005 0.056428
0.067767 0.424504 0.055927
0.106911 0.424028 0.055451
0.144845 0.423565 0.054989
0.181909 0.423114 0.054537
0.218295 0.422671 0.054094
0.254127 0.422234 0.053657
0.289492 0.421804 0.053227
0.324455 0.421378 0.052801
0.359064 0.420956 0.052379
0.405287 0.420044 0.135982
0.433116 0.419705 0.135643
0.460775 0.419368 0.135306
0.494015 0.424802 0.141378
0.527039 0.430235 0.147420
0.559860 0.435666 0.153433
0.592494 0.441094 0.159419
0.624953 0.446520 0.165380
0.657246 0.451944 0.171315
0.689383 0.457366 0.177227
0.721374 0.462784 0.183115
0.756036 0.416121 0.047544
0.795337 0.415642 0.047065
0.832623 0.415188 0.046611
0.863850 0.414808 0.046231
0.890023 0.414489 0.045912
0.911977 0.414221 0.045644
0.930405 0.413997 0.045420
0.945884 0.413808 0.045231
0.958894 0.413650 0.045073
0.969837 0.413517 0.044940
0.979046 0.413404 0.044828
0.025293 0.457560 0.055055
0.066393 0.457059 0.054554
0.105537 0.456583 0.054077
0.143472 0.456121 0.053615
0.180536 0.455669 0.053164
0.216921 0.455226 0.052720
0.252754 0.454790 0.052284
0.288119 0.454359 0.051853
0.323082 0.453933 0.051427
0.357690 0.453511 0.051006
0.391984 0.453094 0.050588
0.437801 0.452158 0.140923
0.465423 0.451822 0.140587
0.492890 0.451487 0.140252
0.525914 0.456899 0.146295
0.558736 0.462309 0.152309
0.591371 0.467717 0.158296
0.623830 0.473123 0.164257
0.656124 0.478527 0.170194
0.688262 0.483929 0.176106
0.720254 0.489328 0.181995
0.752106 0.494726 0.187862
0.791134 0.500032 0.193619
0.831249 0.447743 0.045238
0.862476 0.447363 0.044857
0.888649 0.447044 0.044538
0.910603 0.446777 0.044271
0.929031 0.446552 0.044046
0.944510 0.446364 0.043858
0.957521 0.446205 0.043699
0.968463 0.446072 0.043566
0.977673 0.445960 0.043454
0.023925 0.489977 0.053687
0.065026 0.489476 0.053186
0.104169 0.489000 0.052709
0.142104 0.488538 0.052247
0.179168 0.488086 0.051796
0.215554 0.487643 0.051353
0.251386 0.487206 0.050916
0.286751 0.486776 0.050485
0.321714 0.486350 0.050060
0.356323 0.485928 0.049638
0.390617 0.485511 0.049220
0.424627 0.485096 0.048806
0.470070 0.484137 0.145840
0.497504 0.483803 0.145506
0.524793 0.483471 0.145174
0.557616 0.488862 0.151189
0.590252 0.494251 0.157177
0.622711 0.499638 0.163139
0.655006 0.505023 0.169076
0.687145 0.510407 0.174989
0.719137 0.515788 0.180879
0.750990 0.521168 0.186747
0.790019 0.526456 0.192504
0.827035 0.531765 0.198264
0.861109 0.479780 0.043489
0.887282 0.479461 0.043171
0.909235 0.479194 0.042903
0.927663 0.478969 0.042679
0.943142 0.478781 0.042490
0.956153 0.478622 0.042332
0.967096 0.478489 0.042198
0.976305 0.478377 0.042086
0.022563 0.522266 0.052325
0.063663 0.521765 0.051824
0.102807 0.521289 0.051347
0.140742 0.520826 0.050885
0.177806 0.520375 0.050434
0.214191 0.519932 0.049990
0.250024 0.519495 0.049554
0.285389 0.519065 0.049123
0.320352 0.518639 0.048697
0.354960 0.518217 0.048276
0.389254 0.517799 0.047858
0.423264 0.517385 0.047444
0.457017 0.516974 0.047033
0.502116 0.515992 0.150734
0.529375 0.515660 0.150402
0.556499 0.515329 0.150072
0.589136 0.520700 0.156061
0.621596 0.526070 0.162023
0.653892 0.531438 0.167961
0.686032 0.536804 0.173875
0.718024 0.542168 0.179766
0.749878 0.547531 0.185635
0.788908 0.552802 0.191393
0.825924 0.558095 0.197153
0.856881 0.563458 0.202966
0.882784 0.568879 0.208820
0.907873 0.511482 0.041541
0.926301 0.511258 0.041316
0.941780 0.511069 0.041128
0.954791 0.510911 0.040969
0.965733 0.510778 0.040836
0.974943 0.510665 0.040724
0.021206 0.554436 0.050967
0.062306 0.553935 0.050467
0.101450 0.553458 0.049990
0.139385 0.552996 0.049528
0.176448 0.552545 0.049076
0.212834 0.552102 0.048633
0.248666 0.551665 0.048197
0.284032 0.551234 0.047766
0.318994 0.550808 0.047340
0.353603 0.550387 0.046918
0.387897 0.549969 0.046501
0.421907 0.549555 0.046086
0.455659 0.549144 0.045675
0.489175 0.548736 0.045267
0.533956 0.547729 0.155607
0.561052 0.547399 0.155277
0.588023 0.547071 0.154948
0.620484 0.552424 0.160912
0.652781 0.557775 0.166850
0.684921 0.563125 0.172765
0.716915 0.568473 0.178656
0.748769 0.573819 0.184525
0.787799 0.579075 0.190284
0.824816 0.584352 0.196046
0.855774 0.589699 0.201859
0.881678 0.595105 0.207714
0.903363 0.600560 0.213600
0.921522 0.606053 0.219509
0.940423 0.543239 0.039771
0.953433 0.543081 0.039612
0.964376 0.542947 0.039479
0.973585 0.542835 0.039367
0.019853 0.586494 0.049615
0.060954 0.585993 0.049114
0.100097 0.585516 0.048637
0.138032 0.585054 0.048175
0.175096 0.584603 0.047724
0.211482 0.584160 0.047281
0.247314 0.583723 0.046844
0.282679 0.583292 0.046413
0.317642 0.582867 0.045987
0.352251 0.582445 0.045566
0.386544 0.582027 0.045148
0.420554 0.581613 0.044734
0.454307 0.581202 0.044323
0.487823 0.580794 0.043915
0.521121 0.580388 0.043509
0.565603 0.579358 0.160458
0.592548 0.579030 0.160130
0.619376 0.578703 0.159803
0.651672 0.584039 0.165742
0.683814 0.589373 0.171657
0.715808 0.594706 0.177549
0.747662 0.600037 0.183419
0.786694 0.605278 0.189179
0.823711 0.610540 0.194941
0.854669 0.615872 0.200755
0.880574 0.621264 0.206610
0.902260 0.626703 0.212497
0.920420 0.632183 0.218407
0.935631 0.637696 0.224334
0.948374 0.643235 0.230273
0.963024 0.575005 0.038126
0.972233 0.574893 0.038014
0.018505 0.618447 0.048267
0.059605 0.617947 0.047766
0.098749 0.617470 0.047289
0.136684 0.617008 0.046827
0.173748 0.616556 0.046376
0.210133 0.616113 0.045932
0.245966 0.615677 0.045496
0.281331 0.615246 0.045065
0.316294 0.614820 0.044639
0.350902 0.614399 0.044218
0.385196 0.613981 0.043800
0.419206 0.613567 0.043386
0.452959 0.613155 0.042975
0.486475 0.612747 0.042566
0.519773 0.612342 0.042161
0.552869 0.611938 0.041758
0.597072 0.610885 0.165288
0.623874 0.610558 0.164962
0.650567 0.610233 0.164637
0.682709 0.615552 0.170553
0.714704 0.620870 0.176445
0.746559 0.626187 0.182316
0.785591 0.631413 0.188076
0.822609 0.636661 0.193839
0.853568 0.641980 0.199653
0.879473 0.647357 0.205509
0.901159 0.652783 0.211396
0.919320 0.658249 0.217307
0.934532 0.663748 0.223235
0.947276 0.669274 0.229174
0.957952 0.674823 0.235122
0.970885 0.606847 0.036666
0.017161 0.650302 0.046923
0.058261 0.649801 0.046422
0.097405 0.649325 0.045945
0.135340 0.648863 0.045483
0.172404 0.648411 0.045032
0.208789 0.647968 0.044588
0.244622 0.647532 0.044152
0.279987 0.647101 0.043721
0.314950 0.646675 0.043295
0.349558 0.646253 0.042874
0.383852 0.645836 0.042456
0.417862 0.645421 0.042042
0.451615 0.645010 0.041631
0.485131 0.644602 0.041222
0.518429 0.644196 0.040817
0.551525 0.643793 0.040414
0.601594 0.642641 0.170425
0.628372 0.642315 0.170099
0.655042 0.641990 0.169774
0.681607 0.641666 0.169451
0.713603 0.646970 0.175344
0.745459 0.652273 0.181215
0.784491 0.657486 0.186976
0.821510 0.662720 0.192739
0.852469 0.668025 0.198555
0.878375 0.673389 0.204411
0.900062 0.678802 0.210299
0.918223 0.684255 0.216210
0.933435 0.689741 0.222138
0.946179 0.695254 0.228078
0.956856 0.700790 0.234026
0.965799 0.706344 0.239978
0.015821 0.682064 0.045582
0.056921 0.681563 0.045082
0.096065 0.681086 0.044605
0.134000 0.680624 0.044143
0.171064 0.680173 0.043692
0.207449 0.679730 0.043248
0.243281 0.679293 0.042812
0.278647 0.678862 0.042381
0.313609 0.678436 0.041955
0.348218 0.678015 0.041534
0.382512 0.677597 0.041116
0.416522 0.677183 0.040702
0.450274 0.676772 0.040291
0.483791 0.676364 0.039882
0.517089 0.675958 0.039477
0.550185 0.675555 0.039074
0.583093 0.675154 0.038673
0.632869 0.673978 0.175216
0.659515 0.673653 0.174891
0.686059 0.673330 0.174568
0.712504 0.673008 0.174246
0.744361 0.678298 0.180117
0.783394 0.683497 0.185879
0.820413 0.688718 0.191642
0.851373 0.694011 0.197458
0.877279 0.699362 0.203315
0.898966 0.704762 0.209203
0.917128 0.710202 0.215115
0.932341 0.715676 0.221044
0.945086 0.721177 0.226985
0.955763 0.726700 0.232933
0.964706 0.732243 0.238885
0.014484 0.713737 0.044246
0.055585 0.713236 0.043746
0.094729 0.712759 0.043269
0.132663 0.712297 0.042807
0.169727 0.711846 0.042355
0.206113 0.711403 0.041912
0.241945 0.710966 0.041476
0.277311 0.710535 0.041045
0.312273 0.710110 0.040619
0.346882 0.709688 0.040197
0.381176 0.709270 0.039780
0.415186 0.708856 0.039365
0.448938 0.708445 0.038954
0.482454 0.708037 0.038546
0.515752 0.707631 0.038140
0.548849 0.707228 0.037737
0.581757 0.706827 0.037336
0.614489 0.706428 0.036938
0.663987 0.705229 0.179987
0.690509 0.704906 0.179664
0.716934 0.704584 0.179343
0.743265 0.704263 0.179022
0.782299 0.709450 0.184784
0.819318 0.714659 0.190548
0.850279 0.719939 0.196364
0.876186 0.725278 0.202222
0.897873 0.730665 0.208110
0.916036 0.736094 0.214023
0.931249 0.741555 0.219952
0.943994 0.747045 0.225893
0.954621 0.753770 0.231791
0.963473 0.761473 0.237652
0.013152 0.745326 0.042913
0.054252 0.744825 0.042413
0.093396 0.744348 0.041936
0.131331 0.743886 0.041474
0.168395 0.743435 0.041022
0.204780 0.742992 0.040579
0.240612 0.742555 0.040143
0.275978 0.742125 0.039712
0.310940 0.741699 0.039286
0.345549 0.741277 0.038865
0.379843 0.740859 0.038447
0.413853 0.740445 0.038033
0.447605 0.740034 0.037621
0.481121 0.739626 0.037213
0.514420 0.739220 0.036808
0.547516 0.738817 0.036405
0.580424 0.738416 0.036004
0.613156 0.738017 0.035605
0.645723 0.737621 0.035208
0.694958 0.736397 0.184742
0.721362 0.736076 0.184420
0.747674 0.735755 0.184099
0.781206 0.735347 0.183691
0.818226 0.740544 0.189456
0.849187 0.745812 0.195273
0.875088 0.751305 0.201124
0.896679 0.758966 0.206916
0.914756 0.766417 0.212743
0.929895 0.773660 0.218598
0.942575 0.780696 0.224473
0.953196 0.787528 0.230366
0.962094 0.794160 0.236273
0.011590 0.782346 0.041351
0.052690 0.781845 0.040851
0.091834 0.781368 0.040374
0.129769 0.780906 0.039912
0.166833 0.780455 0.039461
0.203218 0.780012 0.039017
0.239050 0.779575 0.038581
0.274416 0.779144 0.038150
0.309378 0.778719 0.037724
0.343987 0.778297 0.037303
0.378281 0.777879 0.036885
0.412291 0.777465 0.036471
0.446043 0.777054 0.036060
0.479560 0.776646 0.035651
0.512858 0.776240 0.035246
0.545954 0.775837 0.034843
0.578862 0.775436 0.034442
0.611595 0.775037 0.034043
0.644161 0.774641 0.033646
0.676572 0.774246 0.033252
0.725557 0.772999 0.189246
0.752024 0.772676 0.188924
0.786828 0.772253 0.188500
0.816904 0.771886 0.188133
0.847795 0.778804 0.193881
0.873643 0.785552 0.199679
0.895280 0.792125 0.205517
0.913402 0.798524 0.211389
0.928583 0.804749 0.217286
0.941304 0.810800 0.223203
0.951967 0.816678 0.229137
0.960903 0.822387 0.235082
0.009992 0.820208 0.039754
0.051093 0.819707 0.039253
0.090236 0.819231 0.038777
0.128171 0.818769 0.038315
0.165235 0.818317 0.037863
0.201621 0.817874 0.037420
0.237453 0.817437 0.036983
0.272818 0.817007 0.036553
0.307781 0.816581 0.036127
0.342390 0.816159 0.035705
0.376684 0.815742 0.035288
0.410694 0.815327 0.034873
0.444446 0.814916 0.034462
0.477962 0.814508 0.034054
0.511260 0.814102 0.033648
0.544357 0.813699 0.033245
0.577265 0.813298 0.032844
0.609997 0.812900 0.032446
0.642564 0.812503 0.032049
0.674975 0.812108 0.031654
0.729712 0.810764 0.194015
0.758482 0.810414 0.193665
0.792186 0.810003 0.193254
0.821316 0.809649 0.192899
0.846507 0.809342 0.192592
0.872395 0.815121 0.198431
0.894072 0.820759 0.204309
0.912232 0.826251 0.210219
0.927450 0.831599 0.216153
0.940207 0.836800 0.222106
0.950904 0.841857 0.228074
0.959874 0.846770 0.234053
0.008656 0.851874 0.038418
0.049757 0.851373 0.037917
0.088900 0.850896 0.037441
0.126835 0.850434 0.036979
0.163899 0.849983 0.036527
0.200285 0.849539 0.036084
0.236117 0.849103 0.035647
0.271482 0.848672 0.035217
0.306445 0.848246 0.034791
0.341054 0.847825 0.034369
0.375348 0.847407 0.033952
0.409358 0.846993 0.033537
0.443110 0.846582 0.033126
0.476626 0.846173 0.032718
0.509924 0.845768 0.032312
0.543021 0.845365 0.031909
0.575929 0.844964 0.031508
0.608661 0.844565 0.031110
0.641228 0.844169 0.030713
0.673639 0.843774 0.030318
0.705903 0.843381 0.029925
0.764946 0.841958 0.198649
0.797587 0.841560 0.198252
0.825801 0.841217 0.197908
0.850202 0.840919 0.197611
0.871317 0.840662 0.197354
0.893029 0.845492 0.203266
0.911221 0.850204 0.209208
0.926471 0.854795 0.215174
0.939260 0.859265 0.221159
0.949986 0.863613 0.227156
0.958985 0.867841 0.233164
0.007538 0.878370 0.037300
0.048639 0.877869 0.036799
0.087783 0.877392 0.036323
0.125717 0.876930 0.035861
0.162781 0.876479 0.035409
0.199167 0.876036 0.034966
0.234999 0.875599 0.034530
0.270365 0.875168 0.034099
0.305327 0.874742 0.033673
0.339936 0.874321 0.033251
0.374230 0.873903 0.032834
0.408240 0.873489 0.032419
0.441992 0.873078 0.032008
0.475508 0.872670 0.031600
0.508806 0.872264 0.031194
0.541903 0.871861 0.030791
0.574811 0.871460 0.030390
0.607543 0.871061 0.029992
0.640110 0.870665 0.029595
0.672521 0.870270 0.029200
0.704785 0.869877 0.028807
0.736909 0.869486 0.028416
0.802992 0.867950 0.203450
0.830320 0.867617 0.203117
0.853958 0.867329 0.202829
0.874415 0.867080 0.202580
0.892127 0.866865 0.202364
0.910348 0.870903 0.208335
0.925626 0.874842 0.214329
0.938441 0.878680 0.220339
0.949193 0.882417 0.226363
0.958217 0.886053 0.232395
0.006603 0.900551 0.036364
0.047703 0.900050 0.035864
0.086847 0.899573 0.035387
0.124782 0.899111 0.034925
0.161845 0.898660 0.034473
0.198231 0.898217 0.034030
0.234063 0.897780 0.033594
0.269429 0.897349 0.033163
0.304391 0.896923 0.032737
0.339000 0.896502 0.032315
0.373294 0.896084 0.031898
0.407304 0.895670 0.031484
0.441056 0.895259 0.031072
0.474572 0.894851 0.030664
0.507871 0.894445 0.030259
0.540967 0.894042 0.029855
0.573875 0.893641 0.029455
0.606607 0.893242 0.029056
0.639174 0.892846 0.028659
