assets/luts/douyin_radiant.cube
# Beauty Camera 3D LUT
# Filter: Phát Sáng (douyin_radiant)
# Category: Douyin
TITLE "Phát Sáng"
LUT_3D_SIZE 5
DOMAIN_MIN 0.000000 0.000000 0.000000
DOMAIN_MAX 0.903226 0.903226 0.903226
0.017553 0.015949 0.014437
0.307835 0.011304 0.009792
0.590770 0.006777 0.005265
0.847955 0.002746 0.001234
0.944167 0.000000 0.000000
0.002568 0.283806 0.000000
0.292850 0.279161 0.000000
0.575786 0.274634 0.000000
0.836710 0.270603 0.000000
0.940038 0.267237 0.000000
0.000000 0.549974 0.000000
0.277960 0.545330 0.000000
0.560896 0.540803 0.000000
0.824712 0.536772 0.000000
0.935632 0.533405 0.000000
0.000000 0.806795 0.000000
0.264398 0.802474 0.000000
0.547334 0.798170 0.000000
0.813018 0.794258 0.000000
0.931338 0.790933 0.000000
0.000000 0.926854 0.000000
0.252988 0.925218 0.000000
0.535923 0.923588 0.000000
0.802577 0.922107 0.000000
0.927504 0.920849 0.000000
0.016103 0.014500 0.283932
0.306386 0.009855 0.279288
0.589321 0.005328 0.274761
0.846903 0.001297 0.270730
0.943781 0.000000 0.267363
0.001119 0.282357 0.268948
0.291401 0.277712 0.264303
0.574337 0.273185 0.259776
0.835579 0.269154 0.255745
0.939623 0.265788 0.252379
0.000000 0.548525 0.254058
0.276511 0.543881 0.249414
0.559447 0.539354 0.244887
0.823498 0.535323 0.240855
0.935186 0.531956 0.237489
0.000000 0.805457 0.240496
0.262949 0.801106 0.235852
0.545885 0.796772 0.231325
0.811723 0.792833 0.227293
0.930862 0.789486 0.223927
0.000000 0.926347 0.229086
0.251539 0.924700 0.224441
0.534474 0.923059 0.219914
0.801210 0.921568 0.215883
0.927002 0.920301 0.212517
0.014636 0.013032 0.556779
0.304919 0.008388 0.552134
0.587854 0.003861 0.547607
0.845829 0.000000 0.543576
0.943387 0.000000 0.540210
0.000000 0.280890 0.541794
0.289934 0.276245 0.537150
0.572869 0.271718 0.532623
0.834427 0.267687 0.528591
0.939199 0.264321 0.525225
0.000000 0.547058 0.526904
0.275044 0.542414 0.522260
0.557980 0.537887 0.517733
0.822261 0.533855 0.513702
0.934732 0.530489 0.510335
0.000000 0.804093 0.513342
0.261482 0.799712 0.508698
0.544418 0.795348 0.504171
0.810403 0.791381 0.500140
0.930378 0.788010 0.496774
0.000000 0.925831 0.501932
0.250072 0.924172 0.497287
0.533007 0.922520 0.492760
0.799817 0.921018 0.488729
0.926490 0.919742 0.485363
0.013268 0.011664 0.823413
0.303550 0.007019 0.819464
0.586485 0.002492 0.815529
0.844821 0.000000 0.811954
0.943016 0.000000 0.808916
0.000000 0.279521 0.810352
0.288566 0.274876 0.806111
0.571501 0.270349 0.801886
0.833344 0.266318 0.798046
0.938802 0.262952 0.794783
0.000000 0.545690 0.796417
0.273676 0.541045 0.791864
0.556611 0.536518 0.787329
0.821099 0.532487 0.783207
0.934305 0.529121 0.779704
0.000000 0.802812 0.782836
0.260114 0.798403 0.777979
0.543049 0.794009 0.773141
0.809164 0.790017 0.768744
0.929923 0.786624 0.765007
0.000000 0.925346 0.770709
0.248703 0.923676 0.765582
0.531639 0.922013 0.760473
0.798508 0.920502 0.755831
0.926010 0.919217 0.751886
0.012108 0.010504 0.936805
0.302390 0.005859 0.935391
0.585325 0.001332 0.933983
0.843962 0.000000 0.932704
0.942701 0.000000 0.931617
0.000000 0.278361 0.932131
0.287405 0.273716 0.930613
0.570341 0.269189 0.929101
0.832421 0.265158 0.927727
0.938463 0.261792 0.926559
0.000000 0.544529 0.927144
0.272516 0.539885 0.925514
0.555451 0.535358 0.923891
0.820107 0.531327 0.922416
0.933941 0.527961 0.921163
0.000000 0.801720 0.922283
0.258954 0.797286 0.920545
0.541889 0.792868 0.918814
0.808106 0.788854 0.917240
0.929534 0.785442 0.915903
0.000000 0.924932 0.917944
0.247543 0.923253 0.916109
0.530478 0.921581 0.914281
0.797391 0.920061 0.912619
0.925600 0.918769 0.911207
