assets/luts/douyin_sweet.cube
# Beauty Camera 3D LUT
# Filter: Ngọt Ngào (douyin_sweet)
# Category: Douyin
TITLE "Ngọt Ngào"
LUT_3D_SIZE 8
DOMAIN_MIN 0.000000 0.000000 0.000000
DOMAIN_MAX 0.903226 0.903226 0.903226
0.008850 0.000000 0.000000
0.175253 0.000000 0.000000
0.324085 0.000000 0.000000
0.465417 0.000000 0.000000
0.601950 0.000000 0.000000
0.746023 0.000000 0.000000
0.863421 0.000000 0.000000
0.925759 0.000000 0.000000
0.008850 0.137126 0.000000
0.175253 0.137126 0.000000
0.324085 0.137126 0.000000
0.465417 0.137126 0.000000
0.601950 0.137126 0.000000
0.746023 0.137126 0.000000
0.863421 0.137126 0.000000
0.925759 0.137126 0.000000
0.008850 0.277869 0.000000
0.175253 0.277869 0.000000
0.324085 0.277869 0.000000
0.465417 0.277869 0.000000
0.601950 0.277869 0.000000
0.746023 0.277869 0.000000
0.863421 0.277869 0.000000
0.925759 0.277869 0.000000
0.008850 0.415285 0.000000
0.175253 0.415285 0.000000
0.324085 0.415285 0.000000
0.465417 0.415285 0.000000
0.601950 0.415285 0.000000
0.746023 0.415285 0.000000
0.863421 0.415285 0.000000
0.925759 0.415285 0.000000
0.008850 0.550553 0.000000
0.175253 0.550553 0.000000
0.324085 0.550553 0.000000
0.465417 0.550553 0.000000
0.601950 0.550553 0.000000
0.746023 0.550553 0.000000
0.863421 0.550553 0.000000
0.925759 0.550553 0.000000
0.008850 0.684234 0.000000
0.175253 0.684234 0.000000
0.324085 0.684234 0.000000
0.465417 0.684234 0.000000
0.601950 0.684234 0.000000
0.746023 0.684234 0.000000
0.863421 0.684234 0.000000
0.925759 0.684234 0.000000
0.008850 0.827868 0.000000
0.175253 0.827868 0.000000
0.324085 0.827868 0.000000
0.465417 0.827868 0.000000
0.601950 0.827868 0.000000
0.746023 0.827868 0.000000
0.863421 0.827868 0.000000
0.925759 0.827868 0.000000
0.008850 0.907925 0.000000
0.175253 0.907925 0.000000
0.324085 0.907925 0.000000
0.465417 0.907925 0.000000
0.601950 0.907925 0.000000
0.746023 0.907925 0.000000
0.863421 0.907925 0.000000
0.925759 0.907925 0.000000
0.008850 0.000000 0.122354
0.175253 0.000000 0.122354
0.324085 0.000000 0.122354
0.465417 0.000000 0.122354
0.601950 0.000000 0.122354
0.746023 0.000000 0.122354
0.863421 0.000000 0.122354
0.925759 0.000000 0.122354
0.008850 0.137126 0.122354
0.175253 0.137126 0.122354
0.324085 0.137126 0.122354
0.465417 0.137126 0.122354
0.601950 0.137126 0.122354
0.746023 0.137126 0.122354
0.863421 0.137126 0.122354
0.925759 0.137126 0.122354
0.008850 0.277869 0.122354
0.175253 0.277869 0.122354
0.324085 0.277869 0.122354
0.465417 0.257013 0.082039
0.601950 0.236081 0.061773
0.746023 0.215063 0.041411
0.863421 0.193954 0.020920
0.925759 0.277869 0.122354
0.008850 0.415285 0.122354
0.175253 0.415285 0.122354
0.324085 0.415285 0.122354
0.465417 0.415285 0.122354
0.601950 0.394828 0.061773
0.746023 0.374322 0.041411
0.863421 0.353762 0.020920
0.925759 0.333146 0.000239
0.008850 0.550553 0.122354
0.175253 0.550553 0.122354
0.324085 0.550553 0.122354
0.465417 0.550553 0.122354
0.601950 0.550553 0.122354
0.746023 0.550553 0.122354
0.863421 0.510159 0.020920
0.925759 0.489905 0.000239
0.008850 0.684234 0.122354
0.175253 0.684234 0.122354
0.324085 0.684234 0.122354
0.465417 0.684234 0.122354
0.601950 0.684234 0.122354
0.746023 0.684234 0.122354
0.863421 0.684234 0.122354
0.925759 0.644274 0.000239
0.008850 0.827868 0.122354
0.175253 0.827868 0.122354
0.324085 0.827868 0.122354
0.465417 0.827868 0.122354
0.601950 0.827868 0.122354
0.746023 0.827868 0.122354
0.863421 0.827868 0.122354
0.925759 0.827868 0.122354
0.008850 0.907925 0.122354
0.175253 0.907925 0.122354
0.324085 0.907925 0.122354
0.465417 0.907925 0.122354
0.601950 0.907925 0.122354
0.746023 0.907925 0.122354
0.863421 0.907925 0.122354
0.925759 0.907925 0.122354
0.008850 0.000000 0.255380
0.175253 0.000000 0.255380
0.324085 0.000000 0.255380
0.465417 0.000000 0.255380
0.601950 0.000000 0.255380
0.746023 0.000000 0.255380
0.863421 0.000000 0.255380
0.925759 0.000000 0.255380
0.008850 0.137126 0.255380
0.175253 0.137126 0.255380
0.324085 0.137126 0.255380
0.465417 0.137126 0.255380
0.601950 0.137126 0.255380
0.746023 0.137126 0.255380
0.863421 0.137126 0.255380
0.925759 0.137126 0.255380
0.008850 0.277869 0.255380
0.175253 0.277869 0.255380
0.324085 0.277869 0.255380
0.465417 0.277869 0.255380
0.601950 0.277869 0.255380
0.746023 0.277869 0.255380
0.863421 0.277869 0.255380
0.925759 0.277869 0.255380
0.008850 0.415285 0.255380
0.175253 0.415285 0.255380
0.324085 0.415285 0.255380
0.465417 0.415285 0.255380
0.601950 0.394828 0.215642
0.746023 0.374322 0.195724
0.863421 0.353762 0.175771
0.925759 0.333146 0.155778
0.008850 0.550553 0.255380
0.175253 0.550553 0.255380
0.324085 0.550553 0.255380
0.465417 0.550553 0.255380
0.601950 0.550553 0.255380
0.746023 0.530374 0.195724
0.863421 0.510159 0.175771
0.925759 0.489905 0.155778
0.008850 0.684234 0.255380
0.175253 0.684234 0.255380
0.324085 0.684234 0.255380
0.465417 0.684234 0.255380
0.601950 0.684234 0.255380
0.746023 0.684234 0.255380
0.863421 0.684234 0.255380
0.925759 0.644274 0.155778
0.008850 0.827868 0.255380
0.175253 0.827868 0.255380
0.324085 0.827868 0.255380
0.465417 0.827868 0.255380
0.601950 0.827868 0.255380
0.746023 0.827868 0.255380
0.863421 0.827868 0.255380
0.925759 0.827868 0.255380
0.008850 0.907925 0.255380
0.175253 0.907925 0.255380
0.324085 0.907925 0.255380
0.465417 0.907925 0.255380
0.601950 0.907925 0.255380
0.746023 0.907925 0.255380
0.863421 0.907925 0.255380
0.925759 0.907925 0.255380
0.008850 0.000000 0.387103
0.175253 0.000000 0.387103
0.324085 0.000000 0.387103
0.465417 0.000000 0.387103
0.601950 0.000000 0.387103
0.746023 0.000000 0.387103
0.863421 0.000000 0.387103
0.925759 0.000000 0.387103
0.008850 0.137126 0.387103
0.175253 0.137126 0.387103
0.324085 0.137126 0.387103
0.465417 0.137126 0.387103
0.601950 0.137126 0.387103
0.746023 0.137126 0.387103
0.863421 0.137126 0.387103
0.925759 0.137126 0.387103
0.008850 0.277869 0.387103
0.175253 0.277869 0.387103
0.324085 0.277869 0.387103
0.465417 0.277869 0.387103
0.601950 0.277869 0.387103
0.746023 0.277869 0.387103
0.863421 0.277869 0.387103
0.925759 0.277869 0.387103
0.008850 0.415285 0.387103
0.175253 0.415285 0.387103
0.324085 0.415285 0.387103
0.465417 0.415285 0.387103
0.601950 0.415285 0.387103
0.746023 0.415285 0.387103
0.863421 0.415285 0.387103
0.925759 0.415285 0.387103
0.008850 0.550553 0.387103
0.175253 0.550553 0.387103
0.324085 0.550553 0.387103
0.465417 0.550553 0.387103
0.601950 0.550553 0.387103
0.746023 0.530374 0.347689
0.863421 0.510159 0.327951
0.925759 0.489905 0.308192
0.008850 0.684234 0.387103
0.175253 0.684234 0.387103
0.324085 0.684234 0.387103
0.465417 0.684234 0.387103
0.601950 0.684234 0.387103
0.746023 0.684234 0.387103
0.863421 0.664269 0.327951
0.925759 0.644274 0.308192
0.008850 0.827868 0.387103
0.175253 0.827868 0.387103
0.324085 0.827868 0.387103
0.465417 0.827868 0.387103
0.601950 0.827868 0.387103
0.746023 0.827868 0.387103
0.863421 0.827868 0.387103
0.925759 0.827868 0.387103
0.008850 0.907925 0.387103
0.175253 0.907925 0.387103
0.324085 0.907925 0.387103
0.465417 0.907925 0.387103
0.601950 0.907925 0.387103
0.746023 0.907925 0.387103
0.863421 0.907925 0.387103
0.925759 0.907925 0.387103
0.008850 0.000000 0.517974
0.175253 0.000000 0.517974
0.324085 0.000000 0.517974
0.465417 0.000000 0.517974
0.601950 0.000000 0.517974
0.746023 0.000000 0.517974
0.863421 0.000000 0.517974
0.925759 0.000000 0.517974
0.008850 0.137126 0.517974
0.175253 0.137126 0.517974
0.324085 0.137126 0.517974
0.465417 0.137126 0.517974
0.601950 0.137126 0.517974
0.746023 0.137126 0.517974
0.863421 0.137126 0.517974
0.925759 0.137126 0.517974
0.008850 0.277869 0.517974
0.175253 0.277869 0.517974
0.324085 0.277869 0.517974
0.465417 0.277869 0.517974
0.601950 0.277869 0.517974
0.746023 0.277869 0.517974
0.863421 0.277869 0.517974
0.925759 0.277869 0.517974
0.008850 0.415285 0.517974
0.175253 0.415285 0.517974
0.324085 0.415285 0.517974
0.465417 0.415285 0.517974
0.601950 0.415285 0.517974
0.746023 0.415285 0.517974
0.863421 0.415285 0.517974
0.925759 0.415285 0.517974
0.008850 0.550553 0.517974
0.175253 0.550553 0.517974
0.324085 0.550553 0.517974
0.465417 0.550553 0.517974
0.601950 0.550553 0.517974
0.746023 0.550553 0.517974
0.863421 0.550553 0.517974
0.925759 0.550553 0.517974
0.008850 0.684234 0.517974
0.175253 0.684234 0.517974
0.324085 0.684234 0.517974
0.465417 0.684234 0.517974
0.601950 0.684234 0.517974
0.746023 0.684234 0.517974
0.863421 0.664269 0.478787
0.925759 0.644274 0.459171
0.008850 0.827868 0.517974
0.175253 0.827868 0.517974
0.324085 0.827868 0.517974
0.465417 0.827868 0.517974
0.601950 0.827868 0.517974
0.746023 0.827868 0.517974
0.863421 0.827868 0.517974
0.925759 0.810855 0.459171
0.008850 0.907925 0.517974
0.175253 0.907925 0.517974
0.324085 0.907925 0.517974
0.465417 0.907925 0.517974
0.601950 0.907925 0.517974
0.746023 0.907925 0.517974
0.863421 0.907925 0.517974
0.925759 0.907925 0.517974
0.008850 0.000000 0.648211
0.175253 0.000000 0.648211
0.324085 0.000000 0.648211
0.465417 0.000000 0.648211
0.601950 0.000000 0.648211
0.746023 0.000000 0.648211
0.863421 0.000000 0.648211
0.925759 0.000000 0.648211
0.008850 0.137126 0.648211
0.175253 0.137126 0.648211
0.324085 0.137126 0.648211
0.465417 0.137126 0.648211
0.601950 0.137126 0.648211
0.746023 0.137126 0.648211
0.863421 0.137126 0.648211
0.925759 0.137126 0.648211
0.008850 0.277869 0.648211
0.175253 0.277869 0.648211
0.324085 0.277869 0.648211
0.465417 0.277869 0.648211
0.601950 0.277869 0.648211
0.746023 0.277869 0.648211
0.863421 0.277869 0.648211
0.925759 0.277869 0.648211
0.008850 0.415285 0.648211
0.175253 0.415285 0.648211
0.324085 0.415285 0.648211
0.465417 0.415285 0.648211
0.601950 0.415285 0.648211
0.746023 0.415285 0.648211
0.863421 0.415285 0.648211
0.925759 0.415285 0.648211
0.008850 0.550553 0.648211
0.175253 0.550553 0.648211
0.324085 0.550553 0.648211
0.465417 0.550553 0.648211
0.601950 0.550553 0.648211
0.746023 0.550553 0.648211
0.863421 0.550553 0.648211
0.925759 0.550553 0.648211
0.008850 0.684234 0.648211
0.175253 0.684234 0.648211
0.324085 0.684234 0.648211
0.465417 0.684234 0.648211
0.601950 0.684234 0.648211
0.746023 0.684234 0.648211
0.863421 0.684234 0.648211
0.925759 0.684234 0.648211
0.008850 0.827868 0.648211
0.175253 0.827868 0.648211
0.324085 0.827868 0.648211
0.465417 0.827868 0.648211
0.601950 0.827868 0.648211
0.746023 0.827868 0.648211
0.863421 0.827868 0.648211
0.925759 0.810855 0.609198
0.008850 0.907925 0.648211
0.175253 0.907925 0.648211
0.324085 0.907925 0.648211
0.465417 0.907925 0.648211
0.601950 0.907925 0.648211
0.746023 0.907925 0.648211
0.863421 0.907925 0.648211
0.925759 0.907925 0.648211
0.008850 0.000000 0.793019
0.175253 0.000000 0.793019
0.324085 0.000000 0.793019
0.465417 0.000000 0.793019
0.601950 0.000000 0.793019
0.746023 0.000000 0.793019
0.863421 0.000000 0.793019
0.925759 0.000000 0.793019
0.008850 0.137126 0.793019
0.175253 0.137126 0.793019
0.324085 0.137126 0.793019
0.465417 0.137126 0.793019
0.601950 0.137126 0.793019
0.746023 0.137126 0.793019
0.863421 0.137126 0.793019
0.925759 0.137126 0.793019
0.008850 0.277869 0.793019
0.175253 0.277869 0.793019
0.324085 0.277869 0.793019
0.465417 0.277869 0.793019
0.601950 0.277869 0.793019
0.746023 0.277869 0.793019
0.863421 0.277869 0.793019
0.925759 0.277869 0.793019
0.008850 0.415285 0.793019
0.175253 0.415285 0.793019
0.324085 0.415285 0.793019
0.465417 0.415285 0.793019
0.601950 0.415285 0.793019
0.746023 0.415285 0.793019
0.863421 0.415285 0.793019
0.925759 0.415285 0.793019
0.008850 0.550553 0.793019
0.175253 0.550553 0.793019
0.324085 0.550553 0.793019
0.465417 0.550553 0.793019
0.601950 0.550553 0.793019
0.746023 0.550553 0.793019
0.863421 0.550553 0.793019
0.925759 0.550553 0.793019
0.008850 0.684234 0.793019
0.175253 0.684234 0.793019
0.324085 0.684234 0.793019
0.465417 0.684234 0.793019
0.601950 0.684234 0.793019
0.746023 0.684234 0.793019
0.863421 0.684234 0.793019
0.925759 0.684234 0.793019
0.008850 0.827868 0.793019
0.175253 0.827868 0.793019
0.324085 0.827868 0.793019
0.465417 0.827868 0.793019
0.601950 0.827868 0.793019
0.746023 0.827868 0.793019
0.863421 0.827868 0.793019
0.925759 0.827868 0.793019
0.008850 0.907925 0.793019
0.175253 0.907925 0.793019
0.324085 0.907925 0.793019
0.465417 0.907925 0.793019
0.601950 0.907925 0.793019
0.746023 0.907925 0.793019
0.863421 0.907925 0.793019
0.925759 0.907925 0.793019
0.008850 0.000000 0.888184
0.175253 0.000000 0.888184
0.324085 0.000000 0.888184
0.465417 0.000000 0.888184
0.601950 0.000000 0.888184
0.746023 0.000000 0.888184
0.863421 0.000000 0.888184
0.925759 0.000000 0.888184
0.008850 0.137126 0.888184
0.175253 0.137126 0.888184
0.324085 0.137126 0.888184
0.465417 0.137126 0.888184
0.601950 0.137126 0.888184
0.746023 0.137126 0.888184
0.863421 0.137126 0.888184
0.925759 0.137126 0.888184
0.008850 0.277869 0.888184
0.175253 0.277869 0.888184
0.324085 0.277869 0.888184
0.465417 0.277869 0.888184
0.601950 0.277869 0.888184
0.746023 0.277869 0.888184
0.863421 0.277869 0.888184
0.925759 0.277869 0.888184
0.008850 0.415285 0.888184
0.175253 0.415285 0.888184
0.324085 0.415285 0.888184
0.465417 0.415285 0.888184
0.601950 0.415285 0.888184
0.746023 0.415285 0.888184
0.863421 0.415285 0.888184
0.925759 0.415285 0.888184
0.008850 0.550553 0.888184
0.175253 0.550553 0.888184
0.324085 0.550553 0.888184
0.465417 0.550553 0.888184
0.601950 0.550553 0.888184
0.746023 0.550553 0.888184
0.863421 0.550553 0.888184
0.925759 0.550553 0.888184
0.008850 0.684234 0.888184
0.175253 0.684234 0.888184
0.324085 0.684234 0.888184
0.465417 0.684234 0.888184
0.601950 0.684234 0.888184
0.746023 0.684234 0.888184
0.863421 0.684234 0.888184
0.925759 0.684234 0.888184
0.008850 0.827868 0.888184
0.175253 0.827868 0.888184
0.324085 0.827868 0.888184
0.465417 0.827868 0.888184
0.601950 0.827868 0.888184
0.746023 0.827868 0.888184
0.863421 0.827868 0.888184
0.925759 0.827868 0.888184
0.008850 0.907925 0.888184
0.175253 0.907925 0.888184
0.324085 0.907925 0.888184
0.465417 0.907925 0.888184
0.601950 0.907925 0.888184
0.746023 0.907925 0.888184
0.863421 0.907925 0.888184
0.925759 0.907925 0.888184
