assets/luts/douyin_radiant.cube
# Beauty Camera 3D LUT
# Filter: Phát Sáng (douyin_radiant)
# Category: Douyin
TITLE "Phát Sáng"
LUT_3D_SIZE 8
DOMAIN_MIN 0.000000 0.000000 0.000000
DOMAIN_MAX 0.903226 0.903226 0.903226
0.017553 0.015949 0.014437
0.187876 0.013223 0.011712
0.347867 0.010664 0.009152
0.509850 0.008072 0.006560
0.667545 0.005549 0.004037
0.821872 0.003278 0.001766
0.903190 0.001229 0.000000
0.944167 0.000000 0.000000
0.008812 0.172184 0.005697
0.179136 0.169459 0.002972
0.339127 0.166899 0.000412
0.501110 0.164307 0.000000
0.658805 0.161784 0.000000
0.814302 0.159514 0.000000
0.899075 0.157465 0.000000
0.941795 0.155615 0.000000
0.000476 0.321199 0.000000
0.170800 0.318474 0.000000
0.330790 0.315914 0.000000
0.492773 0.313323 0.000000
0.650469 0.310799 0.000000
0.806782 0.308529 0.000000
0.894989 0.306480 0.000000
0.939438 0.304631 0.000000
0.000000 0.473043 0.000000
0.162306 0.470318 0.000000
0.322296 0.467758 0.000000
0.484279 0.465166 0.000000
0.641975 0.462643 0.000000
0.798807 0.460372 0.000000
0.890654 0.458323 0.000000
0.936938 0.456474 0.000000
0.000000 0.623629 0.000000
0.153882 0.620904 0.000000
0.313872 0.618344 0.000000
0.475855 0.615752 0.000000
0.633551 0.613229 0.000000
0.790572 0.610958 0.000000
0.886178 0.608909 0.000000
0.934357 0.607060 0.000000
0.000000 0.774874 0.000000
0.146236 0.771934 0.000000
0.306227 0.769137 0.000000
0.468210 0.766270 0.000000
0.625906 0.763444 0.000000
0.782807 0.760873 0.000000
0.881958 0.758528 0.000000
0.931923 0.756392 0.000000
0.000000 0.875177 0.000000
0.139308 0.873547 0.000000
0.299298 0.871996 0.000000
0.461281 0.870406 0.000000
0.618977 0.868840 0.000000
0.775522 0.867414 0.000000
0.877999 0.866114 0.000000
0.929639 0.864930 0.000000
0.000000 0.926854 0.000000
0.133030 0.925898 0.000000
0.293020 0.924989 0.000000
0.455003 0.924058 0.000000
0.612699 0.923140 0.000000
0.768709 0.922304 0.000000
0.874296 0.921543 0.000000
0.927504 0.920849 0.000000
0.016713 0.015109 0.170658
0.187036 0.012383 0.167932
0.347027 0.009824 0.165373
0.509010 0.007232 0.162781
0.666705 0.004709 0.160258
0.821158 0.002438 0.157987
0.902802 0.000389 0.155938
0.943944 0.000000 0.154089
0.007973 0.171344 0.161918
0.178296 0.168619 0.159192
0.338287 0.166059 0.156633
0.500270 0.163467 0.154041
0.657965 0.160944 0.151518
0.813558 0.158674 0.149247
0.898671 0.156625 0.147198
0.941561 0.154775 0.145349
0.000000 0.320359 0.153581
0.169960 0.317634 0.150856
0.329950 0.315074 0.148296
0.491933 0.312483 0.145705
0.649629 0.309959 0.143181
0.806008 0.307689 0.140911
0.894568 0.305640 0.138862
0.939195 0.303791 0.137013
0.000000 0.472203 0.145087
0.161466 0.469478 0.142362
0.321456 0.466918 0.139802
0.483439 0.464326 0.137210
0.641135 0.461803 0.134687
0.798000 0.459532 0.132416
0.890216 0.457483 0.130368
0.936685 0.455634 0.128518
0.000000 0.622789 0.136663
0.153042 0.620064 0.133938
0.313032 0.617504 0.131378
0.475015 0.614912 0.128786
0.632711 0.612389 0.126263
0.789732 0.610118 0.123992
0.885722 0.608069 0.121944
0.934093 0.606220 0.120094
0.000000 0.773972 0.129018
0.145396 0.771020 0.126293
0.305387 0.768211 0.123733
0.467370 0.765333 0.121141
0.625066 0.762496 0.118618
0.781936 0.759914 0.116347
0.881485 0.757560 0.114298
0.931650 0.755416 0.112449
0.000000 0.874677 0.122089
0.138468 0.873040 0.119364
0.298458 0.871483 0.116804
0.460441 0.869887 0.114213
0.618137 0.868314 0.111689
0.774622 0.866883 0.109419
0.877510 0.865577 0.107370
0.929357 0.864388 0.105521
0.000000 0.926560 0.115811
0.132190 0.925601 0.113086
0.292180 0.924689 0.110526
0.454163 0.923753 0.107934
0.611859 0.922832 0.105411
0.767782 0.921993 0.103140
0.873792 0.921228 0.101092
0.927213 0.920531 0.099242
0.015899 0.014295 0.322032
0.186222 0.011569 0.319307
0.346213 0.009010 0.316747
0.508196 0.006418 0.314155
0.665891 0.003895 0.311632
0.820464 0.001624 0.309361
0.902424 0.000000 0.307312
0.943726 0.000000 0.305463
0.007159 0.170530 0.313292
0.177482 0.167805 0.310567
0.337473 0.165245 0.308007
0.499456 0.162654 0.305415
0.657151 0.160130 0.302892
0.812834 0.157860 0.300621
0.898277 0.155811 0.298572
0.941334 0.153961 0.296723
0.000000 0.319546 0.304956
0.169146 0.316820 0.302230
0.329137 0.314260 0.299671
0.491119 0.311669 0.297079
0.648815 0.309146 0.294556
0.805255 0.306875 0.292285
0.894158 0.304826 0.290236
0.938959 0.302977 0.288387
0.000000 0.471389 0.296461
0.160652 0.468664 0.293736
0.320642 0.466104 0.291176
0.482625 0.463512 0.288584
0.640321 0.460989 0.286061
0.797216 0.458718 0.283791
0.889789 0.456669 0.281742
0.936439 0.454820 0.279892
0.000000 0.621975 0.288037
0.152228 0.619250 0.285312
0.312218 0.616690 0.282752
0.474201 0.614098 0.280160
0.631897 0.611575 0.277637
0.788916 0.609304 0.275367
0.885278 0.607255 0.273318
0.933838 0.605406 0.271468
0.000000 0.773094 0.280392
0.144583 0.770130 0.277667
0.304573 0.767311 0.275107
0.466556 0.764422 0.272515
0.624252 0.761574 0.269992
0.781089 0.758982 0.267721
0.881025 0.756619 0.265672
0.931384 0.754466 0.263823
0.000000 0.874190 0.273464
0.137654 0.872547 0.270738
0.297644 0.870984 0.268179
0.459627 0.869382 0.265587
0.617323 0.867803 0.263064
0.773747 0.866366 0.260793
0.877034 0.865055 0.258744
0.929083 0.863862 0.256895
0.000000 0.926275 0.267185
0.131376 0.925312 0.264460
0.291366 0.924396 0.261900
0.453349 0.923457 0.259308
0.611045 0.922532 0.256785
0.766880 0.921690 0.254514
0.873302 0.920922 0.252466
0.926931 0.920223 0.250616
0.015064 0.013460 0.477307
0.185387 0.010735 0.474582
0.345378 0.008175 0.472022
0.507361 0.005583 0.469430
0.665057 0.003060 0.466907
0.819748 0.000789 0.464636
0.902035 0.000000 0.462588
0.943502 0.000000 0.460738
0.006324 0.169695 0.468567
0.176647 0.166970 0.465842
0.336638 0.164410 0.463282
0.498621 0.161819 0.460690
0.656317 0.159295 0.458167
0.812088 0.157025 0.455896
0.897872 0.154976 0.453848
0.941101 0.153127 0.451998
0.000000 0.318711 0.460231
0.168311 0.315985 0.457506
0.328302 0.313426 0.454946
0.490285 0.310834 0.452354
0.647980 0.308311 0.449831
0.804479 0.306040 0.447560
0.893737 0.303991 0.445511
0.938716 0.302142 0.443662
0.000000 0.470554 0.451737
0.159817 0.467829 0.449011
0.319807 0.465269 0.446452
0.481790 0.462677 0.443860
0.639486 0.460154 0.441337
0.796408 0.457883 0.439066
0.889350 0.455834 0.437017
0.936186 0.453985 0.435168
0.000000 0.621140 0.443313
0.151393 0.618415 0.440587
0.311383 0.615855 0.438028
0.473366 0.613263 0.435436
0.631062 0.610740 0.432913
0.788075 0.608469 0.430642
0.884821 0.606420 0.428593
0.933574 0.604571 0.426744
0.000000 0.772190 0.435667
0.143748 0.769215 0.432942
0.303738 0.766384 0.430382
0.465721 0.763483 0.427790
0.623417 0.760624 0.425267
0.780217 0.758022 0.422996
0.880551 0.755649 0.420948
0.931111 0.753488 0.419098
0.000000 0.873689 0.428739
0.136819 0.872039 0.426014
0.296810 0.870470 0.423454
0.458793 0.868861 0.420862
0.616488 0.867276 0.418339
0.772845 0.865833 0.416068
0.876544 0.864518 0.414019
0.928800 0.863319 0.412170
0.000000 0.925981 0.422461
0.130541 0.925015 0.419735
0.290531 0.924095 0.417175
0.452514 0.923152 0.414584
0.610210 0.922224 0.412061
0.765952 0.921378 0.409790
0.872797 0.920607 0.407741
0.926640 0.919905 0.405892
0.014222 0.012618 0.633867
0.184546 0.009893 0.631141
0.344536 0.007333 0.628582
0.506519 0.004741 0.625990
0.664215 0.002218 0.623467
0.819024 0.000000 0.621196
0.901642 0.000000 0.619147
0.943275 0.000000 0.617298
0.005482 0.168854 0.625127
0.175806 0.166128 0.622401
0.335796 0.163569 0.619842
0.497779 0.160977 0.617250
0.655475 0.158454 0.614727
0.811333 0.156183 0.612456
0.897462 0.154134 0.610407
0.940864 0.152285 0.608558
0.000000 0.317869 0.616791
0.167470 0.315144 0.614065
0.327460 0.312584 0.611505
0.489443 0.309992 0.608914
0.647139 0.307469 0.606391
0.803693 0.305198 0.604120
0.893310 0.303149 0.602071
0.938469 0.301300 0.600222
0.000000 0.469712 0.608296
0.158975 0.466987 0.605571
0.318966 0.464427 0.603011
0.480948 0.461835 0.600419
0.638644 0.459312 0.597896
0.795590 0.457041 0.595625
0.888906 0.454993 0.593577
0.935930 0.453143 0.591727
0.000000 0.620298 0.599872
0.150551 0.617573 0.597147
0.310542 0.615013 0.594587
0.472524 0.612421 0.591995
0.630220 0.609898 0.589472
0.787224 0.607627 0.587201
0.884359 0.605579 0.585153
0.933307 0.603729 0.583303
0.000000 0.771275 0.592227
0.142906 0.768288 0.589502
0.302896 0.765446 0.586942
0.464879 0.762533 0.584350
0.622575 0.759663 0.581827
0.779335 0.757050 0.579556
0.880071 0.754668 0.577507
0.930834 0.752498 0.575658
0.000000 0.873182 0.585298
0.135977 0.871525 0.582573
0.295968 0.869950 0.580013
0.457951 0.868335 0.577422
0.615647 0.866743 0.574898
0.771933 0.865294 0.572628
0.876048 0.863974 0.570579
0.928514 0.862770 0.568730
0.000000 0.925684 0.579020
0.129699 0.924713 0.576295
0.289689 0.923790 0.573735
0.451672 0.922844 0.571143
0.609368 0.921911 0.568620
0.765011 0.921062 0.566349
0.872287 0.920288 0.564301
0.926345 0.919583 0.562451
0.013450 0.011846 0.792539
0.183774 0.009121 0.789829
0.343764 0.006561 0.787252
0.505747 0.003969 0.784610
0.663443 0.001446 0.782006
0.818358 0.000000 0.779636
0.901280 0.000000 0.777476
0.943066 0.000000 0.775508
0.004710 0.168082 0.783723
0.175034 0.165356 0.780898
0.335024 0.162797 0.778210
0.497007 0.160205 0.775456
0.654703 0.157682 0.772742
0.810638 0.155411 0.770271
0.897084 0.153362 0.768019
0.940646 0.151513 0.765967
0.000000 0.317097 0.774965
0.166697 0.314372 0.772025
0.326688 0.311812 0.769229
0.488671 0.309220 0.766363
0.646367 0.306697 0.763539
0.802970 0.304426 0.760969
0.892917 0.302377 0.758625
0.938243 0.300528 0.756490
0.000000 0.468940 0.765675
0.158203 0.466215 0.762615
0.318193 0.463655 0.759703
0.480176 0.461063 0.756719
0.637872 0.458540 0.753779
0.794837 0.456269 0.751102
0.888497 0.454221 0.748662
0.935694 0.452371 0.746438
0.000000 0.619526 0.756085
0.149779 0.616801 0.752899
0.309769 0.614241 0.749868
0.471752 0.611649 0.746762
0.629448 0.609126 0.743701
0.786440 0.606855 0.740914
0.883933 0.604807 0.738374
0.933062 0.602957 0.736060
0.000000 0.770433 0.747041
0.142134 0.767434 0.743737
0.302124 0.764582 0.740594
0.464107 0.761658 0.737373
0.621803 0.758777 0.734198
0.778522 0.756155 0.731308
0.879629 0.753764 0.728674
0.930580 0.751586 0.726274
0.000000 0.872715 0.738556
0.135205 0.871052 0.735141
0.295196 0.869471 0.731893
0.457179 0.867850 0.728563
0.614874 0.866252 0.725282
0.771093 0.864798 0.722296
0.875592 0.863473 0.719573
0.928251 0.862265 0.717093
0.000000 0.925410 0.730622
0.128927 0.924436 0.727103
0.288917 0.923509 0.723756
0.450900 0.922560 0.720326
0.608596 0.921624 0.716945
0.764146 0.920771 0.713868
0.871816 0.919995 0.711063
0.926074 0.919287 0.708507
0.012747 0.011143 0.888669
0.183071 0.008418 0.887215
0.343061 0.005858 0.885832
0.505044 0.003266 0.884414
0.662740 0.000743 0.883017
0.817749 0.000000 0.881745
0.900949 0.000000 0.880586
0.942875 0.000000 0.879530
0.004007 0.167379 0.883938
0.174331 0.164654 0.882422
0.334321 0.162094 0.880980
0.496304 0.159502 0.879502
0.654000 0.156979 0.878045
0.810004 0.154708 0.876720
0.896739 0.152659 0.875511
0.940447 0.150810 0.874410
0.000000 0.316394 0.879238
0.165995 0.313669 0.877661
0.325985 0.311109 0.876160
0.487968 0.308517 0.874623
0.645664 0.305994 0.873107
0.802310 0.303723 0.871727
0.892558 0.301674 0.870470
0.938036 0.299825 0.869324
0.000000 0.468237 0.874253
0.157500 0.465512 0.872611
0.317491 0.462952 0.871048
0.479474 0.460360 0.869447
0.637169 0.457837 0.867869
0.794149 0.455566 0.866433
0.888123 0.453518 0.865123
0.935478 0.451668 0.863930
0.000000 0.618823 0.869107
0.149076 0.616098 0.867397
0.309067 0.613538 0.865771
0.471050 0.610946 0.864104
0.628745 0.608423 0.862461
0.785724 0.606153 0.860966
0.883544 0.604104 0.859603
0.932837 0.602254 0.858361
0.000000 0.769663 0.864253
0.141431 0.766655 0.862480
0.301421 0.763793 0.860794
0.463404 0.760859 0.859065
0.621100 0.757969 0.857361
0.777779 0.755337 0.855811
0.879226 0.752939 0.854397
0.930347 0.750754 0.853109
0.000000 0.872288 0.859700
0.134503 0.870620 0.857867
0.294493 0.869033 0.856124
0.456476 0.867407 0.854338
0.614172 0.865804 0.852577
0.770325 0.864345 0.850974
0.875175 0.863015 0.849513
0.928011 0.861803 0.848182
0.000000 0.925160 0.855442
0.128224 0.924183 0.853554
0.288215 0.923253 0.851758
0.450198 0.922300 0.849917
0.607893 0.921361 0.848103
0.763355 0.920506 0.846452
0.871386 0.919726 0.844946
0.925826 0.919016 0.843575
0.012108 0.010504 0.936805
0.182431 0.007778 0.935979
0.342422 0.005219 0.935194
0.504405 0.002627 0.934389
0.662100 0.000104 0.933596
0.817193 0.000000 0.932874
0.900647 0.000000 0.932216
0.942701 0.000000 0.931617
0.003368 0.166739 0.934119
0.173691 0.164014 0.933258
0.333682 0.161454 0.932440
0.495665 0.158863 0.931601
0.653360 0.156339 0.930774
0.809424 0.154069 0.930022
0.896424 0.152020 0.929336
0.940266 0.150170 0.928710
0.000000 0.315755 0.931451
0.165355 0.313029 0.930556
0.325346 0.310469 0.929704
0.487328 0.307878 0.928831
0.645024 0.305355 0.927971
0.801707 0.303084 0.927188
0.892230 0.301035 0.926474
0.937847 0.299186 0.925824
0.000000 0.467598 0.928622
0.156861 0.464873 0.927689
0.316851 0.462313 0.926802
0.478834 0.459721 0.925893
0.636530 0.457198 0.924998
0.793522 0.454927 0.924182
0.887782 0.452878 0.923439
0.935281 0.451029 0.922762
0.000000 0.618184 0.925700
0.148437 0.615459 0.924730
0.308427 0.612899 0.923806
0.470410 0.610307 0.922860
0.628106 0.607784 0.921928
0.785071 0.605513 0.921079
0.883189 0.603464 0.920305
0.932632 0.601615 0.919600
0.000000 0.768961 0.922945
0.140792 0.765943 0.921939
0.300782 0.763072 0.920981
0.462765 0.760130 0.920000
0.620461 0.757231 0.919033
0.777102 0.754591 0.918153
0.878857 0.752185 0.917351
0.930134 0.749993 0.916619
0.000000 0.871898 0.920361
0.133863 0.870225 0.919320
0.293853 0.868634 0.918331
0.455836 0.867002 0.917317
0.613532 0.865395 0.916317
0.769625 0.863931 0.915408
0.874794 0.862597 0.914578
0.927791 0.861382 0.913823
0.000000 0.924932 0.917944
0.127585 0.923952 0.916872
0.287575 0.923019 0.915852
0.449558 0.922063 0.914807
0.607254 0.921121 0.913778
0.762634 0.920263 0.912840
0.870994 0.919482 0.911986
0.925600 0.918769 0.911207
