assets/luts/douyin_dreamy.cube
# Beauty Camera 3D LUT
# Filter: Mộng Ảo (douyin_dreamy)
# Category: Douyin
TITLE "Mộng Ảo"
LUT_3D_SIZE 8
DOMAIN_MIN 0.000000 0.000000 0.000000
DOMAIN_MAX 0.903226 0.903226 0.903226
0.096143 0.066641 0.108443
0.221130 0.068909 0.110712
0.334522 0.070968 0.112770
0.442096 0.072920 0.114723
0.545802 0.074803 0.116605
0.646633 0.076633 0.118435
0.745186 0.078422 0.120224
0.841860 0.080176 0.121979
0.103481 0.191975 0.115781
0.228468 0.194243 0.118050
0.341861 0.196302 0.120108
0.449434 0.198254 0.122061
0.553140 0.200137 0.123943
0.653971 0.201967 0.125773
0.752524 0.203756 0.127562
0.849199 0.205510 0.129317
0.110327 0.308903 0.122627
0.235315 0.311172 0.124896
0.348707 0.313230 0.126954
0.456280 0.315183 0.128907
0.559986 0.317065 0.130789
0.660817 0.318895 0.132620
0.759371 0.320684 0.134408
0.856045 0.322439 0.136163
0.116943 0.421887 0.129243
0.241930 0.424156 0.131511
0.355322 0.426214 0.133570
0.462895 0.428167 0.135522
0.566602 0.430049 0.137405
0.667433 0.431879 0.139235
0.765986 0.433668 0.141024
0.862660 0.435423 0.142778
0.123406 0.532274 0.135706
0.248393 0.534542 0.137974
0.361785 0.536600 0.140033
0.469358 0.538553 0.141985
0.573065 0.540435 0.143868
0.673896 0.542266 0.145698
0.772449 0.544055 0.147487
0.869123 0.545809 0.149242
0.129756 0.640730 0.142056
0.254743 0.642998 0.144325
0.368135 0.645056 0.146383
0.475708 0.647009 0.148335
0.579415 0.648891 0.150218
0.680246 0.650722 0.152048
0.778799 0.652511 0.153837
0.875473 0.654265 0.155592
0.136016 0.747653 0.148316
0.261003 0.749922 0.150585
0.374396 0.751980 0.152643
0.481969 0.753933 0.154596
0.585675 0.755815 0.156478
0.686506 0.757646 0.158308
0.785059 0.759434 0.160097
0.881734 0.761189 0.161852
0.142202 0.853310 0.154502
0.267190 0.855579 0.156771
0.380582 0.857637 0.158829
0.488155 0.859589 0.160782
0.591861 0.861472 0.162664
0.692692 0.863302 0.164495
0.791246 0.865091 0.166284
0.887920 0.866846 0.168038
0.096912 0.067410 0.231671
0.221899 0.069678 0.233939
0.335291 0.071736 0.235998
0.442864 0.073689 0.237950
0.546571 0.075571 0.239833
0.647402 0.077402 0.241663
0.745955 0.079191 0.243452
0.842629 0.080945 0.245207
0.104250 0.192743 0.239009
0.229237 0.195012 0.241278
0.342630 0.197070 0.243336
0.450203 0.199023 0.245289
0.553909 0.200905 0.247171
0.654740 0.202736 0.249001
0.753293 0.204524 0.250790
0.849968 0.206279 0.252545
0.111096 0.309672 0.245855
0.236083 0.311941 0.248124
0.349476 0.313999 0.250182
0.457049 0.315952 0.252135
0.560755 0.317834 0.254017
0.661586 0.319664 0.255847
0.760139 0.321453 0.257636
0.856814 0.323208 0.259391
0.117712 0.422656 0.252470
0.242699 0.424925 0.254739
0.356091 0.426983 0.256797
0.463664 0.428935 0.258750
0.567370 0.430818 0.260632
0.668201 0.432648 0.262463
0.766755 0.434437 0.264251
0.863429 0.436192 0.266006
0.124175 0.533042 0.258934
0.249162 0.535311 0.261202
0.362554 0.537369 0.263260
0.470127 0.539322 0.265213
0.573834 0.541204 0.267095
0.674665 0.543035 0.268926
0.773218 0.544823 0.270715
0.869892 0.546578 0.272469
0.130525 0.641498 0.265284
0.255512 0.643767 0.267552
0.368904 0.645825 0.269611
0.476477 0.647778 0.271563
0.580184 0.649660 0.273446
0.681015 0.651491 0.275276
0.779568 0.653279 0.277065
0.876242 0.655034 0.278819
0.136785 0.748422 0.271544
0.261772 0.750691 0.273813
0.375165 0.752749 0.275871
0.482738 0.754702 0.277824
0.586444 0.756584 0.279706
0.687275 0.758414 0.281536
0.785828 0.760203 0.283325
0.882503 0.761958 0.285080
0.142971 0.854079 0.277730
0.267958 0.856347 0.279999
0.381351 0.858406 0.282057
0.488924 0.860358 0.284010
0.592630 0.862241 0.285892
0.693461 0.864071 0.287722
0.792014 0.865860 0.289511
0.888689 0.867614 0.291266
0.097614 0.068112 0.344256
0.222601 0.070381 0.346525
0.335994 0.072439 0.348583
0.443567 0.074391 0.350535
0.547273 0.076274 0.352418
0.648104 0.078104 0.354248
0.746657 0.079893 0.356037
0.843332 0.081648 0.357792
0.104953 0.193446 0.351594
0.229940 0.195715 0.353863
0.343332 0.197773 0.355921
0.450905 0.199725 0.357874
0.554612 0.201608 0.359756
0.655442 0.203438 0.361586
0.753996 0.205227 0.363375
0.850670 0.206982 0.365130
0.111799 0.310374 0.358440
0.236786 0.312643 0.360709
0.350178 0.314701 0.362767
0.457751 0.316654 0.364720
0.561458 0.318536 0.366602
0.662289 0.320367 0.368433
0.760842 0.322155 0.370221
0.857516 0.323910 0.371976
0.118414 0.423358 0.365056
0.243401 0.425627 0.367324
0.356793 0.427685 0.369383
0.464366 0.429638 0.371335
0.568073 0.431520 0.373218
0.668904 0.433350 0.375048
0.767457 0.435139 0.376837
0.864131 0.436894 0.378591
0.124877 0.533745 0.371519
0.249864 0.536013 0.373787
0.363256 0.538072 0.375846
0.470830 0.540024 0.377798
0.574536 0.541907 0.379681
0.675367 0.543737 0.381511
0.773920 0.545526 0.383300
0.870594 0.547281 0.385055
0.131227 0.642201 0.377869
0.256214 0.644469 0.380138
0.369607 0.646528 0.382196
0.477180 0.648480 0.384148
0.580886 0.650363 0.386031
0.681717 0.652193 0.387861
0.780270 0.653982 0.389650
0.876945 0.655737 0.391405
0.137488 0.749125 0.384129
0.262475 0.751393 0.386398
0.375867 0.753452 0.388456
0.483440 0.755404 0.390409
0.587147 0.757287 0.392291
0.687977 0.759117 0.394121
0.786531 0.760906 0.395910
0.883205 0.762660 0.397665
0.143674 0.854781 0.390315
0.268661 0.857050 0.392584
0.382053 0.859108 0.394642
0.489626 0.861061 0.396595
0.593333 0.862943 0.398477
0.694164 0.864773 0.400308
0.792717 0.866562 0.402096
0.889391 0.868317 0.403851
0.098282 0.068780 0.451272
0.223269 0.071048 0.453541
0.336661 0.073107 0.455599
0.444234 0.075059 0.457552
0.547941 0.076942 0.459434
0.648772 0.078772 0.461264
0.747325 0.080561 0.463053
0.843999 0.082315 0.464808
0.105620 0.194114 0.458610
0.230607 0.196382 0.460879
0.344000 0.198440 0.462937
0.451573 0.200393 0.464890
0.555279 0.202275 0.466772
0.656110 0.204106 0.468603
0.754663 0.205895 0.470391
0.851338 0.207649 0.472146
0.112466 0.311042 0.465457
0.237454 0.313311 0.467725
0.350846 0.315369 0.469783
0.458419 0.317322 0.471736
0.562125 0.319204 0.473619
0.662956 0.321034 0.475449
0.761509 0.322823 0.477238
0.858184 0.324578 0.478992
0.119082 0.424026 0.472072
0.244069 0.426295 0.474340
0.357461 0.428353 0.476399
0.465034 0.430305 0.478351
0.568741 0.432188 0.480234
0.669571 0.434018 0.482064
0.768125 0.435807 0.483853
0.864799 0.437562 0.485608
0.125545 0.534412 0.478535
0.250532 0.536681 0.480804
0.363924 0.538739 0.482862
0.471497 0.540692 0.484814
0.575204 0.542574 0.486697
0.676035 0.544405 0.488527
0.774588 0.546194 0.490316
0.871262 0.547948 0.492071
0.131895 0.642868 0.484885
0.256882 0.645137 0.487154
0.370274 0.647195 0.489212
0.477847 0.649148 0.491165
0.581554 0.651030 0.493047
0.682385 0.652861 0.494877
0.780938 0.654650 0.496666
0.877612 0.656404 0.498421
0.138155 0.749792 0.491145
0.263142 0.752061 0.493414
0.376535 0.754119 0.495472
0.484108 0.756072 0.497425
0.587814 0.757954 0.499307
0.688645 0.759785 0.501138
0.787198 0.761573 0.502926
0.883873 0.763328 0.504681
0.144341 0.855449 0.497332
0.269329 0.857717 0.499600
0.382721 0.859776 0.501659
0.490294 0.861728 0.503611
0.594000 0.863611 0.505494
0.694831 0.865441 0.507324
0.793384 0.867230 0.509113
0.890059 0.868985 0.510867
0.098926 0.069424 0.554538
0.223913 0.071693 0.556807
0.337306 0.073751 0.558865
0.444879 0.075703 0.560818
0.548585 0.077586 0.562700
0.649416 0.079416 0.564531
0.747969 0.081205 0.566319
0.844644 0.082960 0.568074
0.106265 0.194758 0.561877
0.231252 0.197027 0.564145
0.344644 0.199085 0.566204
0.452217 0.201037 0.568156
0.555924 0.202920 0.570039
0.656754 0.204750 0.571869
0.755308 0.206539 0.573658
0.851982 0.208294 0.575413
0.113111 0.311686 0.568723
0.238098 0.313955 0.570992
0.351490 0.316013 0.573050
0.459063 0.317966 0.575002
0.562770 0.319848 0.576885
0.663601 0.321679 0.578715
0.762154 0.323467 0.580504
0.858828 0.325222 0.582259
0.119726 0.424670 0.575338
0.244713 0.426939 0.577607
0.358105 0.428997 0.579665
0.465678 0.430950 0.581618
0.569385 0.432832 0.583500
0.670216 0.434662 0.585330
0.768769 0.436451 0.587119
0.865443 0.438206 0.588874
0.126189 0.535057 0.581801
0.251176 0.537325 0.584070
0.364568 0.539384 0.586128
0.472142 0.541336 0.588081
0.575848 0.543219 0.589963
0.676679 0.545049 0.591793
0.775232 0.546838 0.593582
0.871906 0.548593 0.595337
0.132539 0.643513 0.588151
0.257526 0.645781 0.590420
0.370919 0.647840 0.592478
0.478492 0.649792 0.594431
0.582198 0.651675 0.596313
0.683029 0.653505 0.598144
0.781582 0.655294 0.599932
0.878257 0.657049 0.601687
0.138800 0.750437 0.594412
0.263787 0.752705 0.596680
0.377179 0.754764 0.598739
0.484752 0.756716 0.600691
0.588459 0.758599 0.602574
0.689289 0.760429 0.604404
0.787843 0.762218 0.606193
0.884517 0.763972 0.607948
0.144986 0.856093 0.600598
0.269973 0.858362 0.602867
0.383365 0.860420 0.604925
0.490938 0.862373 0.606877
0.594645 0.864255 0.608760
0.695476 0.866085 0.610590
0.794029 0.867874 0.612379
0.890703 0.869629 0.614134
0.099553 0.070051 0.654997
0.224540 0.072319 0.657266
0.337932 0.074378 0.659324
0.445506 0.076330 0.661276
0.549212 0.078213 0.663159
0.650043 0.080043 0.664989
0.748596 0.081832 0.666778
0.845270 0.083586 0.668533
0.106891 0.195385 0.662335
0.231878 0.197653 0.664604
0.345271 0.199712 0.666662
0.452844 0.201664 0.668615
0.556550 0.203547 0.670497
0.657381 0.205377 0.672327
0.755934 0.207166 0.674116
0.852609 0.208920 0.675871
0.113737 0.312313 0.669181
0.238725 0.314582 0.671450
0.352117 0.316640 0.673508
0.459690 0.318593 0.675461
0.563396 0.320475 0.677343
0.664227 0.322305 0.679174
0.762781 0.324094 0.680962
0.859455 0.325849 0.682717
0.120353 0.425297 0.675797
0.245340 0.427566 0.678065
0.358732 0.429624 0.680123
0.466305 0.431577 0.682076
0.570012 0.433459 0.683959
0.670843 0.435289 0.685789
0.769396 0.437078 0.687578
0.866070 0.438833 0.689332
0.126816 0.535684 0.682260
0.251803 0.537952 0.684528
0.365195 0.540010 0.686587
0.472768 0.541963 0.688539
0.576475 0.543845 0.690422
0.677306 0.545676 0.692252
0.775859 0.547465 0.694041
0.872533 0.549219 0.695796
0.133166 0.644140 0.688610
0.258153 0.646408 0.690878
0.371545 0.648466 0.692937
0.479118 0.650419 0.694889
0.582825 0.652301 0.696772
0.683656 0.654132 0.698602
0.782209 0.655921 0.700391
0.878883 0.657675 0.702146
0.139426 0.751063 0.694870
0.264413 0.753332 0.697139
0.377806 0.755390 0.699197
0.485379 0.757343 0.701150
0.589085 0.759225 0.703032
0.689916 0.761056 0.704862
0.788469 0.762844 0.706651
0.885144 0.764599 0.708406
0.145612 0.856720 0.701056
0.270600 0.858989 0.703325
0.383992 0.861047 0.705383
0.491565 0.862999 0.707336
0.595271 0.864882 0.709218
0.696102 0.866712 0.711049
0.794656 0.868501 0.712837
0.891330 0.870256 0.714592
0.100166 0.070664 0.753222
0.225153 0.072932 0.755491
0.338545 0.074990 0.757549
0.446118 0.076943 0.759501
0.549825 0.078825 0.761384
0.650656 0.080656 0.763214
0.749209 0.082445 0.765003
0.845883 0.084199 0.766758
0.107504 0.195997 0.760560
0.232491 0.198266 0.762829
0.345884 0.200324 0.764887
0.453457 0.202277 0.766840
0.557163 0.204159 0.768722
0.657994 0.205990 0.770552
0.756547 0.207778 0.772341
0.853222 0.209533 0.774096
0.114350 0.312926 0.767406
0.239337 0.315195 0.769675
0.352730 0.317253 0.771733
0.460303 0.319206 0.773686
0.564009 0.321088 0.775568
0.664840 0.322918 0.777399
0.763393 0.324707 0.779187
0.860068 0.326462 0.780942
0.120966 0.425910 0.774022
0.245953 0.428179 0.776290
0.359345 0.430237 0.778349
0.466918 0.432189 0.780301
0.570624 0.434072 0.782184
0.671455 0.435902 0.784014
0.770009 0.437691 0.785803
0.866683 0.439446 0.787557
0.127429 0.536296 0.780485
0.252416 0.538565 0.782753
0.365808 0.540623 0.784812
0.473381 0.542576 0.786764
0.577088 0.544458 0.788647
0.677919 0.546289 0.790477
0.776472 0.548077 0.792266
0.873146 0.549832 0.794021
0.133779 0.644752 0.786835
0.258766 0.647021 0.789104
0.372158 0.649079 0.791162
0.479731 0.651032 0.793114
0.583438 0.652914 0.794997
0.684269 0.654745 0.796827
0.782822 0.656533 0.798616
0.879496 0.658288 0.800371
0.140039 0.751676 0.793095
0.265026 0.753945 0.795364
0.378419 0.756003 0.797422
0.485992 0.757956 0.799375
0.589698 0.759838 0.801257
0.690529 0.761668 0.803087
0.789082 0.763457 0.804876
0.885757 0.765212 0.806631
0.146225 0.857333 0.799281
0.271212 0.859601 0.801550
0.384605 0.861660 0.803608
0.492178 0.863612 0.805561
0.595884 0.865495 0.807443
0.696715 0.867325 0.809274
0.795268 0.869114 0.811062
0.891943 0.870868 0.812817
0.100767 0.071265 0.849599
0.225754 0.073534 0.851868
0.339147 0.075592 0.853926
0.446720 0.077544 0.855879
0.550426 0.079427 0.857761
0.651257 0.081257 0.859592
0.749810 0.083046 0.861380
0.846485 0.084801 0.863135
0.108105 0.196599 0.856938
0.233093 0.198867 0.859206
0.346485 0.200926 0.861265
0.454058 0.202878 0.863217
0.557764 0.204761 0.865100
0.658595 0.206591 0.866930
0.757149 0.208380 0.868719
0.853823 0.210135 0.870474
0.114952 0.313527 0.863784
0.239939 0.315796 0.866053
0.353331 0.317854 0.868111
0.460904 0.319807 0.870063
0.564611 0.321689 0.871946
0.665441 0.323519 0.873776
0.763995 0.325308 0.875565
0.860669 0.327063 0.877320
0.121567 0.426511 0.870399
0.246554 0.428780 0.872668
0.359946 0.430838 0.874726
0.467519 0.432791 0.876679
0.571226 0.434673 0.878561
0.672057 0.436503 0.880391
0.770610 0.438292 0.882180
0.867284 0.440047 0.883935
0.128030 0.536898 0.876862
0.253017 0.539166 0.879131
0.366409 0.541225 0.881189
0.473982 0.543177 0.883142
0.577689 0.545060 0.885024
0.678520 0.546890 0.886854
0.777073 0.548679 0.888643
0.873747 0.550433 0.890398
0.134380 0.645354 0.883212
0.259367 0.647622 0.885481
0.372759 0.649681 0.887539
0.480333 0.651633 0.889492
0.584039 0.653516 0.891374
0.684870 0.655346 0.893204
0.783423 0.657135 0.894993
0.880097 0.658889 0.896748
0.140640 0.752278 0.889473
0.265628 0.754546 0.891741
0.379020 0.756604 0.893800
0.486593 0.758557 0.895752
0.590299 0.760439 0.897635
0.691130 0.762270 0.899465
0.789683 0.764059 0.901254
0.886358 0.765813 0.903009
0.146827 0.857934 0.895659
0.271814 0.860203 0.897928
0.385206 0.862261 0.899986
0.492779 0.864213 0.901938
0.596486 0.866096 0.903821
0.697316 0.867926 0.905651
0.795870 0.869715 0.907440
0.892544 0.871470 0.909195
