assets/luts/douyin_dreamy.cube
# Beauty Camera 3D LUT
# Filter: Mộng Ảo (douyin_dreamy)
# Category: Douyin
TITLE "Mộng Ảo"
LUT_3D_SIZE 32
DOMAIN_MIN 0.0 0.0 0.0
DOMAIN_MAX 1.0 1.0 1.0
0.096143 0.066641 0.108443
0.129287 0.067242 0.109045
0.160880 0.067816 0.109618
0.191408 0.068370 0.110172
0.221130 0.068909 0.110712
0.250208 0.069437 0.111239
0.278750 0.069955 0.111758
0.306835 0.070465 0.112267
0.334522 0.070968 0.112770
0.361858 0.071464 0.113266
0.388880 0.071954 0.113757
0.415617 0.072440 0.114242
0.442096 0.072920 0.114723
0.468336 0.073397 0.115199
0.494357 0.073869 0.115671
0.520175 0.074337 0.116140
0.545802 0.074803 0.116605
0.571251 0.075265 0.117067
0.596533 0.075723 0.117526
0.621658 0.076180 0.117982
0.646633 0.076633 0.118435
0.671467 0.077084 0.118886
0.696166 0.077532 0.119334
0.720737 0.077978 0.119780
0.745186 0.078422 0.120224
0.769518 0.078863 0.120666
0.793738 0.079303 0.121105
0.817851 0.079741 0.121543
0.841860 0.080176 0.121979
0.865771 0.080610 0.122413
0.889585 0.081043 0.122845
0.913307 0.081473 0.123276
0.098066 0.099476 0.110365
0.131210 0.100077 0.110967
0.162802 0.100651 0.111541
0.193330 0.101205 0.112095
0.223053 0.101744 0.112634
0.252130 0.102272 0.113162
0.280672 0.102790 0.113680
0.308758 0.103300 0.114190
0.336445 0.103803 0.114692
0.363781 0.104299 0.115189
0.390802 0.104789 0.115679
0.417540 0.105275 0.116164
0.444018 0.105755 0.116645
0.470259 0.106232 0.117121
0.496280 0.106704 0.117594
0.522097 0.107172 0.118062
0.547724 0.107638 0.118527
0.573174 0.108100 0.118989
0.598456 0.108559 0.119448
0.623580 0.109015 0.119904
0.648555 0.109468 0.120358
0.673389 0.109919 0.120808
0.698088 0.110367 0.121257
0.722660 0.110813 0.121703
0.747109 0.111257 0.122147
0.771441 0.111698 0.122588
0.795661 0.112138 0.123028
0.819773 0.112576 0.123465
0.843783 0.113012 0.123901
0.867693 0.113446 0.124335
0.891507 0.113878 0.124768
0.915230 0.114308 0.125198
0.099913 0.131032 0.112213
0.133057 0.131633 0.112815
0.164650 0.132207 0.113388
0.195178 0.132761 0.113942
0.224900 0.133300 0.114482
0.253978 0.133828 0.115010
0.282520 0.134346 0.115528
0.310605 0.134856 0.116037
0.338293 0.135359 0.116540
0.365628 0.135855 0.117036
0.392650 0.136345 0.117527
0.419387 0.136831 0.118012
0.445866 0.137311 0.118493
0.472106 0.137788 0.118969
0.498127 0.138260 0.119441
0.523945 0.138728 0.119910
0.549572 0.139194 0.120375
0.575021 0.139656 0.120837
0.600303 0.140114 0.121296
0.625428 0.140571 0.121752
0.650403 0.141024 0.122205
0.675237 0.141475 0.122656
0.699936 0.141923 0.123104
0.724507 0.142369 0.123550
0.748956 0.142813 0.123994
0.773288 0.143254 0.124436
0.797508 0.143694 0.124875
0.821621 0.144132 0.125313
0.845630 0.144567 0.125749
0.869541 0.145001 0.126183
0.893355 0.145434 0.126615
0.917077 0.145864 0.127046
0.101714 0.161791 0.114014
0.134858 0.162393 0.114616
0.166451 0.162967 0.115189
0.196979 0.163521 0.115743
0.226701 0.164060 0.116283
0.255779 0.164588 0.116811
0.284321 0.165106 0.117329
0.312406 0.165616 0.117838
0.340094 0.166118 0.118341
0.367429 0.166615 0.118837
0.394451 0.167105 0.119328
0.421188 0.167590 0.119813
0.447667 0.168071 0.120294
0.473907 0.168547 0.120770
0.499928 0.169020 0.121242
0.525746 0.169488 0.121711
0.551373 0.169953 0.122176
0.576822 0.170415 0.122638
0.602104 0.170874 0.123097
0.627229 0.171330 0.123553
0.652204 0.171784 0.124006
0.677038 0.172234 0.124457
0.701737 0.172683 0.124905
0.726308 0.173129 0.125351
0.750757 0.173572 0.125795
0.775089 0.174014 0.126237
0.799309 0.174454 0.126676
0.823422 0.174891 0.127114
0.847431 0.175327 0.127550
0.871342 0.175761 0.127984
0.895156 0.176194 0.128416
0.918878 0.176624 0.128847
0.103481 0.191975 0.115781
0.136625 0.192576 0.116383
0.168218 0.193150 0.116956
0.198746 0.193704 0.117510
0.228468 0.194243 0.118050
0.257546 0.194771 0.118578
0.286088 0.195289 0.119096
0.314173 0.195799 0.119606
0.341861 0.196302 0.120108
0.369197 0.196798 0.120604
0.396218 0.197288 0.121095
0.422955 0.197773 0.121580
0.449434 0.198254 0.122061
0.475674 0.198730 0.122537
0.501696 0.199203 0.123009
0.527513 0.199671 0.123478
0.553140 0.200137 0.123943
0.578590 0.200598 0.124405
0.603872 0.201057 0.124864
0.628996 0.201513 0.125320
0.653971 0.201967 0.125773
0.678805 0.202418 0.126224
0.703504 0.202866 0.126673
0.728075 0.203312 0.127119
0.752524 0.203756 0.127562
0.776856 0.204197 0.128004
0.801077 0.204637 0.128444
0.825189 0.205075 0.128881
0.849199 0.205510 0.129317
0.873109 0.205944 0.129751
0.896923 0.206377 0.130183
0.920645 0.206807 0.130614
0.105222 0.221707 0.117522
0.138366 0.222309 0.118124
0.169959 0.222882 0.118697
0.200487 0.223436 0.119251
0.230209 0.223976 0.119791
0.259287 0.224504 0.120319
0.287829 0.225022 0.120837
0.315914 0.225531 0.121346
0.343602 0.226034 0.121849
0.370937 0.226530 0.122345
0.397959 0.227021 0.122836
0.424696 0.227506 0.123321
0.451175 0.227987 0.123802
0.477415 0.228463 0.124278
0.503436 0.228935 0.124750
0.529254 0.229404 0.125219
0.554881 0.229869 0.125684
0.580330 0.230331 0.126146
0.605613 0.230790 0.126605
0.630737 0.231246 0.127061
0.655712 0.231699 0.127514
0.680546 0.232150 0.127965
0.705245 0.232598 0.128413
0.729816 0.233044 0.128859
0.754265 0.233488 0.129303
0.778597 0.233930 0.129745
0.802817 0.234369 0.130184
0.826930 0.234807 0.130622
0.850940 0.235243 0.131058
0.874850 0.235677 0.131492
0.898664 0.236109 0.131924
0.922386 0.236540 0.132355
0.106941 0.251070 0.119241
0.140085 0.251672 0.119843
0.171678 0.252245 0.120416
0.202206 0.252800 0.120971
0.231929 0.253339 0.121510
0.261006 0.253867 0.122038
0.289548 0.254385 0.122556
0.317633 0.254895 0.123066
0.345321 0.255397 0.123568
0.372657 0.255893 0.124064
0.399678 0.256384 0.124555
0.426416 0.256869 0.125040
0.452894 0.257350 0.125521
0.479135 0.257826 0.125997
0.505156 0.258299 0.126469
0.530973 0.258767 0.126938
0.556600 0.259232 0.127403
0.582050 0.259694 0.127865
0.607332 0.260153 0.128324
0.632456 0.260609 0.128780
0.657431 0.261063 0.129234
0.682265 0.261513 0.129684
0.706964 0.261962 0.130133
0.731535 0.262408 0.130579
0.755984 0.262851 0.131022
0.780317 0.263293 0.131464
0.804537 0.263733 0.131904
0.828649 0.264170 0.132341
0.852659 0.264606 0.132777
0.876569 0.265040 0.133211
0.900383 0.265472 0.133643
0.924106 0.265903 0.134074
0.108642 0.280122 0.120942
0.141786 0.280723 0.121544
0.173379 0.281297 0.122117
0.203907 0.281851 0.122671
0.233629 0.282390 0.123211
0.262707 0.282918 0.123739
0.291249 0.283436 0.124257
0.319334 0.283946 0.124767
0.347022 0.284449 0.125269
0.374358 0.284945 0.125765
0.401379 0.285435 0.126256
0.428116 0.285921 0.126741
0.454595 0.286401 0.127222
0.480835 0.286878 0.127698
0.506857 0.287350 0.128170
0.532674 0.287818 0.128639
0.558301 0.288284 0.129104
0.583751 0.288746 0.129566
0.609033 0.289204 0.130025
0.634157 0.289661 0.130481
0.659132 0.290114 0.130934
0.683966 0.290565 0.131385
0.708665 0.291013 0.131834
0.733236 0.291459 0.132280
0.757685 0.291903 0.132723
0.782017 0.292344 0.133165
0.806238 0.292784 0.133605
0.830350 0.293222 0.134042
0.854360 0.293658 0.134478
0.878270 0.294092 0.134912
0.902084 0.294524 0.135344
0.925806 0.294954 0.135775
0.110327 0.308903 0.122627
0.143472 0.309505 0.123229
0.175064 0.310078 0.123803
0.205592 0.310632 0.124357
0.235315 0.311172 0.124896
0.264392 0.311700 0.125424
0.292934 0.312218 0.125942
0.321020 0.312728 0.126452
0.348707 0.313230 0.126954
0.376043 0.313726 0.127451
0.403064 0.314217 0.127941
0.429802 0.314702 0.128426
0.456280 0.315183 0.128907
0.482521 0.315659 0.129383
0.508542 0.316131 0.129856
0.534359 0.316600 0.130324
0.559986 0.317065 0.130789
0.585436 0.317527 0.131251
0.610718 0.317986 0.131710
0.635842 0.318442 0.132166
0.660817 0.318895 0.132620
0.685651 0.319346 0.133070
0.710350 0.319794 0.133519
0.734922 0.320240 0.133965
0.759371 0.320684 0.134408
0.783703 0.321126 0.134850
0.807923 0.321565 0.135290
0.832035 0.322003 0.135727
0.856045 0.322439 0.136163
0.879955 0.322873 0.136597
0.903769 0.323305 0.137030
0.927492 0.323736 0.137460
0.111999 0.337447 0.124299
0.145143 0.338049 0.124900
0.176736 0.338622 0.125474
0.207263 0.339176 0.126028
0.236986 0.339716 0.126567
0.266064 0.340244 0.127095
0.294606 0.340762 0.127613
0.322691 0.341271 0.128123
0.350378 0.341774 0.128626
0.377714 0.342270 0.129122
0.404736 0.342761 0.129612
0.431473 0.343246 0.130098
0.457951 0.343727 0.130578
0.484192 0.344203 0.131055
0.510213 0.344675 0.131527
0.536030 0.345144 0.131995
0.561658 0.345609 0.132461
0.587107 0.346071 0.132923
0.612389 0.346530 0.133381
0.637513 0.346986 0.133838
0.662489 0.347439 0.134291
0.687322 0.347890 0.134742
0.712022 0.348338 0.135190
0.736593 0.348784 0.135636
0.761042 0.349228 0.136080
0.785374 0.349670 0.136521
0.809594 0.350109 0.136961
0.833707 0.350547 0.137399
0.857716 0.350983 0.137835
0.881626 0.351417 0.138269
0.905441 0.351849 0.138701
0.929163 0.352280 0.139131
0.113658 0.365779 0.125958
0.146802 0.366381 0.126559
0.178394 0.366954 0.127133
0.208922 0.367508 0.127687
0.238645 0.368048 0.128226
0.267722 0.368576 0.128754
0.296265 0.369094 0.129272
0.324350 0.369604 0.129782
0.352037 0.370106 0.130284
0.379373 0.370602 0.130781
0.406394 0.371093 0.131271
0.433132 0.371578 0.131756
0.459610 0.372059 0.132237
0.485851 0.372535 0.132713
0.511872 0.373007 0.133186
0.537689 0.373476 0.133654
0.563317 0.373941 0.134119
0.588766 0.374403 0.134581
0.614048 0.374862 0.135040
0.639172 0.375318 0.135496
0.664147 0.375771 0.135950
0.688981 0.376222 0.136400
0.713680 0.376670 0.136849
0.738252 0.377116 0.137295
0.762701 0.377560 0.137739
0.787033 0.378002 0.138180
0.811253 0.378441 0.138620
0.835366 0.378879 0.139058
0.859375 0.379315 0.139493
0.883285 0.379749 0.139927
0.907100 0.380181 0.140360
0.930822 0.380612 0.140790
0.115305 0.393920 0.127605
0.148449 0.394522 0.128207
0.180042 0.395095 0.128780
0.210570 0.395649 0.129334
0.240292 0.396189 0.129874
0.269370 0.396717 0.130402
0.297912 0.397235 0.130920
0.325997 0.397744 0.131430
0.353685 0.398247 0.131932
0.381021 0.398743 0.132428
0.408042 0.399234 0.132919
0.434779 0.399719 0.133404
0.461258 0.400200 0.133885
0.487498 0.400676 0.134361
0.513520 0.401148 0.134833
0.539337 0.401617 0.135302
0.564964 0.402082 0.135767
0.590414 0.402544 0.136229
0.615696 0.403003 0.136688
0.640820 0.403459 0.137144
0.665795 0.403912 0.137597
0.690629 0.404363 0.138048
0.715328 0.404811 0.138496
0.739899 0.405257 0.138942
0.764348 0.405701 0.139386
0.788680 0.406143 0.139828
0.812900 0.406582 0.140268
0.837013 0.407020 0.140705
0.861023 0.407456 0.141141
0.884933 0.407890 0.141575
0.908747 0.408322 0.142007
0.932469 0.408753 0.142438
0.116943 0.421887 0.129243
0.150087 0.422489 0.129844
0.181679 0.423062 0.130418
0.212207 0.423616 0.130972
0.241930 0.424156 0.131511
0.271008 0.424683 0.132039
0.299550 0.425202 0.132557
0.327635 0.425711 0.133067
0.355322 0.426214 0.133570
0.382658 0.426710 0.134066
0.409680 0.427201 0.134556
0.436417 0.427686 0.135042
0.462895 0.428167 0.135522
0.489136 0.428643 0.135998
0.515157 0.429115 0.136471
0.540974 0.429584 0.136939
0.566602 0.430049 0.137405
0.592051 0.430511 0.137867
0.617333 0.430970 0.138325
0.642457 0.431426 0.138781
0.667433 0.431879 0.139235
0.692266 0.432330 0.139686
0.716966 0.432778 0.140134
0.741537 0.433224 0.140580
0.765986 0.433668 0.141024
0.790318 0.434110 0.141465
0.814538 0.434549 0.141905
0.838651 0.434987 0.142343
0.862660 0.435423 0.142778
0.886570 0.435857 0.143212
0.910385 0.436289 0.143645
0.934107 0.436720 0.144075
0.118571 0.449694 0.130871
0.151715 0.450296 0.131472
0.183308 0.450869 0.132046
0.213835 0.451424 0.132600
0.243558 0.451963 0.133139
0.272636 0.452491 0.133667
0.301178 0.453009 0.134185
0.329263 0.453519 0.134695
0.356950 0.454021 0.135198
0.384286 0.454517 0.135694
0.411308 0.455008 0.136184
0.438045 0.455493 0.136670
0.464523 0.455974 0.137150
0.490764 0.456450 0.137627
0.516785 0.456923 0.138099
0.542602 0.457391 0.138568
0.568230 0.457856 0.139033
0.593679 0.458318 0.139495
0.618961 0.458777 0.139954
0.644086 0.459233 0.140410
0.669061 0.459687 0.140863
0.693894 0.460137 0.141314
0.718594 0.460586 0.141762
0.743165 0.461032 0.142208
0.767614 0.461475 0.142652
0.791946 0.461917 0.143093
0.816166 0.462357 0.143533
0.840279 0.462794 0.143971
0.864288 0.463230 0.144407
0.888198 0.463664 0.144841
0.912013 0.464096 0.145273
0.935735 0.464527 0.145703
0.120190 0.477354 0.132490
0.153334 0.477956 0.133092
0.184927 0.478529 0.133665
0.215455 0.479084 0.134219
0.245177 0.479623 0.134759
0.274255 0.480151 0.135287
0.302797 0.480669 0.135805
0.330882 0.481179 0.136315
0.358570 0.481681 0.136817
0.385906 0.482178 0.137313
0.412927 0.482668 0.137804
0.439664 0.483153 0.138289
0.466143 0.483634 0.138770
0.492383 0.484110 0.139246
0.518405 0.484583 0.139718
0.544222 0.485051 0.140187
0.569849 0.485516 0.140652
0.595299 0.485978 0.141114
0.620581 0.486437 0.141573
0.645705 0.486893 0.142029
0.670680 0.487347 0.142482
0.695514 0.487797 0.142933
0.720213 0.488246 0.143382
0.744784 0.488692 0.143828
0.769233 0.489135 0.144271
0.793565 0.489577 0.144713
0.817786 0.490017 0.145153
0.841898 0.490454 0.145590
0.865908 0.490890 0.146026
0.889818 0.491324 0.146460
0.913632 0.491757 0.146892
0.937354 0.492187 0.147323
0.121802 0.504878 0.134102
0.154946 0.505479 0.134703
0.186539 0.506053 0.135277
0.217066 0.506607 0.135831
0.246789 0.507146 0.136370
0.275867 0.507674 0.136898
0.304409 0.508192 0.137416
0.332494 0.508702 0.137926
0.360181 0.509205 0.138429
0.387517 0.509701 0.138925
0.414539 0.510191 0.139415
0.441276 0.510677 0.139901
0.467754 0.511157 0.140381
0.493995 0.511634 0.140858
0.520016 0.512106 0.141330
0.545833 0.512575 0.141799
0.571461 0.513040 0.142264
0.596910 0.513502 0.142726
0.622192 0.513961 0.143185
0.647316 0.514417 0.143641
0.672292 0.514870 0.144094
0.697125 0.515321 0.144545
0.721825 0.515769 0.144993
0.746396 0.516215 0.145439
0.770845 0.516659 0.145883
0.795177 0.517100 0.146324
0.819397 0.517540 0.146764
0.843510 0.517978 0.147202
0.867519 0.518414 0.147638
0.891429 0.518848 0.148072
0.915244 0.519280 0.148504
0.938966 0.519710 0.148934
0.123406 0.532274 0.135706
0.156550 0.532875 0.136307
0.188143 0.533449 0.136881
0.218671 0.534003 0.137435
0.248393 0.534542 0.137974
0.277471 0.535070 0.138502
0.306013 0.535588 0.139020
0.334098 0.536098 0.139530
0.361785 0.536600 0.140033
0.389121 0.537097 0.140529
0.416143 0.537587 0.141019
0.442880 0.538072 0.141505
0.469358 0.538553 0.141985
0.495599 0.539029 0.142462
0.521620 0.539502 0.142934
0.547437 0.539970 0.143403
0.573065 0.540435 0.143868
0.598514 0.540897 0.144330
0.623796 0.541356 0.144789
0.648921 0.541812 0.145245
0.673896 0.542266 0.145698
0.698729 0.542716 0.146149
0.723429 0.543165 0.146597
0.748000 0.543611 0.147043
0.772449 0.544055 0.147487
0.796781 0.544496 0.147928
0.821001 0.544936 0.148368
0.845114 0.545374 0.148806
0.869123 0.545809 0.149242
0.893033 0.546243 0.149676
0.916848 0.546676 0.150108
0.940570 0.547106 0.150538
0.125003 0.559550 0.137303
0.158147 0.560151 0.137904
0.189740 0.560725 0.138478
0.220268 0.561279 0.139032
0.249990 0.561819 0.139572
0.279068 0.562346 0.140099
0.307610 0.562864 0.140617
0.335695 0.563374 0.141127
0.363382 0.563877 0.141630
0.390718 0.564373 0.142126
0.417740 0.564863 0.142616
0.444477 0.565349 0.143102
0.470955 0.565829 0.143582
0.497196 0.566306 0.144059
0.523217 0.566778 0.144531
0.549035 0.567247 0.145000
0.574662 0.567712 0.145465
0.600111 0.568174 0.145927
0.625393 0.568633 0.146386
0.650518 0.569089 0.146842
0.675493 0.569542 0.147295
0.700326 0.569993 0.147746
0.725026 0.570441 0.148194
0.749597 0.570887 0.148640
0.774046 0.571331 0.149084
0.798378 0.571773 0.149526
0.822598 0.572212 0.149965
0.846711 0.572650 0.150403
0.870720 0.573086 0.150839
0.894630 0.573520 0.151273
0.918445 0.573952 0.151705
0.942167 0.574383 0.152135
0.126593 0.586714 0.138893
0.159737 0.587315 0.139495
0.191330 0.587889 0.140068
0.221858 0.588443 0.140622
0.251580 0.588983 0.141162
0.280658 0.589510 0.141690
0.309200 0.590028 0.142208
0.337285 0.590538 0.142718
0.364973 0.591041 0.143220
0.392309 0.591537 0.143716
0.419330 0.592027 0.144207
0.446067 0.592513 0.144692
0.472546 0.592993 0.145173
0.498786 0.593470 0.145649
0.524808 0.593942 0.146121
0.550625 0.594411 0.146590
0.576252 0.594876 0.147055
0.601702 0.595338 0.147517
0.626984 0.595797 0.147976
0.652108 0.596253 0.148432
0.677083 0.596706 0.148885
0.701917 0.597157 0.149336
0.726616 0.597605 0.149785
0.751187 0.598051 0.150231
0.775636 0.598495 0.150674
0.799968 0.598937 0.151116
0.824189 0.599376 0.151556
0.848301 0.599814 0.151993
0.872311 0.600250 0.152429
0.896221 0.600684 0.152863
0.920035 0.601116 0.153295
0.943757 0.601546 0.153726
0.128178 0.613772 0.140478
0.161322 0.614373 0.141079
0.192914 0.614947 0.141653
0.223442 0.615501 0.142207
0.253165 0.616041 0.142746
0.282242 0.616568 0.143274
0.310785 0.617086 0.143792
0.338870 0.617596 0.144302
0.366557 0.618099 0.144804
0.393893 0.618595 0.145301
0.420914 0.619085 0.145791
0.447652 0.619571 0.146276
0.474130 0.620051 0.146757
0.500371 0.620528 0.147233
0.526392 0.621000 0.147706
0.552209 0.621469 0.148174
0.577837 0.621934 0.148639
0.603286 0.622396 0.149101
0.628568 0.622855 0.149560
0.653692 0.623311 0.150016
0.678667 0.623764 0.150470
0.703501 0.624215 0.150920
0.728200 0.624663 0.151369
0.752772 0.625109 0.151815
0.777221 0.625553 0.152259
0.801553 0.625995 0.152700
0.825773 0.626434 0.153140
0.849885 0.626872 0.153578
0.873895 0.627308 0.154013
0.897805 0.627742 0.154447
0.921620 0.628174 0.154880
0.945342 0.628604 0.155310
0.129756 0.640730 0.142056
0.162900 0.641331 0.142658
0.194493 0.641905 0.143231
0.225021 0.642459 0.143785
0.254743 0.642998 0.144325
0.283821 0.643526 0.144852
0.312363 0.644044 0.145370
0.340448 0.644554 0.145880
0.368135 0.645056 0.146383
0.395471 0.645553 0.146879
0.422493 0.646043 0.147369
0.449230 0.646528 0.147855
0.475708 0.647009 0.148335
0.501949 0.647485 0.148812
0.527970 0.647958 0.149284
0.553788 0.648426 0.149753
0.579415 0.648891 0.150218
0.604864 0.649353 0.150680
0.630146 0.649812 0.151139
0.655271 0.650268 0.151595
0.680246 0.650722 0.152048
0.705079 0.651172 0.152499
0.729779 0.651621 0.152947
0.754350 0.652067 0.153393
0.778799 0.652511 0.153837
0.803131 0.652952 0.154279
0.827351 0.653392 0.154718
0.851464 0.653830 0.155156
0.875473 0.654265 0.155592
0.899383 0.654699 0.156026
0.923198 0.655132 0.156458
0.946920 0.655562 0.156889
0.131329 0.667592 0.143629
0.164473 0.668194 0.144230
0.196066 0.668767 0.144804
0.226593 0.669321 0.145358
0.256316 0.669861 0.145897
0.285394 0.670389 0.146425
0.313936 0.670907 0.146943
0.342021 0.671416 0.147453
0.369708 0.671919 0.147956
0.397044 0.672415 0.148452
0.424066 0.672906 0.148942
0.450803 0.673391 0.149428
0.477281 0.673872 0.149908
0.503522 0.674348 0.150385
0.529543 0.674820 0.150857
0.555360 0.675289 0.151325
0.580988 0.675754 0.151791
0.606437 0.676216 0.152253
0.631719 0.676675 0.152711
0.656843 0.677131 0.153168
0.681819 0.677584 0.153621
0.706652 0.678035 0.154072
0.731352 0.678483 0.154520
0.755923 0.678929 0.154966
0.780372 0.679373 0.155410
0.804704 0.679815 0.155851
0.828924 0.680254 0.156291
0.853037 0.680692 0.156729
0.877046 0.681128 0.157165
0.900956 0.681562 0.157599
0.924771 0.681994 0.158031
0.948493 0.682425 0.158461
0.132896 0.694364 0.145196
0.166040 0.694966 0.145798
0.197633 0.695539 0.146371
0.228161 0.696093 0.146925
0.257883 0.696633 0.147465
0.286961 0.697161 0.147993
0.315503 0.697679 0.148511
0.343588 0.698189 0.149021
0.371276 0.698691 0.149523
0.398612 0.699187 0.150019
0.425633 0.699678 0.150510
0.452370 0.700163 0.150995
0.478849 0.700644 0.151476
0.505089 0.701120 0.151952
0.531111 0.701592 0.152424
0.556928 0.702061 0.152893
0.582555 0.702526 0.153358
0.608005 0.702988 0.153820
0.633287 0.703447 0.154279
0.658411 0.703903 0.154735
0.683386 0.704356 0.155188
0.708220 0.704807 0.155639
0.732919 0.705255 0.156087
0.757490 0.705701 0.156533
0.781939 0.706145 0.156977
0.806271 0.706587 0.157419
0.830491 0.707027 0.157859
0.854604 0.707464 0.158296
0.878614 0.707900 0.158732
0.902524 0.708334 0.159166
0.926338 0.708766 0.159598
0.950060 0.709197 0.160029
0.134459 0.721050 0.146759
0.167603 0.721652 0.147360
0.199195 0.722225 0.147934
0.229723 0.722779 0.148488
0.259446 0.723319 0.149027
0.288524 0.723846 0.149555
0.317066 0.724365 0.150073
0.345151 0.724874 0.150583
0.372838 0.725377 0.151086
0.400174 0.725873 0.151582
0.427196 0.726364 0.152072
0.453933 0.726849 0.152558
0.480411 0.727330 0.153038
0.506652 0.727806 0.153514
0.532673 0.728278 0.153987
0.558490 0.728747 0.154455
0.584118 0.729212 0.154921
0.609567 0.729674 0.155383
0.634849 0.730133 0.155841
0.659973 0.730589 0.156297
0.684949 0.731042 0.156751
0.709782 0.731493 0.157202
0.734482 0.731941 0.157650
0.759053 0.732387 0.158096
0.783502 0.732831 0.158540
0.807834 0.733273 0.158981
0.832054 0.733712 0.159421
0.856167 0.734150 0.159859
0.880176 0.734586 0.160294
0.904086 0.735020 0.160728
0.927901 0.735452 0.161161
0.951623 0.735883 0.161591
0.136016 0.747653 0.148316
0.169160 0.748255 0.148918
0.200753 0.748828 0.149491
0.231281 0.749383 0.150045
0.261003 0.749922 0.150585
0.290081 0.750450 0.151113
0.318623 0.750968 0.151631
0.346708 0.751478 0.152141
0.374396 0.751980 0.152643
0.401732 0.752477 0.153139
0.428753 0.752967 0.153630
0.455490 0.753452 0.154115
0.481969 0.753933 0.154596
0.508209 0.754409 0.155072
0.534231 0.754882 0.155544
0.560048 0.755350 0.156013
0.585675 0.755815 0.156478
0.611125 0.756277 0.156940
0.636407 0.756736 0.157399
0.661531 0.757192 0.157855
0.686506 0.757646 0.158308
0.711340 0.758096 0.158759
0.736039 0.758545 0.159208
0.760610 0.758991 0.159654
0.785059 0.759434 0.160097
0.809391 0.759876 0.160539
0.833612 0.760316 0.160979
0.857724 0.760753 0.161416
0.881734 0.761189 0.161852
0.905644 0.761623 0.162286
0.929458 0.762055 0.162718
0.953180 0.762486 0.163149
0.137569 0.774178 0.149869
0.170713 0.774780 0.150471
0.202306 0.775353 0.151044
0.232834 0.775907 0.151598
0.262556 0.776447 0.152138
0.291634 0.776974 0.152666
0.320176 0.777493 0.153184
0.348261 0.778002 0.153694
0.375949 0.778505 0.154196
0.403285 0.779001 0.154692
0.430306 0.779492 0.155183
0.457043 0.779977 0.155668
0.483522 0.780457 0.156149
0.509762 0.780934 0.156625
0.535784 0.781406 0.157097
0.561601 0.781875 0.157566
0.587228 0.782340 0.158031
0.612678 0.782802 0.158493
0.637960 0.783261 0.158952
0.663084 0.783717 0.159408
0.688059 0.784170 0.159861
0.712893 0.784621 0.160312
0.737592 0.785069 0.160761
0.762163 0.785515 0.161207
0.786612 0.785959 0.161650
0.810944 0.786401 0.162092
0.835165 0.786840 0.162532
0.859277 0.787278 0.162969
0.883287 0.787714 0.163405
0.907197 0.788148 0.163839
0.931011 0.788580 0.164271
0.954733 0.789011 0.164702
0.139118 0.800627 0.151418
0.172262 0.801229 0.152019
0.203855 0.801802 0.152593
0.234383 0.802356 0.153147
0.264105 0.802896 0.153687
0.293183 0.803423 0.154214
0.321725 0.803941 0.154732
0.349810 0.804451 0.155242
0.377497 0.804954 0.155745
0.404833 0.805450 0.156241
0.431855 0.805940 0.156731
0.458592 0.806426 0.157217
0.485070 0.806906 0.157697
0.511311 0.807383 0.158174
0.537332 0.807855 0.158646
0.563150 0.808324 0.159115
0.588777 0.808789 0.159580
0.614226 0.809251 0.160042
0.639508 0.809710 0.160501
0.664633 0.810166 0.160957
0.689608 0.810619 0.161410
0.714441 0.811070 0.161861
0.739141 0.811518 0.162309
0.763712 0.811964 0.162755
0.788161 0.812408 0.163199
0.812493 0.812850 0.163641
0.836713 0.813289 0.164080
0.860826 0.813727 0.164518
0.884835 0.814163 0.164954
0.908745 0.814597 0.165388
0.932560 0.815029 0.165820
0.956282 0.815460 0.166251
0.140662 0.827003 0.152962
0.173806 0.827605 0.153564
0.205399 0.828178 0.154137
0.235927 0.828732 0.154691
0.265649 0.829272 0.155231
0.294727 0.829800 0.155759
0.323269 0.830318 0.156277
0.351354 0.830828 0.156787
0.379042 0.831330 0.157289
0.406378 0.831826 0.157785
0.433399 0.832317 0.158276
0.460136 0.832802 0.158761
0.486615 0.833283 0.159242
0.512855 0.833759 0.159718
0.538877 0.834231 0.160190
0.564694 0.834700 0.160659
0.590321 0.835165 0.161124
0.615771 0.835627 0.161586
0.641053 0.836086 0.162045
