assets/luts/film.cube
# Beauty Camera 3D LUT
# Filter: Film (film)
# Category: Film
TITLE "Film"
LUT_3D_SIZE 8
DOMAIN_MIN 0.000000 0.000000 0.000000
DOMAIN_MAX 0.903226 0.903226 0.903226
0.018439 0.033919 0.026417
0.148019 0.031846 0.024344
0.290115 0.029572 0.022070
0.446345 0.027073 0.019570
0.612869 0.024408 0.016906
0.780779 0.021960 0.014458
0.885370 0.019781 0.012279
0.935207 0.017865 0.010362
0.012040 0.148305 0.020018
0.141620 0.146231 0.017945
0.283716 0.143958 0.015671
0.439946 0.141458 0.013171
0.606471 0.138794 0.010507
0.773996 0.136346 0.008059
0.881824 0.134167 0.005880
0.933203 0.132250 0.003963
0.004880 0.276300 0.012858
0.134460 0.274227 0.010784
0.276556 0.271953 0.008511
0.432786 0.269454 0.006011
0.599310 0.266789 0.003347
0.766157 0.264341 0.000899
0.877725 0.262162 0.000000
0.930886 0.260245 0.000000
0.000000 0.418147 0.004923
0.126525 0.416074 0.002849
0.268621 0.413801 0.000576
0.424851 0.411301 0.000000
0.591375 0.408636 0.000000
0.757152 0.406188 0.000000
0.873016 0.404010 0.000000
0.928224 0.402093 0.000000
0.000000 0.571671 0.000000
0.117937 0.569598 0.000000
0.260033 0.567324 0.000000
0.416263 0.564825 0.000000
0.582787 0.562160 0.000000
0.747014 0.559712 0.000000
0.867715 0.557533 0.000000
0.925228 0.555616 0.000000
0.000000 0.721799 0.000000
0.109871 0.719038 0.000000
0.251968 0.715980 0.000000
0.408198 0.712579 0.000000
0.574722 0.708909 0.000000
0.737109 0.705496 0.000000
0.862536 0.702425 0.000000
0.922300 0.699787 0.000000
0.000000 0.849994 0.000000
0.102615 0.848506 0.000000
0.244711 0.846857 0.000000
0.400941 0.845023 0.000000
0.567466 0.843044 0.000000
0.727867 0.841204 0.000000
0.857703 0.839548 0.000000
0.919569 0.838077 0.000000
0.000000 0.913398 0.000000
0.096162 0.912539 0.000000
0.238258 0.911587 0.000000
0.394488 0.910528 0.000000
0.561012 0.909386 0.000000
0.719374 0.908323 0.000000
0.853262 0.907367 0.000000
0.917059 0.906518 0.000000
0.017882 0.033362 0.130054
0.147462 0.031289 0.127981
0.289558 0.029015 0.125707
0.445788 0.026515 0.123207
0.612312 0.023851 0.120543
0.780196 0.021403 0.118095
0.885066 0.019224 0.115916
0.935035 0.017307 0.113999
0.011483 0.147747 0.123655
0.141063 0.145674 0.121582
0.283159 0.143401 0.119308
0.439389 0.140901 0.116808
0.605913 0.138237 0.114144
0.773395 0.135788 0.111696
0.881510 0.133610 0.109517
0.933025 0.131693 0.107600
0.004323 0.275743 0.116495
0.133903 0.273670 0.114421
0.275999 0.271396 0.112148
0.432229 0.268896 0.109648
0.598753 0.266232 0.106984
0.765536 0.263784 0.104536
0.877400 0.261605 0.102357
0.930702 0.259688 0.100440
0.000000 0.417590 0.108560
0.125968 0.415517 0.106486
0.268064 0.413243 0.104213
0.424294 0.410744 0.101713
0.590818 0.408079 0.099049
0.756507 0.405631 0.096600
0.872679 0.403452 0.094422
0.928033 0.401536 0.092505
0.000000 0.571114 0.099971
0.117379 0.569041 0.097898
0.259475 0.566767 0.095624
0.415705 0.564267 0.093125
0.582230 0.561603 0.090460
0.746342 0.559155 0.088012
0.867364 0.556976 0.085834
0.925029 0.555059 0.083917
0.000000 0.721060 0.091906
0.109314 0.718292 0.089833
0.251410 0.715225 0.087559
0.407640 0.711815 0.085060
0.574165 0.708136 0.082395
0.736411 0.704713 0.079947
0.862171 0.701634 0.077768
0.922094 0.699230 0.075852
0.000000 0.849596 0.084650
0.102058 0.848103 0.082577
0.244154 0.846450 0.080303
0.400384 0.844611 0.077803
0.566908 0.842627 0.075139
0.727144 0.840782 0.072691
0.857325 0.839122 0.070512
0.919355 0.837646 0.068595
0.000000 0.913168 0.078196
0.095604 0.912306 0.076123
0.237701 0.911352 0.073849
0.393931 0.910290 0.071350
0.560455 0.909145 0.068685
0.718628 0.908079 0.066237
0.852872 0.907121 0.064059
0.916838 0.906269 0.062142
0.017237 0.032717 0.250004
0.146817 0.030644 0.247930
0.288913 0.028370 0.245657
0.445143 0.025870 0.243157
0.611667 0.023206 0.240493
0.779520 0.020758 0.238045
0.884712 0.018579 0.235866
0.934835 0.016662 0.233949
0.010838 0.147103 0.243605
0.140418 0.145029 0.241531
0.282514 0.142756 0.239258
0.438744 0.140256 0.236758
0.605268 0.137592 0.234094
0.772698 0.135143 0.231646
0.881145 0.132965 0.229467
0.932819 0.131048 0.227550
0.003678 0.275098 0.236445
0.133258 0.273025 0.234371
0.275354 0.270751 0.232098
0.431584 0.268251 0.229598
0.598108 0.265587 0.226934
0.764815 0.263139 0.224485
0.877023 0.260960 0.222307
0.930489 0.259043 0.220390
0.000000 0.416945 0.228509
0.125323 0.414872 0.226436
0.267419 0.412598 0.224163
0.423649 0.410099 0.221663
0.590173 0.407434 0.218998
0.755758 0.404986 0.216550
0.872287 0.402807 0.214372
0.927812 0.400891 0.212455
0.000000 0.570469 0.219921
0.116734 0.568396 0.217848
0.258831 0.566122 0.215574
0.415061 0.563622 0.213074
0.581585 0.560958 0.210410
0.745562 0.558510 0.207962
0.866956 0.556331 0.205783
0.924799 0.554414 0.203866
0.000000 0.720202 0.211856
0.108669 0.717425 0.209783
0.250765 0.714350 0.207509
0.406995 0.710929 0.205009
0.573520 0.707238 0.202345
0.735600 0.703805 0.199897
0.861747 0.700716 0.197718
0.921854 0.698585 0.195801
0.000000 0.849133 0.204600
0.101413 0.847636 0.202526
0.243509 0.845978 0.200253
0.399739 0.844133 0.197753
0.566263 0.842143 0.195089
0.726305 0.840292 0.192641
0.856886 0.838627 0.190462
0.919107 0.837147 0.188545
0.000000 0.912901 0.198146
0.094959 0.912037 0.196073
0.237056 0.911079 0.193799
0.393286 0.910014 0.191300
0.559810 0.908865 0.188635
0.717763 0.907797 0.186187
0.852420 0.906835 0.184008
0.916582 0.905981 0.182091
0.016509 0.031989 0.385357
0.146089 0.029916 0.383284
0.288185 0.027642 0.381011
0.444415 0.025143 0.378511
0.610940 0.022478 0.375846
0.778755 0.020030 0.373398
0.884312 0.017851 0.371220
0.934609 0.015935 0.369303
0.010110 0.146375 0.378959
0.139690 0.144301 0.376885
0.281786 0.142028 0.374612
0.438016 0.139528 0.372112
0.604541 0.136864 0.369448
0.771909 0.134416 0.366999
0.880733 0.132237 0.364821
0.932586 0.130320 0.362904
0.002950 0.274370 0.371798
0.132530 0.272297 0.369725
0.274626 0.270023 0.367451
0.430856 0.267524 0.364952
0.597380 0.264859 0.362287
0.763998 0.262411 0.359839
0.876596 0.260232 0.357661
0.930248 0.258315 0.355744
0.000000 0.416217 0.363863
0.124595 0.414144 0.361790
0.266691 0.411871 0.359516
0.422921 0.409371 0.357017
0.589445 0.406706 0.354352
0.754910 0.404258 0.351904
0.871844 0.402080 0.349726
0.927561 0.400163 0.347809
0.000000 0.569741 0.355275
0.116007 0.567668 0.353202
0.258103 0.565394 0.350928
0.414333 0.562895 0.348428
0.580857 0.560230 0.345764
0.744679 0.557782 0.343316
0.866494 0.555603 0.341137
0.924538 0.553687 0.339220
0.000000 0.719230 0.347210
0.107941 0.716444 0.345136
0.250038 0.713358 0.342863
0.406268 0.709925 0.340363
0.572792 0.706222 0.337699
0.734682 0.702777 0.335251
0.861267 0.699774 0.333072
0.921583 0.697857 0.331155
0.000000 0.848609 0.339954
0.100685 0.847107 0.337880
0.242781 0.845443 0.335607
0.399011 0.843592 0.333107
0.565536 0.841595 0.330443
0.725354 0.839738 0.327994
0.856389 0.838066 0.325816
0.918826 0.836582 0.323899
0.000000 0.912598 0.333500
0.094232 0.911731 0.331427
0.236328 0.910770 0.329153
0.392558 0.909702 0.326653
0.559082 0.908549 0.323989
0.716783 0.907477 0.321541
0.851907 0.906512 0.319362
0.916293 0.905654 0.317445
0.015699 0.031179 0.535985
0.145279 0.029106 0.533911
0.287375 0.026832 0.531638
0.443605 0.024333 0.529138
0.610130 0.021668 0.526474
0.777900 0.019220 0.524025
0.883865 0.017042 0.521847
0.934356 0.015125 0.519930
0.009300 0.145565 0.529586
0.138880 0.143492 0.527512
0.280977 0.141218 0.525239
0.437207 0.138718 0.522739
0.603731 0.136054 0.520075
0.771028 0.133606 0.517627
0.880272 0.131427 0.515448
0.932325 0.129510 0.513531
0.002140 0.273560 0.522425
0.131720 0.271487 0.520352
0.273816 0.269213 0.518079
0.430046 0.266714 0.515579
0.596570 0.264049 0.512914
0.763086 0.261601 0.510466
0.876119 0.259423 0.508288
0.929978 0.257506 0.506371
0.000000 0.415407 0.514490
0.123785 0.413334 0.512417
0.265881 0.411061 0.510143
0.422111 0.408561 0.507644
0.588635 0.405896 0.504979
0.753963 0.403448 0.502531
0.871348 0.401270 0.500353
0.927282 0.399353 0.498436
0.000000 0.568931 0.505902
0.115197 0.566858 0.503829
0.257293 0.564584 0.501555
0.413523 0.562085 0.499055
0.580047 0.559420 0.496391
0.743692 0.556972 0.493943
0.865978 0.554794 0.491764
0.924246 0.552877 0.489847
0.000000 0.718145 0.497837
0.107132 0.715349 0.495763
0.249228 0.712250 0.493490
0.405458 0.708805 0.490990
0.571982 0.705086 0.488326
0.733657 0.701628 0.485878
0.860731 0.698964 0.483699
0.921280 0.697047 0.481782
0.000000 0.848024 0.490581
0.099875 0.846516 0.488507
0.241971 0.844846 0.486234
0.398202 0.842988 0.483734
0.564726 0.840983 0.481070
0.724293 0.839118 0.478621
0.855834 0.837441 0.476443
0.918512 0.835950 0.474526
0.000000 0.912261 0.484127
0.093422 0.911390 0.482054
0.235518 0.910426 0.479780
0.391748 0.909353 0.477280
0.558272 0.908196 0.474616
0.715689 0.907119 0.472168
0.851335 0.906151 0.469989
0.915969 0.905290 0.468072
0.014883 0.030363 0.687820
0.144463 0.028290 0.685747
0.286559 0.026016 0.683473
0.442789 0.023516 0.680974
0.609313 0.020852 0.678309
0.777035 0.018404 0.675861
0.883413 0.016225 0.673682
0.934101 0.014308 0.671766
0.008484 0.144748 0.681421
0.138064 0.142675 0.679348
0.280160 0.140402 0.677074
0.436390 0.137902 0.674575
0.602914 0.135237 0.671910
0.770136 0.132789 0.669462
0.879805 0.130611 0.667284
0.932062 0.128694 0.665367
0.001324 0.272744 0.674261
0.130904 0.270670 0.672188
0.273000 0.268397 0.669914
0.429230 0.265897 0.667414
0.595754 0.263233 0.664750
0.762163 0.260785 0.662302
0.875636 0.258606 0.660123
0.929705 0.256689 0.658206
0.000000 0.414591 0.666326
0.122969 0.412518 0.664253
0.265065 0.410244 0.661979
0.421295 0.407745 0.659479
0.587819 0.405080 0.656815
0.753004 0.402632 0.654367
0.870847 0.400453 0.652188
0.926998 0.398536 0.650271
0.000000 0.568115 0.657738
0.114380 0.566041 0.655664
0.256476 0.563768 0.653391
0.412706 0.561268 0.650891
0.579231 0.558604 0.648227
0.742694 0.556156 0.645778
0.865456 0.553977 0.643600
0.923951 0.552060 0.641683
0.000000 0.717047 0.649672
0.106315 0.714240 0.647599
0.248411 0.711129 0.645326
0.404641 0.707670 0.642826
0.571165 0.703938 0.640161
0.732620 0.700466 0.637713
0.860188 0.698148 0.635535
0.920973 0.696231 0.633618
0.000000 0.847432 0.642416
0.099059 0.845919 0.640343
0.241155 0.844241 0.638069
0.397385 0.842376 0.635570
0.563909 0.840364 0.632905
0.723219 0.838492 0.630457
0.855273 0.836808 0.628279
0.918195 0.835311 0.626362
0.000000 0.911919 0.635963
0.092605 0.911045 0.633889
0.234701 0.910077 0.631616
0.390931 0.909000 0.629116
0.557456 0.907838 0.626452
0.714581 0.906757 0.624003
0.850756 0.905785 0.621825
0.915642 0.904921 0.619908
0.014135 0.029616 0.835980
0.143716 0.027542 0.834353
0.285812 0.025269 0.832550
0.442042 0.022769 0.830545
0.608566 0.020105 0.828381
0.776240 0.017656 0.826369
0.882997 0.015478 0.824558
0.933866 0.013561 0.822949
0.007737 0.144001 0.830906
0.137317 0.141928 0.829228
0.279413 0.139654 0.827369
0.435643 0.137155 0.825302
0.602167 0.134490 0.823071
0.769317 0.132042 0.820997
0.879377 0.129864 0.819130
0.931819 0.127947 0.817471
0.000576 0.271996 0.825041
0.130156 0.269923 0.823305
0.272253 0.267650 0.821381
0.428483 0.265150 0.819243
0.595007 0.262486 0.816935
0.761316 0.260037 0.814788
0.875193 0.257859 0.812857
0.929455 0.255942 0.811140
0.000000 0.413844 0.818303
0.122221 0.411770 0.816500
0.264317 0.409497 0.814503
0.420548 0.406997 0.812282
0.587072 0.404333 0.809885
0.752124 0.401885 0.807656
0.870387 0.399706 0.805650
0.926738 0.397789 0.803868
0.000000 0.567368 0.810718
0.113633 0.565294 0.808840
0.255729 0.563021 0.806759
0.411959 0.560521 0.804446
0.578483 0.557857 0.801949
0.741776 0.555408 0.799626
0.864976 0.553230 0.797537
0.923680 0.551313 0.795680
0.000000 0.716039 0.803307
0.105568 0.713221 0.801356
0.247664 0.710100 0.799194
0.403894 0.706628 0.796789
0.570418 0.702882 0.794194
0.731666 0.699579 0.791781
0.859690 0.697401 0.789610
0.920692 0.695484 0.787681
0.000000 0.846888 0.796392
0.098312 0.845369 0.794372
0.240408 0.843686 0.792134
0.396638 0.841814 0.789645
0.563162 0.839795 0.786959
0.722233 0.837916 0.784461
0.854757 0.836226 0.782213
0.917903 0.834724 0.780216
0.000000 0.911605 0.790038
0.091858 0.910728 0.787955
0.233954 0.909756 0.785647
0.390184 0.908676 0.783080
0.556708 0.907509 0.780310
0.713564 0.906425 0.777734
0.850224 0.905449 0.775416
0.915341 0.904582 0.773357
0.013460 0.028940 0.909832
0.143040 0.026867 0.908937
0.285136 0.024593 0.907946
0.441366 0.022093 0.906844
0.607890 0.019429 0.905654
0.775519 0.016981 0.904548
0.882620 0.014802 0.903553
0.933653 0.012885 0.902668
0.007061 0.143326 0.907042
0.136641 0.141252 0.906120
0.278737 0.138979 0.905098
0.434967 0.136479 0.903961
0.601491 0.133815 0.902735
0.768573 0.131366 0.901595
0.878988 0.129188 0.900568
0.931600 0.127271 0.899657
0.000000 0.271321 0.903818
0.129481 0.269248 0.902864
0.271577 0.266974 0.901806
0.427807 0.264474 0.900630
0.594331 0.261810 0.899362
0.760546 0.259362 0.898181
0.874791 0.257183 0.897120
0.929227 0.255266 0.896176
0.000000 0.413168 0.900114
0.121546 0.411095 0.899123
0.263642 0.408821 0.898025
0.419872 0.406322 0.896804
0.586396 0.403657 0.895486
0.751325 0.401209 0.894261
0.869969 0.399031 0.893158
0.926502 0.397114 0.892178
0.000000 0.566692 0.895944
0.112957 0.564619 0.894912
0.255054 0.562345 0.893768
0.411284 0.559845 0.892496
0.577808 0.557181 0.891123
0.740944 0.554733 0.889846
0.864541 0.552554 0.888698
0.923434 0.550637 0.887677
0.000000 0.715124 0.891870
0.104892 0.712297 0.890797
0.246988 0.709165 0.889609
0.403218 0.705683 0.888287
0.569743 0.701925 0.886860
0.730802 0.698904 0.885534
0.859238 0.696725 0.884340
0.920436 0.694808 0.883279
0.000000 0.846395 0.888069
0.097636 0.844871 0.886958
0.239732 0.843182 0.885728
0.395962 0.841305 0.884359
0.562486 0.839278 0.882883
0.721337 0.837394 0.881509
0.854289 0.835698 0.880274
0.917639 0.834191 0.879176
0.000000 0.911320 0.884575
0.091182 0.910440 0.883430
0.233279 0.909465 0.882161
0.389509 0.908381 0.880750
0.556033 0.907211 0.879228
0.712641 0.906123 0.877811
0.849741 0.905144 0.876537
0.915068 0.904275 0.875405
