assets/luts/film.cube
# Beauty Camera 3D LUT
# Filter: Film (film)
# Category: Film
TITLE "Film"
LUT_3D_SIZE 5
DOMAIN_MIN 0.000000 0.000000 0.000000
DOMAIN_MAX 0.903226 0.903226 0.903226
0.018439 0.033919 0.026417
0.253285 0.030162 0.022659
0.529842 0.025737 0.018234
0.814960 0.021390 0.013888
0.935207 0.017865 0.010362
0.006742 0.243006 0.014720
0.241588 0.239248 0.010963
0.518145 0.234823 0.006538
0.804361 0.230477 0.002192
0.931496 0.226951 0.000000
0.000000 0.494279 0.000664
0.227532 0.490522 0.000000
0.504089 0.486097 0.000000
0.790818 0.481750 0.000000
0.926754 0.478225 0.000000
0.000000 0.763134 0.000000
0.213248 0.758857 0.000000
0.489804 0.753722 0.000000
0.776094 0.748572 0.000000
0.921598 0.744315 0.000000
0.000000 0.913398 0.000000
0.201427 0.911834 0.000000
0.477984 0.909957 0.000000
0.763130 0.908074 0.000000
0.917059 0.906518 0.000000
0.017406 0.032886 0.218560
0.252252 0.029128 0.214802
0.528809 0.024703 0.210378
0.814048 0.020357 0.206031
0.934888 0.016831 0.202505
0.005709 0.241973 0.206863
0.240555 0.238215 0.203106
0.517112 0.233790 0.198681
0.803397 0.229444 0.194335
0.931158 0.225918 0.190809
0.000000 0.493246 0.192807
0.226499 0.489488 0.189049
0.503055 0.485063 0.184624
0.789786 0.480717 0.180278
0.926392 0.477191 0.176752
0.000000 0.761966 0.178523
0.212215 0.757668 0.174765
0.488771 0.752508 0.170340
0.774990 0.747332 0.165994
0.921211 0.743054 0.162468
0.000000 0.912971 0.166702
0.200394 0.911400 0.162945
0.476951 0.909513 0.158520
0.761962 0.907621 0.154174
0.916649 0.906057 0.150648
0.016114 0.031594 0.458762
0.250960 0.027837 0.455005
0.527517 0.023412 0.450580
0.812900 0.019066 0.446234
0.934486 0.015540 0.442708
0.004418 0.240681 0.447066
0.239264 0.236924 0.443308
0.515820 0.232499 0.438883
0.802184 0.228153 0.434537
0.930733 0.224627 0.431011
0.000000 0.491954 0.433009
0.225207 0.488197 0.429252
0.501764 0.483772 0.424827
0.788489 0.479426 0.420480
0.925938 0.475900 0.416955
0.000000 0.760497 0.418725
0.210923 0.756173 0.414967
0.487480 0.750981 0.410542
0.773602 0.745774 0.406196
0.920725 0.741469 0.402670
0.000000 0.912434 0.406905
0.199103 0.910853 0.403147
0.475659 0.908955 0.398722
0.760493 0.907051 0.394376
0.916135 0.905477 0.390850
0.014689 0.030169 0.732132
0.249535 0.026412 0.727296
0.526092 0.021987 0.721489
0.811626 0.017641 0.715665
0.934040 0.014115 0.710850
0.002993 0.239256 0.716789
0.237839 0.235499 0.711676
0.514395 0.231074 0.705536
0.800837 0.226727 0.699565
0.930262 0.223202 0.696039
0.000000 0.490529 0.698037
0.223782 0.486772 0.694280
0.500339 0.482347 0.689855
0.787049 0.478001 0.685509
0.925434 0.474475 0.681983
0.000000 0.758866 0.683753
0.209498 0.754513 0.679996
0.486055 0.749285 0.675571
0.772060 0.744043 0.671225
0.920186 0.739709 0.667699
0.000000 0.911838 0.671933
0.197678 0.910246 0.668175
0.474234 0.908335 0.663750
0.758862 0.906418 0.659404
0.915564 0.904833 0.655878
0.013460 0.028940 0.909832
0.248306 0.025182 0.908204
0.524863 0.020757 0.906249
0.810520 0.016411 0.904289
0.933653 0.012885 0.902668
0.001763 0.238027 0.904667
0.236609 0.234269 0.902946
0.513166 0.229844 0.900879
0.799667 0.225498 0.898806
0.929852 0.221972 0.897093
0.000000 0.489300 0.898068
0.222553 0.485542 0.896227
0.499109 0.481117 0.894017
0.785799 0.476771 0.891801
0.924996 0.473245 0.889969
0.000000 0.757451 0.890893
0.208269 0.753072 0.888923
0.484825 0.747813 0.886558
0.770722 0.742540 0.884185
0.919717 0.738180 0.882224
0.000000 0.911320 0.884575
0.196448 0.909719 0.882492
0.473005 0.907797 0.879989
0.757447 0.905868 0.877480
0.915068 0.904275 0.875405
