assets/luts/film.cube
# Beauty Camera 3D LUT
# Filter: Film (film)
# Category: Film
TITLE "Film"
LUT_3D_SIZE 32
DOMAIN_MIN 0.0 0.0 0.0
DOMAIN_MAX 1.0 1.0 1.0
0.018439 0.033919 0.026417
0.050006 0.033414 0.025912
0.081972 0.032903 0.025400
0.114609 0.032380 0.024878
0.148019 0.031846 0.024344
0.182251 0.031298 0.023796
0.217334 0.030737 0.023235
0.253285 0.030162 0.022659
0.290115 0.029572 0.022070
0.327832 0.028969 0.021467
0.366441 0.028351 0.020849
0.405945 0.027719 0.020217
0.446345 0.027073 0.019570
0.487644 0.026412 0.018910
0.529842 0.025737 0.018234
0.571910 0.025064 0.017561
0.612869 0.024408 0.016906
0.652734 0.023770 0.016268
0.691517 0.023150 0.015648
0.738978 0.022546 0.015044
0.780779 0.021960 0.014458
0.814960 0.021390 0.013888
0.843034 0.020838 0.013335
0.866190 0.020301 0.012799
0.885370 0.019781 0.012279
0.901322 0.019278 0.011776
0.914643 0.018791 0.011289
0.925810 0.018320 0.010817
0.935207 0.017865 0.010362
0.943145 0.017425 0.009923
0.949873 0.017002 0.009500
0.955597 0.016595 0.009093
0.016908 0.061283 0.024886
0.048476 0.060778 0.024381
0.080441 0.060267 0.023870
0.113079 0.059745 0.023347
0.146488 0.059210 0.022813
0.180720 0.058662 0.022265
0.215803 0.058101 0.021704
0.251754 0.057526 0.021129
0.288585 0.056937 0.020539
0.326302 0.056333 0.019936
0.364910 0.055715 0.019318
0.404414 0.055083 0.018686
0.444815 0.054437 0.018040
0.486113 0.053776 0.017379
0.528311 0.053101 0.016704
0.570379 0.052428 0.016031
0.611339 0.051772 0.015375
0.651204 0.051135 0.014737
0.689986 0.050514 0.014117
0.737069 0.049911 0.013513
0.779175 0.049324 0.012927
0.813606 0.048755 0.012357
0.841886 0.048202 0.011805
0.865211 0.047666 0.011268
0.884532 0.047146 0.010748
0.900600 0.046642 0.010245
0.914019 0.046155 0.009758
0.925267 0.045684 0.009287
0.934733 0.045229 0.008832
0.942729 0.044790 0.008392
0.949507 0.044367 0.007969
0.955272 0.043959 0.007562
0.015332 0.089452 0.023310
0.046900 0.088947 0.022805
0.078865 0.088435 0.022294
0.111503 0.087913 0.021772
0.144913 0.087379 0.021237
0.179145 0.086831 0.020689
0.214227 0.086270 0.020128
0.250178 0.085694 0.019553
0.287009 0.085105 0.018963
0.324726 0.084502 0.018360
0.363335 0.083884 0.017742
0.402838 0.083252 0.017110
0.443239 0.082605 0.016464
0.484538 0.081945 0.015803
0.526735 0.081269 0.015128
0.568803 0.080596 0.014455
0.609763 0.079941 0.013799
0.649628 0.079303 0.013162
0.688410 0.078683 0.012541
0.735088 0.078079 0.011938
0.777512 0.077493 0.011351
0.812202 0.076923 0.010782
0.840695 0.076370 0.010229
0.864196 0.075834 0.009693
0.883662 0.075314 0.009173
0.899852 0.074811 0.008669
0.913371 0.074324 0.008182
0.924704 0.073852 0.007711
0.934242 0.073397 0.007256
0.942297 0.072958 0.006817
0.949126 0.072535 0.006393
0.954935 0.072128 0.005986
0.013710 0.118454 0.021688
0.045277 0.117949 0.021183
0.077243 0.117438 0.020671
0.109880 0.116916 0.020149
0.143290 0.116381 0.019615
0.177522 0.115833 0.019067
0.212605 0.115272 0.018506
0.248556 0.114697 0.017930
0.285386 0.114108 0.017341
0.323103 0.113504 0.016738
0.361712 0.112886 0.016120
0.401216 0.112254 0.015488
0.441616 0.111608 0.014841
0.482915 0.110947 0.014181
0.525113 0.110272 0.013505
0.567181 0.109599 0.012832
0.608140 0.108943 0.012177
0.648005 0.108306 0.011539
0.686788 0.107685 0.010919
0.733034 0.107082 0.010315
0.775786 0.106495 0.009729
0.810746 0.105926 0.009159
0.839459 0.105373 0.008606
0.863143 0.104837 0.008070
0.882760 0.104317 0.007550
0.899075 0.103813 0.007047
0.912699 0.103326 0.006559
0.924120 0.102855 0.006088
0.933732 0.102400 0.005633
0.941850 0.101961 0.005194
0.948732 0.101538 0.004771
0.954586 0.101130 0.004364
0.012040 0.148305 0.020018
0.043607 0.147800 0.019513
0.075573 0.147288 0.019001
0.108210 0.146766 0.018479
0.141620 0.146231 0.017945
0.175852 0.145684 0.017397
0.210935 0.145122 0.016836
0.246886 0.144547 0.016260
0.283716 0.143958 0.015671
0.321433 0.143354 0.015068
0.360042 0.142737 0.014450
0.399546 0.142105 0.013818
0.439946 0.141458 0.013171
0.481245 0.140797 0.012511
0.523443 0.140122 0.011836
0.565511 0.139449 0.011162
0.606471 0.138794 0.010507
0.646336 0.138156 0.009869
0.685118 0.137535 0.009249
0.730902 0.136932 0.008645
0.773996 0.136346 0.008059
0.809235 0.135776 0.007489
0.838177 0.135223 0.006937
0.862050 0.134687 0.006400
0.881824 0.134167 0.005880
0.898269 0.133664 0.005377
0.912002 0.133176 0.004890
0.923515 0.132705 0.004419
0.933203 0.132250 0.003963
0.941386 0.131811 0.003524
0.948322 0.131388 0.003101
0.954223 0.130980 0.002694
0.010322 0.179011 0.018300
0.041890 0.178506 0.017795
0.073855 0.177994 0.017284
0.106493 0.177472 0.016762
0.139903 0.176937 0.016227
0.174135 0.176390 0.015679
0.209217 0.175828 0.015118
0.245168 0.175253 0.014543
0.281999 0.174664 0.013953
0.319716 0.174060 0.013350
0.358324 0.173443 0.012732
0.397828 0.172810 0.012100
0.438229 0.172164 0.011454
0.479528 0.171503 0.010793
0.521725 0.170828 0.010118
0.563793 0.170155 0.009445
0.604753 0.169500 0.008789
0.644618 0.168862 0.008151
0.683400 0.168241 0.007531
0.728692 0.167638 0.006928
0.772140 0.167052 0.006341
0.807668 0.166482 0.005772
0.836848 0.165929 0.005219
0.860917 0.165393 0.004682
0.880853 0.164873 0.004163
0.897434 0.164369 0.003659
0.911279 0.163882 0.003172
0.922886 0.163411 0.002701
0.932654 0.162956 0.002246
0.940904 0.162517 0.001807
0.947898 0.162094 0.001383
0.953847 0.161686 0.000976
0.008557 0.210577 0.016534
0.040124 0.210072 0.016029
0.072089 0.209560 0.015518
0.104727 0.209038 0.014996
0.138137 0.208503 0.014461
0.172369 0.207956 0.013913
0.207452 0.207394 0.013352
0.243403 0.206819 0.012777
0.280233 0.206230 0.012188
0.317950 0.205626 0.011584
0.356559 0.205009 0.010966
0.396062 0.204377 0.010334
0.436463 0.203730 0.009688
0.477762 0.203069 0.009027
0.519959 0.202394 0.008352
0.562027 0.201721 0.007679
0.602987 0.201066 0.007023
0.642852 0.200428 0.006386
0.681634 0.199807 0.005765
0.726401 0.199204 0.005162
0.770216 0.198618 0.004575
0.806044 0.198048 0.004006
0.835471 0.197495 0.003453
0.859743 0.196959 0.002917
0.879847 0.196439 0.002397
0.896568 0.195936 0.001893
0.910530 0.195448 0.001406
0.922235 0.194977 0.000935
0.932085 0.194522 0.000480
0.940405 0.194083 0.000041
0.947458 0.193660 0.000000
0.953458 0.193252 0.000000
0.006742 0.243006 0.014720
0.038310 0.242501 0.014215
0.070275 0.241989 0.013704
0.102913 0.241467 0.013182
0.136323 0.240933 0.012647
0.170555 0.240385 0.012099
0.205637 0.239823 0.011538
0.241588 0.239248 0.010963
0.278419 0.238659 0.010373
0.316136 0.238056 0.009770
0.354745 0.237438 0.009152
0.394248 0.236806 0.008520
0.434649 0.236159 0.007874
0.475948 0.235499 0.007213
0.518145 0.234823 0.006538
0.560213 0.234150 0.005865
0.601173 0.233495 0.005209
0.641038 0.232857 0.004572
0.679820 0.232237 0.003951
0.724028 0.231633 0.003348
0.768222 0.231047 0.002761
0.804361 0.230477 0.002192
0.834043 0.229924 0.001639
0.858526 0.229388 0.001103
0.878804 0.228868 0.000583
0.895670 0.228365 0.000079
0.909754 0.227877 0.000000
0.921561 0.227406 0.000000
0.931496 0.226951 0.000000
0.939888 0.226512 0.000000
0.947002 0.226089 0.000000
0.953054 0.225682 0.000000
0.004880 0.276300 0.012858
0.036447 0.275795 0.012353
0.068413 0.275284 0.011841
0.101050 0.274761 0.011319
0.134460 0.274227 0.010784
0.168692 0.273679 0.010237
0.203775 0.273118 0.009675
0.239726 0.272543 0.009100
0.276556 0.271953 0.008511
0.314273 0.271350 0.007907
0.352882 0.270732 0.007290
0.392386 0.270100 0.006658
0.432786 0.269454 0.006011
0.474085 0.268793 0.005350
0.516283 0.268118 0.004675
0.558351 0.267444 0.004002
0.599310 0.266789 0.003347
0.639175 0.266151 0.002709
0.677958 0.265531 0.002088
0.721569 0.264927 0.001485
0.766157 0.264341 0.000899
0.802619 0.263771 0.000329
0.832565 0.263219 0.000000
0.857265 0.262682 0.000000
0.877725 0.262162 0.000000
0.894741 0.261659 0.000000
0.908950 0.261172 0.000000
0.920862 0.260701 0.000000
0.930886 0.260245 0.000000
0.939353 0.259806 0.000000
0.946530 0.259383 0.000000
0.952636 0.258976 0.000000
0.002969 0.310461 0.010947
0.034536 0.309956 0.010442
0.066502 0.309444 0.009930
0.099139 0.308922 0.009408
0.132549 0.308387 0.008874
0.166781 0.307840 0.008326
0.201864 0.307278 0.007764
0.237815 0.306703 0.007189
0.274645 0.306114 0.006600
0.312362 0.305510 0.005996
0.350971 0.304893 0.005379
0.390475 0.304260 0.004747
0.430875 0.303614 0.004100
0.472174 0.302953 0.003439
0.514372 0.302278 0.002764
0.556440 0.301605 0.002091
0.597399 0.300950 0.001436
0.637264 0.300312 0.000798
0.676047 0.299691 0.000177
0.719024 0.299088 0.000000
0.764020 0.298502 0.000000
0.800814 0.297932 0.000000
0.831034 0.297379 0.000000
0.855961 0.296843 0.000000
0.876607 0.296323 0.000000
0.893779 0.295819 0.000000
0.908118 0.295332 0.000000
0.920138 0.294861 0.000000
0.930254 0.294406 0.000000
0.938798 0.293967 0.000000
0.946041 0.293544 0.000000
0.952203 0.293136 0.000000
0.001009 0.345488 0.008987
0.032577 0.344983 0.008482
0.064542 0.344472 0.007971
0.097180 0.343950 0.007449
0.130590 0.343415 0.006914
0.164822 0.342867 0.006366
0.199904 0.342306 0.005805
0.235855 0.341731 0.005230
0.272686 0.341142 0.004640
0.310403 0.340538 0.004037
0.349011 0.339920 0.003419
0.388515 0.339288 0.002787
0.428916 0.338642 0.002141
0.470215 0.337981 0.001480
0.512412 0.337306 0.000805
0.554480 0.336633 0.000132
0.595440 0.335977 0.000000
0.635305 0.335340 0.000000
0.674087 0.334719 0.000000
0.716390 0.334116 0.000000
0.761807 0.333529 0.000000
0.798947 0.332960 0.000000
0.829450 0.332407 0.000000
0.854610 0.331871 0.000000
0.875450 0.331351 0.000000
0.892783 0.330847 0.000000
0.907256 0.330360 0.000000
0.919390 0.329889 0.000000
0.929600 0.329434 0.000000
0.938224 0.328995 0.000000
0.945535 0.328571 0.000000
0.951755 0.328164 0.000000
0.000000 0.381384 0.006979
0.030569 0.380879 0.006474
0.062534 0.380367 0.005963
0.095172 0.379845 0.005441
0.128582 0.379311 0.004906
0.162814 0.378763 0.004358
0.197896 0.378201 0.003797
0.233847 0.377626 0.003222
0.270678 0.377037 0.002632
0.308395 0.376434 0.002029
0.347003 0.375816 0.001411
0.386507 0.375184 0.000779
0.426908 0.374537 0.000133
0.468207 0.373877 0.000000
0.510404 0.373201 0.000000
0.552472 0.372528 0.000000
0.593432 0.371873 0.000000
0.633297 0.371235 0.000000
0.672079 0.370615 0.000000
0.713665 0.370011 0.000000
0.759519 0.369425 0.000000
0.797015 0.368855 0.000000
0.827811 0.368302 0.000000
0.853213 0.367766 0.000000
0.874254 0.367246 0.000000
0.891753 0.366743 0.000000
0.906365 0.366255 0.000000
0.918615 0.365784 0.000000
0.928924 0.365329 0.000000
0.937631 0.364890 0.000000
0.945012 0.364467 0.000000
0.951291 0.364060 0.000000
0.000000 0.418147 0.004923
0.028512 0.417642 0.004418
0.060478 0.417131 0.003906
0.093115 0.416609 0.003384
0.126525 0.416074 0.002849
0.160757 0.415526 0.002302
0.195840 0.414965 0.001740
0.231791 0.414390 0.001165
0.268621 0.413801 0.000576
0.306338 0.413197 0.000000
0.344947 0.412579 0.000000
0.384450 0.411947 0.000000
0.424851 0.411301 0.000000
0.466150 0.410640 0.000000
0.508347 0.409965 0.000000
0.550415 0.409292 0.000000
0.591375 0.408636 0.000000
0.631240 0.407999 0.000000
0.670023 0.407378 0.000000
0.710847 0.406775 0.000000
0.757152 0.406188 0.000000
0.795017 0.405619 0.000000
0.826117 0.405066 0.000000
0.851769 0.404530 0.000000
0.873016 0.404010 0.000000
0.890687 0.403506 0.000000
0.905444 0.403019 0.000000
0.917814 0.402548 0.000000
0.928224 0.402093 0.000000
0.937017 0.401654 0.000000
0.944471 0.401230 0.000000
0.950812 0.400823 0.000000
0.000000 0.455779 0.002817
0.026407 0.455274 0.002312
0.058372 0.454763 0.001801
0.091010 0.454240 0.001279
0.124420 0.453706 0.000744
0.158652 0.453158 0.000196
0.193735 0.452597 0.000000
0.229686 0.452022 0.000000
0.266516 0.451432 0.000000
0.304233 0.450829 0.000000
0.342842 0.450211 0.000000
0.382345 0.449579 0.000000
0.422746 0.448933 0.000000
0.464045 0.448272 0.000000
0.506242 0.447597 0.000000
0.548310 0.446923 0.000000
0.589270 0.446268 0.000000
0.629135 0.445630 0.000000
0.667917 0.445010 0.000000
0.707934 0.444406 0.000000
0.754705 0.443820 0.000000
0.792952 0.443250 0.000000
0.824365 0.442698 0.000000
0.850275 0.442161 0.000000
0.871737 0.441641 0.000000
0.889586 0.441138 0.000000
0.904491 0.440651 0.000000
0.916986 0.440180 0.000000
0.927501 0.439724 0.000000
0.936382 0.439285 0.000000
0.943911 0.438862 0.000000
0.950316 0.438455 0.000000
0.000000 0.494279 0.000664
0.024253 0.493774 0.000159
0.056219 0.493263 0.000000
0.088856 0.492740 0.000000
0.122266 0.492206 0.000000
0.156498 0.491658 0.000000
0.191581 0.491097 0.000000
0.227532 0.490522 0.000000
0.264362 0.489932 0.000000
0.302079 0.489329 0.000000
0.340688 0.488711 0.000000
0.380192 0.488079 0.000000
0.420592 0.487433 0.000000
0.461891 0.486772 0.000000
0.504089 0.486097 0.000000
0.546157 0.485423 0.000000
0.587116 0.484768 0.000000
0.626981 0.484130 0.000000
0.665764 0.483510 0.000000
0.704923 0.482906 0.000000
0.752177 0.482320 0.000000
0.790818 0.481750 0.000000
0.822554 0.481198 0.000000
0.848732 0.480661 0.000000
0.870414 0.480141 0.000000
0.888448 0.479638 0.000000
0.903506 0.479151 0.000000
0.916130 0.478680 0.000000
0.926754 0.478225 0.000000
0.935727 0.477785 0.000000
0.943333 0.477362 0.000000
0.949804 0.476955 0.000000
0.000000 0.533352 0.000000
0.022067 0.532847 0.000000
0.054033 0.532336 0.000000
0.086670 0.531814 0.000000
0.120080 0.531279 0.000000
0.154312 0.530731 0.000000
0.189395 0.530170 0.000000
0.225346 0.529595 0.000000
0.262176 0.529005 0.000000
0.299893 0.528402 0.000000
0.338502 0.527784 0.000000
0.378006 0.527152 0.000000
0.418406 0.526506 0.000000
0.459705 0.525845 0.000000
0.501903 0.525170 0.000000
0.543971 0.524497 0.000000
0.584930 0.523841 0.000000
0.624795 0.523204 0.000000
0.663578 0.522583 0.000000
0.701835 0.521980 0.000000
0.749584 0.521393 0.000000
0.788629 0.520824 0.000000
0.820698 0.520271 0.000000
0.847149 0.519735 0.000000
0.869059 0.519215 0.000000
0.887281 0.518711 0.000000
0.902497 0.518224 0.000000
0.915253 0.517753 0.000000
0.925987 0.517298 0.000000
0.935054 0.516859 0.000000
0.942740 0.516435 0.000000
0.949279 0.516028 0.000000
0.000000 0.571671 0.000000
0.019924 0.571166 0.000000
0.051889 0.570655 0.000000
0.084527 0.570132 0.000000
0.117937 0.569598 0.000000
0.152169 0.569050 0.000000
0.187251 0.568489 0.000000
0.223202 0.567914 0.000000
0.260033 0.567324 0.000000
0.297750 0.566721 0.000000
0.336358 0.566103 0.000000
0.375862 0.565471 0.000000
0.416263 0.564825 0.000000
0.457562 0.564164 0.000000
0.499759 0.563489 0.000000
0.541827 0.562815 0.000000
0.582787 0.562160 0.000000
0.622652 0.561522 0.000000
0.661434 0.560902 0.000000
0.699145 0.560298 0.000000
0.747014 0.559712 0.000000
0.786461 0.559142 0.000000
0.818858 0.558590 0.000000
0.845581 0.558053 0.000000
0.867715 0.557533 0.000000
0.886124 0.557030 0.000000
0.901497 0.556543 0.000000
0.914383 0.556072 0.000000
0.925228 0.555616 0.000000
0.934388 0.555177 0.000000
0.942153 0.554754 0.000000
0.948758 0.554347 0.000000
0.000000 0.609077 0.000000
0.017831 0.608572 0.000000
0.049797 0.608060 0.000000
0.082434 0.607538 0.000000
0.115844 0.607004 0.000000
0.150076 0.606456 0.000000
0.185159 0.605895 0.000000
0.221110 0.605319 0.000000
0.257940 0.604730 0.000000
0.295657 0.604127 0.000000
0.334266 0.603509 0.000000
0.373770 0.602877 0.000000
0.414170 0.602230 0.000000
0.455469 0.601570 0.000000
0.497667 0.600894 0.000000
0.539735 0.600221 0.000000
0.580694 0.599566 0.000000
0.620559 0.598928 0.000000
0.659342 0.598308 0.000000
0.697053 0.597704 0.000000
0.744481 0.597118 0.000000
0.784322 0.596548 0.000000
0.817044 0.595995 0.000000
0.844034 0.595459 0.000000
0.866390 0.594939 0.000000
0.884984 0.594436 0.000000
0.900510 0.593948 0.000000
0.913526 0.593477 0.000000
0.924479 0.593022 0.000000
0.933731 0.592583 0.000000
0.941573 0.592160 0.000000
0.948245 0.591753 0.000000
0.000000 0.645572 0.000000
0.015790 0.645067 0.000000
0.047755 0.644556 0.000000
0.080393 0.644034 0.000000
0.113802 0.643499 0.000000
0.148035 0.642951 0.000000
0.183117 0.642390 0.000000
0.219068 0.641815 0.000000
0.255899 0.641225 0.000000
0.293616 0.640622 0.000000
0.332224 0.640004 0.000000
0.371728 0.639372 0.000000
0.412129 0.638726 0.000000
0.453427 0.638065 0.000000
0.495625 0.637390 0.000000
0.537693 0.636717 0.000000
0.578653 0.636061 0.000000
0.618518 0.635424 0.000000
0.657300 0.634803 0.000000
0.695011 0.634200 0.000000
0.741985 0.633613 0.000000
0.782215 0.633044 0.000000
0.815257 0.632491 0.000000
0.842511 0.631955 0.000000
0.865085 0.631435 0.000000
0.883860 0.630931 0.000000
0.899538 0.630444 0.000000
0.912681 0.629973 0.000000
0.923741 0.629518 0.000000
0.933083 0.629079 0.000000
0.941003 0.628655 0.000000
0.947740 0.628248 0.000000
0.000000 0.681160 0.000000
0.013799 0.680655 0.000000
0.045764 0.680143 0.000000
0.078402 0.679621 0.000000
0.111812 0.679087 0.000000
0.146044 0.678539 0.000000
0.181127 0.677978 0.000000
0.217077 0.677402 0.000000
0.253908 0.676813 0.000000
0.291625 0.676210 0.000000
0.330234 0.675592 0.000000
0.369737 0.674960 0.000000
0.410138 0.674313 0.000000
0.451437 0.673653 0.000000
0.493634 0.672977 0.000000
0.535702 0.672304 0.000000
0.576662 0.671649 0.000000
0.616527 0.671011 0.000000
0.655309 0.670391 0.000000
0.693020 0.669787 0.000000
0.739527 0.669201 0.000000
0.780141 0.668631 0.000000
0.813497 0.668078 0.000000
0.841011 0.667542 0.000000
0.863800 0.667022 0.000000
0.882754 0.666519 0.000000
0.898581 0.666032 0.000000
0.911849 0.665560 0.000000
0.923015 0.665105 0.000000
0.932446 0.664666 0.000000
0.940441 0.664243 0.000000
0.947242 0.663836 0.000000
0.000000 0.721799 0.000000
0.011859 0.721129 0.000000
0.043824 0.720449 0.000000
0.076462 0.719753 0.000000
0.109871 0.719038 0.000000
0.144104 0.718305 0.000000
0.179186 0.717551 0.000000
0.215137 0.716776 0.000000
0.251968 0.715980 0.000000
0.289685 0.715163 0.000000
0.328293 0.714324 0.000000
0.367797 0.713463 0.000000
0.408198 0.712579 0.000000
0.449496 0.711673 0.000000
0.491694 0.710745 0.000000
0.533762 0.709816 0.000000
0.574722 0.708909 0.000000
0.614587 0.708024 0.000000
0.653369 0.707160 0.000000
0.691080 0.706317 0.000000
0.737109 0.705496 0.000000
0.778100 0.704696 0.000000
0.811766 0.703918 0.000000
0.839535 0.703160 0.000000
0.862536 0.702425 0.000000
0.881666 0.701710 0.000000
0.897640 0.701018 0.000000
0.911031 0.700346 0.000000
0.922300 0.699787 0.000000
0.931819 0.699348 0.000000
0.939888 0.698925 0.000000
0.946752 0.698518 0.000000
0.000000 0.763134 0.000000
0.009969 0.762563 0.000000
0.041935 0.761984 0.000000
0.074572 0.761392 0.000000
0.107982 0.760784 0.000000
0.142214 0.760159 0.000000
0.177297 0.759517 0.000000
0.213248 0.758857 0.000000
0.250078 0.758180 0.000000
0.287795 0.757484 0.000000
0.326404 0.756769 0.000000
0.365907 0.756036 0.000000
0.406308 0.755284 0.000000
0.447607 0.754513 0.000000
0.489804 0.753722 0.000000
0.531872 0.752932 0.000000
0.572832 0.752159 0.000000
0.612697 0.751406 0.000000
0.651480 0.750670 0.000000
0.689190 0.749952 0.000000
0.734733 0.749253 0.000000
0.776094 0.748572 0.000000
0.810065 0.747909 0.000000
0.838085 0.747265 0.000000
0.861293 0.746638 0.000000
0.880596 0.746030 0.000000
0.896715 0.745440 0.000000
0.910227 0.744869 0.000000
0.921598 0.744315 0.000000
0.931203 0.743780 0.000000
0.939345 0.743263 0.000000
0.946271 0.742765 0.000000
0.000000 0.797460 0.000000
0.008130 0.796972 0.000000
0.040095 0.796477 0.000000
0.072733 0.795970 0.000000
0.106143 0.795450 0.000000
0.140375 0.794916 0.000000
0.175458 0.794367 0.000000
0.211408 0.793803 0.000000
0.248239 0.793224 0.000000
0.285956 0.792628 0.000000
0.324565 0.792018 0.000000
0.364068 0.791391 0.000000
0.404469 0.790748 0.000000
0.445768 0.790088 0.000000
0.487965 0.789412 0.000000
0.530033 0.788736 0.000000
0.570993 0.788076 0.000000
0.610858 0.787431 0.000000
0.649640 0.786802 0.000000
0.687351 0.786189 0.000000
0.732400 0.785591 0.000000
0.774125 0.785008 0.000000
0.808394 0.784442 0.000000
0.836660 0.783890 0.000000
0.860073 0.783355 0.000000
0.879546 0.782835 0.000000
0.895806 0.782330 0.000000
0.909437 0.781841 0.000000
0.920908 0.781368 0.000000
0.930597 0.780910 0.000000
0.938811 0.780469 0.000000
0.945798 0.780042 0.000000
0.000000 0.826067 0.000000
0.006341 0.825649 0.000000
0.038307 0.825223 0.000000
0.070944 0.824788 0.000000
0.104354 0.824342 0.000000
0.138586 0.823883 0.000000
0.173669 0.823412 0.000000
0.209620 0.822927 0.000000
0.246450 0.822430 0.000000
0.284167 0.821919 0.000000
0.322776 0.821394 0.000000
0.362279 0.820856 0.000000
0.402680 0.820303 0.000000
0.443979 0.819737 0.000000
0.486176 0.819156 0.000000
0.528244 0.818576 0.000000
0.569204 0.818009 0.000000
0.609069 0.817455 0.000000
0.647851 0.816915 0.000000
0.685562 0.816388 0.000000
0.730111 0.815875 0.000000
0.772192 0.815375 0.000000
0.806755 0.814888 0.000000
0.835263 0.814415 0.000000
0.858876 0.813955 0.000000
0.878515 0.813508 0.000000
0.894915 0.813075 0.000000
0.908663 0.812655 0.000000
0.920232 0.812249 0.000000
0.930004 0.811856 0.000000
0.938288 0.811476 0.000000
0.945334 0.811110 0.000000
0.000000 0.849994 0.000000
0.004602 0.849633 0.000000
0.036568 0.849266 0.000000
0.069205 0.848891 0.000000
0.102615 0.848506 0.000000
0.136847 0.848110 0.000000
0.171930 0.847704 0.000000
0.207881 0.847286 0.000000
0.244711 0.846857 0.000000
0.282428 0.846416 0.000000
0.321037 0.845964 0.000000
0.360541 0.845499 0.000000
0.400941 0.845023 0.000000
0.442240 0.844535 0.000000
0.484438 0.844034 0.000000
0.526506 0.843533 0.000000
0.567466 0.843044 0.000000
0.607331 0.842567 0.000000
0.646113 0.842101 0.000000
0.683824 0.841647 0.000000
0.727867 0.841204 0.000000
0.770299 0.840773 0.000000
0.805148 0.840353 0.000000
0.833893 0.839945 0.000000
0.857703 0.839548 0.000000
0.877505 0.839163 0.000000
0.894041 0.838789 0.000000
0.907903 0.838427 0.000000
0.919569 0.838077 0.000000
0.929422 0.837738 0.000000
0.937775 0.837410 0.000000
0.944880 0.837095 0.000000
0.000000 0.870076 0.000000
0.002914 0.869763 0.000000
0.034880 0.869446 0.000000
0.067517 0.869121 0.000000
0.100927 0.868787 0.000000
0.135159 0.868444 0.000000
0.170242 0.868092 0.000000
0.206193 0.867730 0.000000
0.243023 0.867359 0.000000
0.280740 0.866977 0.000000
0.319349 0.866585 0.000000
0.358852 0.866183 0.000000
0.399253 0.865770 0.000000
0.440552 0.865347 0.000000
0.482749 0.864914 0.000000
0.524817 0.864480 0.000000
0.565777 0.864057 0.000000
0.605642 0.863643 0.000000
0.644424 0.863240 0.000000
0.682135 0.862846 0.000000
0.725670 0.862463 0.000000
0.768444 0.862089 0.000000
0.803575 0.861725 0.000000
0.832553 0.861372 0.000000
0.856554 0.861028 0.000000
0.876517 0.860695 0.000000
0.893186 0.860371 0.000000
0.907160 0.860057 0.000000
0.918919 0.859754 0.000000
0.928852 0.859460 0.000000
0.937272 0.859177 0.000000
0.944435 0.858903 0.000000
0.000000 0.886989 0.000000
0.001276 0.886717 0.000000
0.033241 0.886441 0.000000
0.065879 0.886158 0.000000
0.099288 0.885868 0.000000
0.133521 0.885570 0.000000
0.168603 0.885263 0.000000
0.204554 0.884949 0.000000
0.241385 0.884625 0.000000
0.279102 0.884293 0.000000
0.317710 0.883952 0.000000
0.357214 0.883603 0.000000
0.397615 0.883244 0.000000
0.438913 0.882876 0.000000
0.481111 0.882499 0.000000
0.523179 0.882121 0.000000
0.564139 0.881753 0.000000
0.604004 0.881393 0.000000
0.642786 0.881042 0.000000
0.680497 0.880700 0.000000
0.723521 0.880366 0.000000
0.766631 0.880041 0.000000
0.802037 0.879725 0.000000
0.831241 0.879418 0.000000
0.855431 0.879119 0.000000
0.875549 0.878829 0.000000
0.892349 0.878547 0.000000
0.906433 0.878274 0.000000
0.918284 0.878010 0.000000
0.928295 0.877755 0.000000
0.936781 0.877508 0.000000
0.944000 0.877270 0.000000
0.000000 0.901281 0.000000
0.000000 0.901043 0.000000
0.031653 0.900802 0.000000
0.064290 0.900555 0.000000
0.097700 0.900301 0.000000
0.131932 0.900041 0.000000
0.167015 0.899773 0.000000
0.202966 0.899498 0.000000
0.239796 0.899216 0.000000
0.277513 0.898926 0.000000
0.316122 0.898628 0.000000
0.355626 0.898323 0.000000
0.396026 0.898009 0.000000
0.437325 0.897688 0.000000
0.479523 0.897358 0.000000
0.521591 0.897029 0.000000
0.562550 0.896707 0.000000
0.602415 0.896393 0.000000
0.641198 0.896086 0.000000
