assets/luts/fuji.cube
# Beauty Camera 3D LUT
# Filter: Fuji (fuji)
# Category: Film
TITLE "Fuji"
LUT_3D_SIZE 8
DOMAIN_MIN 0.000000 0.000000 0.000000
DOMAIN_MAX 0.903226 0.903226 0.903226
0.007609 0.008774 0.020962
0.126307 0.006007 0.018196
0.262843 0.002825 0.015013
0.417217 0.000000 0.011415
0.588394 0.000000 0.007425
0.765817 0.000000 0.003611
0.883030 0.000000 0.000213
0.936397 0.000000 0.000000
0.000000 0.126257 0.011213
0.116558 0.123490 0.008446
0.253093 0.120308 0.005263
0.407467 0.116709 0.001665
0.578645 0.112719 0.000000
0.754688 0.108905 0.000000
0.877472 0.105507 0.000000
0.933374 0.102525 0.000000
0.000000 0.257237 0.000343
0.105688 0.254470 0.000000
0.242224 0.251288 0.000000
0.396598 0.247689 0.000000
0.567775 0.243699 0.000000
0.741656 0.239886 0.000000
0.870963 0.236488 0.000000
0.929835 0.233505 0.000000
0.000000 0.403064 0.000000
0.093586 0.400297 0.000000
0.230122 0.397114 0.000000
0.384496 0.393516 0.000000
0.555673 0.389526 0.000000
0.726331 0.385712 0.000000
0.863308 0.382314 0.000000
0.925672 0.379332 0.000000
0.000000 0.562572 0.000000
0.080349 0.559805 0.000000
0.216885 0.556623 0.000000
0.371259 0.553024 0.000000
0.542436 0.549034 0.000000
0.708525 0.545220 0.000000
0.854414 0.541822 0.000000
0.920836 0.538840 0.000000
0.000000 0.718177 0.000000
0.067855 0.714439 0.000000
0.204390 0.710079 0.000000
0.358765 0.705068 0.000000
0.529942 0.699588 0.000000
0.693560 0.695774 0.000000
0.845490 0.692376 0.000000
0.915984 0.689394 0.000000
0.000000 0.850937 0.000000
0.056755 0.848960 0.000000
0.193291 0.846654 0.000000
0.347665 0.844003 0.000000
0.518842 0.841011 0.000000
0.682460 0.838097 0.000000
0.837103 0.835456 0.000000
0.911423 0.833103 0.000000
0.000000 0.914746 0.000000
0.047018 0.913615 0.000000
0.183553 0.912296 0.000000
0.337928 0.910780 0.000000
0.509105 0.909069 0.000000
0.672723 0.907402 0.000000
0.829372 0.905892 0.000000
0.907219 0.904546 0.000000
0.006540 0.007705 0.158156
0.125238 0.004938 0.155389
0.261774 0.001755 0.152206
0.416148 0.000000 0.148608
0.587325 0.000000 0.144618
0.764621 0.000000 0.140804
0.882433 0.000000 0.137406
0.936072 0.000000 0.134424
0.000000 0.125187 0.148406
0.115488 0.122421 0.145639
0.252024 0.119238 0.142457
0.406398 0.115640 0.138858
0.577575 0.111650 0.134868
0.753435 0.107836 0.131054
0.876846 0.104438 0.127656
0.933034 0.101455 0.124674
0.000000 0.256168 0.137536
0.073548 0.254408 0.100076
0.241154 0.250218 0.131587
0.395528 0.246620 0.127988
0.566705 0.242630 0.123998
0.740337 0.238816 0.120185
0.870304 0.235418 0.116786
0.929476 0.232436 0.113804
0.000000 0.401994 0.125434
0.031483 0.401208 0.054126
0.193792 0.397425 0.050343
0.383426 0.392446 0.115887
0.554603 0.388456 0.111897
0.724933 0.384642 0.108083
0.862610 0.381244 0.104685
0.925293 0.378262 0.101702
0.000000 0.561503 0.112197
0.000000 0.561659 0.007762
0.146126 0.558006 0.004108
0.330732 0.553703 0.000000
0.541366 0.547965 0.098659
0.707037 0.544151 0.094845
0.853671 0.540753 0.091447
0.920432 0.537771 0.088465
0.000000 0.716738 0.099703
0.000000 0.718177 0.000000
0.100316 0.713408 0.000000
0.279348 0.707656 0.000000
0.486251 0.700865 0.000000
0.692490 0.694704 0.082351
0.844701 0.691306 0.078953
0.915555 0.688324 0.075971
0.000000 0.850176 0.088603
0.000000 0.850937 0.000000
0.082635 0.848526 0.000000
0.252900 0.845636 0.000000
0.448852 0.842241 0.000000
0.651163 0.838659 0.000000
0.836272 0.834616 0.067854
0.910971 0.832251 0.064871
0.000000 0.914311 0.078866
0.000000 0.914746 0.000000
0.068535 0.913409 0.000000
0.233029 0.911813 0.000000
0.421804 0.909946 0.000000
0.620165 0.907941 0.000000
0.828501 0.905411 0.058116
0.906746 0.904058 0.055134
0.005360 0.006525 0.309472
0.124058 0.003758 0.306706
0.260594 0.000576 0.303523
0.414968 0.000000 0.299925
0.586145 0.000000 0.295935
0.763295 0.000000 0.292121
0.881771 0.000000 0.288723
0.935712 0.000000 0.285740
0.000000 0.124008 0.299723
0.114308 0.121241 0.296956
0.250844 0.118058 0.293773
0.405218 0.114460 0.290175
0.576395 0.110470 0.286185
0.752046 0.106656 0.282371
0.876152 0.103258 0.278973
0.932657 0.100276 0.275991
0.000000 0.254988 0.288853
0.072092 0.252952 0.286817
0.239974 0.249039 0.282904
0.394348 0.245440 0.279305
0.565526 0.241450 0.275315
0.738874 0.237636 0.271501
0.869573 0.234238 0.268103
0.929079 0.231256 0.265121
0.000000 0.400814 0.276751
0.030065 0.399790 0.236103
0.192373 0.396006 0.232320
0.382247 0.391267 0.267203
0.553424 0.387277 0.263213
0.723384 0.383463 0.259400
0.861836 0.380065 0.256002
0.924872 0.377082 0.253019
0.000000 0.560323 0.263514
0.000000 0.560275 0.185229
0.144743 0.556622 0.181576
0.329349 0.552319 0.177273
0.540186 0.546785 0.249976
0.705386 0.542971 0.246162
0.852847 0.539573 0.242764
0.919984 0.536591 0.239782
0.000000 0.715142 0.251020
0.000000 0.716355 0.136061
0.098963 0.711556 0.132538
0.277995 0.705767 0.128365
0.484898 0.699253 0.123542
0.691311 0.693525 0.233668
0.843826 0.690127 0.230270
0.915079 0.687144 0.227288
0.000000 0.849332 0.239920
0.000000 0.850014 0.117613
0.055685 0.848189 0.085837
0.229142 0.845238 0.081793
0.430472 0.841740 0.077100
0.642158 0.837978 0.072166
0.835349 0.833684 0.219170
0.910470 0.831306 0.216188
0.000000 0.913828 0.230183
0.000000 0.914234 0.102999
0.014877 0.913589 0.041406
0.182760 0.911964 0.037492
0.378515 0.910030 0.032929
0.592350 0.907869 0.027945
0.797883 0.905899 0.023502
0.906220 0.903518 0.206451
0.004055 0.005220 0.476879
0.122753 0.002453 0.474113
0.259289 0.000000 0.470930
0.413663 0.000000 0.467332
0.584840 0.000000 0.463342
0.761819 0.000000 0.459528
0.881034 0.000000 0.456130
0.935311 0.000000 0.453147
0.000000 0.122703 0.467130
0.113003 0.119936 0.464363
0.249539 0.116753 0.461180
0.403913 0.113155 0.457582
0.575090 0.109165 0.453592
0.750500 0.105351 0.449778
0.875380 0.101953 0.446380
0.932237 0.098971 0.443398
0.000000 0.253683 0.456260
0.043387 0.218228 0.457760
0.238669 0.247734 0.450311
0.393043 0.244135 0.446712
0.564220 0.240145 0.442722
0.737246 0.236331 0.438908
0.868760 0.232933 0.435510
0.928637 0.229951 0.432528
0.000000 0.399509 0.444158
0.028453 0.398178 0.442827
0.190761 0.394395 0.439043
0.380942 0.389962 0.434610
0.552119 0.385972 0.430620
0.721659 0.382158 0.426807
0.860975 0.378760 0.423408
0.924404 0.375777 0.420426
0.000000 0.559018 0.430921
0.000000 0.558703 0.386889
0.143171 0.555050 0.383236
0.327777 0.550747 0.378933
0.538881 0.545480 0.417383
0.703550 0.541666 0.413569
0.851929 0.538268 0.410171
0.919485 0.535286 0.407189
0.000000 0.713366 0.418427
0.000000 0.714277 0.332688
0.097430 0.709443 0.329165
0.276462 0.703611 0.324992
0.483365 0.697720 0.320169
0.690005 0.692220 0.401075
0.842852 0.688822 0.397677
0.914549 0.685839 0.394695
0.000000 0.848393 0.407327
0.000000 0.848968 0.304930
0.054191 0.847105 0.277480
0.227648 0.844133 0.273437
0.428978 0.840610 0.268744
0.640664 0.836821 0.263810
0.834323 0.832647 0.386577
0.909911 0.830254 0.383595
0.000000 0.913291 0.397590
0.000000 0.913655 0.284177
0.013422 0.912988 0.228147
0.181304 0.911352 0.224234
0.377059 0.909404 0.219671
0.590894 0.907228 0.214686
0.796477 0.905245 0.210244
0.905636 0.902916 0.373858
0.002669 0.003834 0.654648
0.121367 0.001067 0.651881
0.257903 0.000000 0.648698
0.412277 0.000000 0.645100
0.583454 0.000000 0.641110
0.760242 0.000000 0.637296
0.880246 0.000000 0.633898
0.934883 0.000000 0.630916
0.000000 0.121317 0.644898
0.111617 0.118550 0.642131
0.248153 0.115367 0.638949
0.402527 0.111769 0.635350
0.573704 0.107779 0.631360
0.748848 0.103965 0.627546
0.874555 0.100567 0.624148
0.931788 0.097585 0.621166
0.000000 0.252297 0.634028
0.015639 0.184322 0.638963
0.237283 0.246348 0.628079
0.391657 0.242749 0.624481
0.562835 0.238759 0.620491
0.735506 0.234945 0.616677
0.867891 0.231547 0.613279
0.928164 0.228565 0.610296
0.000000 0.398123 0.621927
0.001092 0.359610 0.624416
0.157826 0.355957 0.620762
0.379556 0.388576 0.612379
0.550733 0.384586 0.608389
0.719816 0.380772 0.604575
0.860054 0.377374 0.601177
0.923903 0.374391 0.598195
0.000000 0.557632 0.608689
0.000000 0.556979 0.608037
0.141447 0.553326 0.604383
0.326053 0.549023 0.600080
0.537495 0.544094 0.595151
0.701587 0.540280 0.591338
0.850949 0.536882 0.587940
0.918952 0.533900 0.584957
0.000000 0.711468 0.596195
0.000000 0.711933 0.552829
0.095714 0.707058 0.549305
0.274746 0.701179 0.545132
0.481649 0.696004 0.540309
0.688620 0.690834 0.578844
0.841812 0.687436 0.575445
0.913984 0.684453 0.572463
0.000000 0.847389 0.585095
0.000000 0.847785 0.515088
0.052501 0.845869 0.494300
0.225958 0.842873 0.490257
0.427287 0.839322 0.485564
0.638974 0.835502 0.480629
0.833226 0.831539 0.564346
0.909315 0.829130 0.561363
0.000000 0.912716 0.575358
0.000000 0.913001 0.487329
0.011770 0.912301 0.439953
0.179653 0.910652 0.436040
0.375408 0.908689 0.431477
0.589243 0.906496 0.426493
0.794871 0.904497 0.422050
0.905011 0.902274 0.551626
0.001415 0.002580 0.826912
0.120113 0.000000 0.824617
0.256649 0.000000 0.821939
0.411023 0.000000 0.818861
0.582200 0.000000 0.815387
0.758806 0.000000 0.812003
0.879529 0.000000 0.808936
0.934493 0.000000 0.806204
0.000000 0.120063 0.818687
0.110363 0.117296 0.816282
0.246899 0.114113 0.813477
0.401273 0.110515 0.810253
0.572450 0.106525 0.806613
0.747344 0.102711 0.803069
0.873804 0.099313 0.799857
0.931380 0.096331 0.796994
0.000000 0.251043 0.809055
0.000000 0.151440 0.816425
0.236029 0.245094 0.803568
0.390403 0.241495 0.800173
0.561581 0.237505 0.796340
0.733922 0.233691 0.792607
0.867100 0.230293 0.789224
0.927734 0.227311 0.786210
0.000000 0.396869 0.797728
0.000000 0.322085 0.803618
0.126060 0.318562 0.800295
0.378302 0.387322 0.788319
0.549479 0.383332 0.784259
0.718138 0.379518 0.780305
0.859216 0.376120 0.776721
0.923447 0.373137 0.773528
0.000000 0.556378 0.784567
0.000000 0.516056 0.787973
0.109962 0.512533 0.784385
0.288994 0.508360 0.780058
0.536241 0.542840 0.770222
0.699860 0.539026 0.766011
0.850056 0.535628 0.762194
0.918467 0.532646 0.758792
0.000000 0.709740 0.771361
0.000000 0.709740 0.771361
0.094122 0.704829 0.767493
0.273154 0.699235 0.762826
0.480057 0.694412 0.757316
0.687366 0.689580 0.751667
0.840865 0.686182 0.747616
0.913468 0.683199 0.744006
0.000000 0.846475 0.758951
0.000000 0.846649 0.721162
0.050860 0.844660 0.706817
0.224317 0.841640 0.701118
0.425646 0.838061 0.696091
0.637333 0.834211 0.691157
0.832227 0.830530 0.733917
0.908772 0.828107 0.730111
0.000000 0.912194 0.747511
0.000000 0.912361 0.684800
0.010084 0.911594 0.656239
0.177967 0.909932 0.652325
0.373722 0.907953 0.647762
0.587557 0.905742 0.642778
0.793217 0.903727 0.638335
0.904442 0.901688 0.717302
0.000313 0.001478 0.911693
0.119011 0.000000 0.910522
0.255547 0.000000 0.909156
0.409921 0.000000 0.907585
0.581098 0.000000 0.905813
0.757537 0.000000 0.904087
0.878895 0.000000 0.902522
0.934148 0.000000 0.901128
0.000000 0.118961 0.907497
0.109262 0.116194 0.906270
0.245797 0.113012 0.904838
0.400171 0.109413 0.903194
0.571349 0.105423 0.901337
0.746015 0.101609 0.899529
0.873140 0.098211 0.897890
0.931019 0.095229 0.896429
0.000000 0.249941 0.902582
0.000000 0.143991 0.906577
0.234928 0.243992 0.899783
0.389302 0.240393 0.898051
0.560479 0.236403 0.896096
0.732523 0.232590 0.894191
0.866401 0.229192 0.892465
0.927354 0.226209 0.890927
0.000000 0.395768 0.896804
0.000000 0.306476 0.900382
0.095483 0.282229 0.899914
0.377200 0.386220 0.892003
0.548377 0.382230 0.889932
0.716656 0.378416 0.887915
0.858476 0.375018 0.886086
0.923045 0.372036 0.884457
0.000000 0.555276 0.890089
0.000000 0.490457 0.892869
0.079773 0.471534 0.892139
0.253230 0.467491 0.890042
0.535140 0.541738 0.882770
0.698758 0.537925 0.880622
0.849267 0.534526 0.878675
0.918038 0.531544 0.876939
0.000000 0.708213 0.883352
0.000000 0.677078 0.884670
0.063550 0.667017 0.883476
0.237007 0.662974 0.881211
0.438336 0.658281 0.878527
0.686264 0.688478 0.873304
0.840027 0.685080 0.871237
0.913013 0.682098 0.869396
0.000000 0.845667 0.877020
0.000000 0.845667 0.877020
0.049459 0.843620 0.875389
0.222916 0.840580 0.872967
0.424245 0.836978 0.870096
0.635932 0.833102 0.867008
0.831344 0.829639 0.864248
0.908292 0.827202 0.862307
0.000000 0.911732 0.871184
0.000000 0.911805 0.856800
0.008636 0.910983 0.847402
0.176519 0.909308 0.844532
0.372274 0.907316 0.841117
0.586109 0.905090 0.837300
0.791786 0.903061 0.833822
0.903939 0.901171 0.855772
0.000000 0.000523 0.950719
0.118056 0.000000 0.950065
0.254592 0.000000 0.949303
0.408966 0.000000 0.948427
0.580143 0.000000 0.947437
0.756432 0.000000 0.946474
0.878343 0.000000 0.945601
0.933848 0.000000 0.944823
0.000000 0.118006 0.948377
0.108307 0.115239 0.947692
0.244843 0.112057 0.946894
0.399217 0.108458 0.945976
0.570394 0.104468 0.944939
0.744858 0.100654 0.943930
0.872562 0.097256 0.943016
0.930704 0.094274 0.942201
0.000000 0.248986 0.945635
0.000000 0.138824 0.947951
0.233973 0.243037 0.944072
0.388347 0.239439 0.943106
0.559524 0.235449 0.942014
0.731304 0.231635 0.940952
0.865792 0.228237 0.939989
0.927023 0.225254 0.939130
0.000000 0.394813 0.942410
0.000000 0.295933 0.944617
0.066090 0.246950 0.945105
0.376245 0.385265 0.939731
0.547422 0.381275 0.938575
0.715364 0.377461 0.937449
0.857831 0.374063 0.936429
0.922694 0.371081 0.935519
0.000000 0.554321 0.938663
0.000000 0.473346 0.940594
0.050769 0.431574 0.940950
0.218651 0.427661 0.939839
0.534185 0.540783 0.934578
0.697803 0.536970 0.933379
0.848580 0.533572 0.932292
0.917664 0.530589 0.931324
0.000000 0.706884 0.934903
0.000000 0.656580 0.936133
0.034327 0.629691 0.936141
0.202210 0.625778 0.934940
0.397965 0.621215 0.933511
0.685309 0.687523 0.929295
0.839298 0.684125 0.928142
0.912617 0.681143 0.927114
0.000000 0.844964 0.931369
0.000000 0.828542 0.931940
0.019803 0.817784 0.931568
0.187686 0.814357 0.930281
0.383441 0.810279 0.928750
0.597276 0.805722 0.927038
0.830576 0.828863 0.924242
0.907874 0.826415 0.923158
0.000000 0.911330 0.928112
0.000000 0.911330 0.928112
0.007420 0.910466 0.927412
0.175303 0.908782 0.926046
0.371057 0.906778 0.924422
0.584893 0.904539 0.922606
0.790577 0.902498 0.920952
0.903502 0.900721 0.919511
