assets/luts/fuji.cube
# Beauty Camera 3D LUT
# Filter: Fuji (fuji)
# Category: Film
TITLE "Fuji"
LUT_3D_SIZE 5
DOMAIN_MIN 0.000000 0.000000 0.000000
DOMAIN_MAX 0.903226 0.903226 0.903226
0.007609 0.008774 0.020962
0.227037 0.003659 0.015848
0.501093 0.000000 0.009460
0.804689 0.000000 0.002722
0.936397 0.000000 0.000000
0.000000 0.223113 0.003175
0.209249 0.217999 0.000000
0.483306 0.211610 0.000000
0.787425 0.204873 0.000000
0.930774 0.199381 0.000000
0.000000 0.481597 0.000000
0.187798 0.476482 0.000000
0.461855 0.470094 0.000000
0.764563 0.463356 0.000000
0.923329 0.457865 0.000000
0.000000 0.761437 0.000000
0.165680 0.755556 0.000000
0.439737 0.748005 0.000000
0.738412 0.739790 0.000000
0.914814 0.732895 0.000000
0.000000 0.914746 0.000000
0.147747 0.912644 0.000000
0.421804 0.909946 0.000000
0.715093 0.907010 0.000000
0.907219 0.904546 0.000000
0.005667 0.006831 0.270156
0.225094 0.001717 0.265041
0.499151 0.000000 0.258653
0.802874 0.000000 0.251915
0.935805 0.000000 0.246424
0.000000 0.221171 0.252368
0.207306 0.216056 0.247253
0.481363 0.209668 0.240865
0.785449 0.202930 0.234128
0.930131 0.197439 0.228636
0.000000 0.479654 0.230917
0.126395 0.476455 0.160799
0.459912 0.468151 0.219414
0.762375 0.461414 0.212677
0.922617 0.455922 0.207185
0.000000 0.759220 0.208799
0.048207 0.757626 0.076575
0.365170 0.748947 0.069186
0.735981 0.737371 0.190559
0.914022 0.730413 0.185067
0.000000 0.913953 0.190866
0.000000 0.914087 0.000000
0.277489 0.911179 0.000000
0.642945 0.907502 0.000000
0.906357 0.903659 0.167134
0.003355 0.004520 0.566619
0.222783 0.000000 0.561504
0.496839 0.000000 0.555116
0.800692 0.000000 0.548379
0.935095 0.000000 0.542887
0.000000 0.218859 0.548831
0.204995 0.213745 0.543717
0.479052 0.207357 0.537328
0.783075 0.200619 0.530591
0.929358 0.195127 0.525099
0.000000 0.477343 0.527380
0.123566 0.473626 0.523664
0.457601 0.465840 0.515877
0.759745 0.459102 0.509140
0.921761 0.453611 0.503648
0.000000 0.756556 0.505262
0.045497 0.754478 0.424129
0.362461 0.745686 0.416740
0.733059 0.734465 0.487022
0.913070 0.727429 0.481530
0.000000 0.913001 0.487329
0.000000 0.913020 0.331744
0.274897 0.910076 0.324754
0.640353 0.906353 0.316235
0.905321 0.902592 0.463597
0.001126 0.002290 0.854964
0.220553 0.000000 0.851388
0.494610 0.000000 0.846798
0.798565 0.000000 0.841803
0.934402 0.000000 0.837611
0.000000 0.216630 0.842144
0.202766 0.211515 0.838252
0.476822 0.205127 0.833256
0.780759 0.198390 0.827820
0.928604 0.192898 0.823257
0.000000 0.475113 0.825167
0.070492 0.403793 0.827910
0.455371 0.463610 0.815323
0.757181 0.456873 0.809302
0.920925 0.451381 0.804249
0.000000 0.753957 0.805748
0.042654 0.751131 0.803517
0.359617 0.742219 0.796481
0.730210 0.731631 0.788121
0.912142 0.724520 0.782507
0.000000 0.912073 0.788431
0.000000 0.911801 0.709005
0.271976 0.908816 0.699410
0.637432 0.905041 0.690891
0.904310 0.901553 0.763118
0.000000 0.000523 0.950719
0.218786 0.000000 0.949504
0.492843 0.000000 0.947944
0.796862 0.000000 0.946247
0.933848 0.000000 0.944823
0.000000 0.214862 0.946363
0.200998 0.209748 0.945040
0.475055 0.203360 0.943343
0.778906 0.196622 0.941496
0.928000 0.191130 0.939946
0.000000 0.473346 0.940594
0.021056 0.337214 0.943368
0.453604 0.461843 0.937250
0.755128 0.455105 0.935204
0.920257 0.449614 0.933487
0.000000 0.751878 0.933996
0.000000 0.676780 0.935235
0.292768 0.669790 0.933043
0.727930 0.729363 0.928007
0.911400 0.722192 0.926099
0.000000 0.911330 0.928112
0.000000 0.910839 0.927714
0.269696 0.907821 0.925267
0.635152 0.904005 0.922174
0.903502 0.900721 0.919511
