assets/luts/fuji.cube
# Beauty Camera 3D LUT
# Filter: Fuji (fuji)
# Category: Film
TITLE "Fuji"
LUT_3D_SIZE 32
DOMAIN_MIN 0.0 0.0 0.0
DOMAIN_MAX 1.0 1.0 1.0
0.007609 0.008774 0.020962
0.035612 0.008121 0.020310
0.064729 0.007443 0.019631
0.094960 0.006738 0.018926
0.126307 0.006007 0.018196
0.158769 0.005251 0.017439
0.192345 0.004468 0.016656
0.227037 0.003659 0.015848
0.262843 0.002825 0.015013
0.299764 0.001964 0.014152
0.337800 0.001078 0.013266
0.376951 0.000165 0.012353
0.417217 0.000000 0.011415
0.458598 0.000000 0.010450
0.501093 0.000000 0.009460
0.544704 0.000000 0.008443
0.588394 0.000000 0.007425
0.630971 0.000000 0.006432
0.672433 0.000000 0.005466
0.717713 0.000000 0.004525
0.765817 0.000000 0.003611
0.804689 0.000000 0.002722
0.836242 0.000000 0.001860
0.861966 0.000000 0.001023
0.883030 0.000000 0.000213
0.900353 0.000000 0.000000
0.914657 0.000000 0.000000
0.926520 0.000000 0.000000
0.936397 0.000000 0.000000
0.944653 0.000000 0.000000
0.951581 0.000000 0.000000
0.957416 0.000000 0.000000
0.005249 0.037213 0.018602
0.033251 0.036560 0.017950
0.062368 0.035881 0.017271
0.092600 0.035177 0.016566
0.123947 0.034446 0.015836
0.156409 0.033689 0.015079
0.189985 0.032907 0.014296
0.224677 0.032098 0.013488
0.260483 0.031263 0.012653
0.297404 0.030403 0.011792
0.335440 0.029516 0.010906
0.374591 0.028604 0.009993
0.414857 0.027665 0.009055
0.456238 0.026700 0.008090
0.498733 0.025710 0.007100
0.542344 0.024693 0.006083
0.586034 0.023675 0.005065
0.628611 0.022683 0.004072
0.670073 0.021716 0.003106
0.714523 0.020776 0.002165
0.763170 0.019861 0.001251
0.802482 0.018973 0.000362
0.834391 0.018110 0.000000
0.860406 0.017274 0.000000
0.881708 0.016463 0.000000
0.899226 0.015679 0.000000
0.913693 0.014920 0.000000
0.925689 0.014187 0.000000
0.935678 0.013481 0.000000
0.944027 0.012800 0.000000
0.951034 0.012146 0.000000
0.956935 0.011517 0.000000
0.002851 0.066111 0.016204
0.030853 0.065458 0.015552
0.059970 0.064779 0.014873
0.090202 0.064075 0.014168
0.121549 0.063344 0.013437
0.154011 0.062587 0.012681
0.187587 0.061805 0.011898
0.222279 0.060996 0.011089
0.258085 0.060161 0.010255
0.295006 0.059301 0.009394
0.333042 0.058414 0.008508
0.372193 0.057502 0.007595
0.412459 0.056563 0.006656
0.453840 0.055598 0.005692
0.496335 0.054608 0.004701
0.539946 0.053591 0.003685
0.583636 0.052573 0.002666
0.626213 0.051581 0.001674
0.667675 0.050614 0.000708
0.711244 0.049674 0.000000
0.760450 0.048759 0.000000
0.800213 0.047871 0.000000
0.832489 0.047008 0.000000
0.858803 0.046172 0.000000
0.880350 0.045361 0.000000
0.898069 0.044576 0.000000
0.912702 0.043818 0.000000
0.924836 0.043085 0.000000
0.934939 0.042379 0.000000
0.943384 0.041698 0.000000
0.950471 0.041044 0.000000
0.956440 0.040415 0.000000
0.000390 0.095763 0.013743
0.028393 0.095110 0.013091
0.057510 0.094431 0.012412
0.087741 0.093727 0.011707
0.119088 0.092996 0.010977
0.151550 0.092239 0.010220
0.185126 0.091457 0.009437
0.219818 0.090648 0.008629
0.255624 0.089813 0.007794
0.292545 0.088953 0.006933
0.330581 0.088066 0.006047
0.369732 0.087154 0.005134
0.409998 0.086215 0.004196
0.451379 0.085251 0.003231
0.493874 0.084260 0.002241
0.537485 0.083243 0.001224
0.581175 0.082225 0.000206
0.623752 0.081233 0.000000
0.665214 0.080266 0.000000
0.707840 0.079326 0.000000
0.757626 0.078411 0.000000
0.797858 0.077523 0.000000
0.830514 0.076660 0.000000
0.857139 0.075824 0.000000
0.878940 0.075013 0.000000
0.896867 0.074229 0.000000
0.911673 0.073470 0.000000
0.923950 0.072737 0.000000
0.934172 0.072031 0.000000
0.942717 0.071350 0.000000
0.949887 0.070696 0.000000
0.955927 0.070067 0.000000
0.000000 0.126257 0.011213
0.025862 0.125604 0.010560
0.054979 0.124926 0.009881
0.085211 0.124221 0.009177
0.116558 0.123490 0.008446
0.149019 0.122734 0.007689
0.182596 0.121951 0.006907
0.217287 0.121142 0.006098
0.253093 0.120308 0.005263
0.290015 0.119447 0.004403
0.328051 0.118560 0.003516
0.367202 0.117648 0.002604
0.407467 0.116709 0.001665
0.448848 0.115745 0.000701
0.491344 0.114754 0.000000
0.534954 0.113738 0.000000
0.578645 0.112719 0.000000
0.621221 0.111727 0.000000
0.662683 0.110760 0.000000
0.704298 0.109820 0.000000
0.754688 0.108905 0.000000
0.795407 0.108017 0.000000
0.828460 0.107154 0.000000
0.855407 0.106318 0.000000
0.877472 0.105507 0.000000
0.895617 0.104723 0.000000
0.910602 0.103964 0.000000
0.923028 0.103232 0.000000
0.933374 0.102525 0.000000
0.942023 0.101844 0.000000
0.949280 0.101190 0.000000
0.955392 0.100561 0.000000
0.000000 0.157634 0.008609
0.023258 0.156981 0.007956
0.052375 0.156302 0.007278
0.082607 0.155598 0.006573
0.113954 0.154867 0.005842
0.146415 0.154110 0.005085
0.179992 0.153328 0.004303
0.214683 0.152519 0.003494
0.250490 0.151684 0.002660
0.287411 0.150824 0.001799
0.325447 0.149937 0.000912
0.364598 0.149025 0.000000
0.404864 0.148086 0.000000
0.446244 0.147121 0.000000
0.488740 0.146131 0.000000
0.532350 0.145114 0.000000
0.576041 0.144096 0.000000
0.618618 0.143103 0.000000
0.660079 0.142137 0.000000
0.700609 0.141197 0.000000
0.751627 0.140282 0.000000
0.792855 0.139394 0.000000
0.826319 0.138531 0.000000
0.853603 0.137695 0.000000
0.875943 0.136884 0.000000
0.894315 0.136099 0.000000
0.909486 0.135341 0.000000
0.922068 0.134608 0.000000
0.932543 0.133902 0.000000
0.941299 0.133221 0.000000
0.948647 0.132567 0.000000
0.954836 0.131938 0.000000
0.000000 0.189915 0.005930
0.020579 0.189262 0.005277
0.049696 0.188583 0.004599
0.079928 0.187879 0.003894
0.111275 0.187148 0.003163
0.143736 0.186391 0.002407
0.177313 0.185609 0.001624
0.212004 0.184800 0.000815
0.247811 0.183966 0.000000
0.284732 0.183105 0.000000
0.322768 0.182218 0.000000
0.361919 0.181306 0.000000
0.402185 0.180367 0.000000
0.443565 0.179403 0.000000
0.486061 0.178412 0.000000
0.529671 0.177395 0.000000
0.573362 0.176377 0.000000
0.615939 0.175385 0.000000
0.657401 0.174418 0.000000
0.697748 0.173478 0.000000
0.748438 0.172563 0.000000
0.790195 0.171675 0.000000
0.824090 0.170812 0.000000
0.851723 0.169976 0.000000
0.874350 0.169165 0.000000
0.892958 0.168381 0.000000
0.908324 0.167622 0.000000
0.921067 0.166889 0.000000
0.931677 0.166183 0.000000
0.940546 0.165502 0.000000
0.947988 0.164848 0.000000
0.954256 0.164219 0.000000
0.000000 0.223113 0.003175
0.017824 0.222461 0.002522
0.046941 0.221782 0.001844
0.077173 0.221077 0.001139
0.108520 0.220347 0.000408
0.140981 0.219590 0.000000
0.174558 0.218807 0.000000
0.209249 0.217999 0.000000
0.245056 0.217164 0.000000
0.281977 0.216303 0.000000
0.320013 0.215417 0.000000
0.359164 0.214504 0.000000
0.399430 0.213566 0.000000
0.440810 0.212601 0.000000
0.483306 0.211610 0.000000
0.526916 0.210594 0.000000
0.570607 0.209576 0.000000
0.613184 0.208583 0.000000
0.654645 0.207617 0.000000
0.694993 0.206676 0.000000
0.745116 0.205762 0.000000
0.787425 0.204873 0.000000
0.821767 0.204011 0.000000
0.849765 0.203174 0.000000
0.872691 0.202364 0.000000
0.891544 0.201579 0.000000
0.907114 0.200821 0.000000
0.920025 0.200088 0.000000
0.930774 0.199381 0.000000
0.939760 0.198701 0.000000
0.947301 0.198046 0.000000
0.953652 0.197418 0.000000
0.000000 0.257237 0.000343
0.014992 0.256585 0.000000
0.044109 0.255906 0.000000
0.074341 0.255201 0.000000
0.105688 0.254470 0.000000
0.138149 0.253714 0.000000
0.171726 0.252931 0.000000
0.206417 0.252122 0.000000
0.242224 0.251288 0.000000
0.279145 0.250427 0.000000
0.317181 0.249541 0.000000
0.356332 0.248628 0.000000
0.396598 0.247689 0.000000
0.437978 0.246725 0.000000
0.480474 0.245734 0.000000
0.524085 0.244718 0.000000
0.567775 0.243699 0.000000
0.610352 0.242707 0.000000
0.651814 0.241741 0.000000
0.692161 0.240800 0.000000
0.741656 0.239886 0.000000
0.784539 0.238997 0.000000
0.819347 0.238135 0.000000
0.847725 0.237298 0.000000
0.870963 0.236488 0.000000
0.890072 0.235703 0.000000
0.905853 0.234944 0.000000
0.918939 0.234212 0.000000
0.929835 0.233505 0.000000
0.938943 0.232825 0.000000
0.946585 0.232170 0.000000
0.953023 0.231541 0.000000
0.000000 0.292292 0.000000
0.012083 0.291639 0.000000
0.041200 0.290960 0.000000
0.071432 0.290255 0.000000
0.102779 0.289525 0.000000
0.135240 0.288768 0.000000
0.168817 0.287985 0.000000
0.203508 0.287177 0.000000
0.239315 0.286342 0.000000
0.276236 0.285482 0.000000
0.314272 0.284595 0.000000
0.353423 0.283682 0.000000
0.393689 0.282744 0.000000
0.435069 0.281779 0.000000
0.477565 0.280789 0.000000
0.521175 0.279772 0.000000
0.564866 0.278754 0.000000
0.607443 0.277761 0.000000
0.648905 0.276795 0.000000
0.689252 0.275854 0.000000
0.738052 0.274940 0.000000
0.781533 0.274051 0.000000
0.816827 0.273189 0.000000
0.845601 0.272352 0.000000
0.869163 0.271542 0.000000
0.888538 0.270757 0.000000
0.904539 0.269999 0.000000
0.917808 0.269266 0.000000
0.928856 0.268560 0.000000
0.938091 0.267879 0.000000
0.945840 0.267224 0.000000
0.952367 0.266596 0.000000
0.000000 0.328280 0.000000
0.009096 0.327627 0.000000
0.038213 0.326948 0.000000
0.068445 0.326243 0.000000
0.099792 0.325513 0.000000
0.132254 0.324756 0.000000
0.165830 0.323973 0.000000
0.200522 0.323165 0.000000
0.236328 0.322330 0.000000
0.273249 0.321470 0.000000
0.311285 0.320583 0.000000
0.350436 0.319670 0.000000
0.390702 0.318732 0.000000
0.432083 0.317767 0.000000
0.474578 0.316777 0.000000
0.518189 0.315760 0.000000
0.561879 0.314742 0.000000
0.604456 0.313749 0.000000
0.645918 0.312783 0.000000
0.686265 0.311842 0.000000
0.734300 0.310928 0.000000
0.778404 0.310039 0.000000
0.814203 0.309177 0.000000
0.843390 0.308340 0.000000
0.867289 0.307530 0.000000
0.886942 0.306745 0.000000
0.903172 0.305987 0.000000
0.916631 0.305254 0.000000
0.927837 0.304548 0.000000
0.937204 0.303867 0.000000
0.945065 0.303212 0.000000
0.951685 0.302584 0.000000
0.000000 0.365203 0.000000
0.006032 0.364551 0.000000
0.035149 0.363872 0.000000
0.065381 0.363167 0.000000
0.096728 0.362436 0.000000
0.129190 0.361680 0.000000
0.162766 0.360897 0.000000
0.197457 0.360089 0.000000
0.233264 0.359254 0.000000
0.270185 0.358393 0.000000
0.308221 0.357507 0.000000
0.347372 0.356594 0.000000
0.387638 0.355655 0.000000
0.429019 0.354691 0.000000
0.471514 0.353700 0.000000
0.515125 0.352684 0.000000
0.558815 0.351665 0.000000
0.601392 0.350673 0.000000
0.642854 0.349707 0.000000
0.683201 0.348766 0.000000
0.730395 0.347852 0.000000
0.775147 0.346963 0.000000
0.811472 0.346101 0.000000
0.841088 0.345264 0.000000
0.865338 0.344454 0.000000
0.885280 0.343669 0.000000
0.901749 0.342910 0.000000
0.915406 0.342178 0.000000
0.926776 0.341471 0.000000
0.936281 0.340791 0.000000
0.944257 0.340136 0.000000
0.950975 0.339507 0.000000
0.000000 0.403064 0.000000
0.002890 0.402411 0.000000
0.032007 0.401732 0.000000
0.062239 0.401028 0.000000
0.093586 0.400297 0.000000
0.126048 0.399540 0.000000
0.159624 0.398758 0.000000
0.194316 0.397949 0.000000
0.230122 0.397114 0.000000
0.267043 0.396254 0.000000
0.305079 0.395367 0.000000
0.344230 0.394454 0.000000
0.384496 0.393516 0.000000
0.425877 0.392551 0.000000
0.468372 0.391561 0.000000
0.511983 0.390544 0.000000
0.555673 0.389526 0.000000
0.598250 0.388533 0.000000
0.639712 0.387567 0.000000
0.680059 0.386626 0.000000
0.726331 0.385712 0.000000
0.771757 0.384823 0.000000
0.808630 0.383961 0.000000
0.838692 0.383124 0.000000
0.863308 0.382314 0.000000
0.883551 0.381529 0.000000
0.900268 0.380771 0.000000
0.914130 0.380038 0.000000
0.925672 0.379332 0.000000
0.935321 0.378651 0.000000
0.943417 0.377996 0.000000
0.950236 0.377368 0.000000
0.000000 0.441861 0.000000
0.000000 0.441209 0.000000
0.028788 0.440530 0.000000
0.059019 0.439825 0.000000
0.090366 0.439095 0.000000
0.122828 0.438338 0.000000
0.156404 0.437555 0.000000
0.191096 0.436747 0.000000
0.226902 0.435912 0.000000
0.263823 0.435051 0.000000
0.301859 0.434165 0.000000
0.341010 0.433252 0.000000
0.381276 0.432314 0.000000
0.422657 0.431349 0.000000
0.465152 0.430359 0.000000
0.508763 0.429342 0.000000
0.552453 0.428324 0.000000
0.595030 0.427331 0.000000
0.636492 0.426365 0.000000
0.676839 0.425424 0.000000
0.722103 0.424510 0.000000
0.768231 0.423621 0.000000
0.805674 0.422759 0.000000
0.836200 0.421922 0.000000
0.861196 0.421112 0.000000
0.881752 0.420327 0.000000
0.898727 0.419569 0.000000
0.912804 0.418836 0.000000
0.924524 0.418129 0.000000
0.934321 0.417449 0.000000
0.942543 0.416794 0.000000
0.949467 0.416166 0.000000
0.000000 0.481597 0.000000
0.000000 0.480944 0.000000
0.025490 0.480265 0.000000
0.055722 0.479560 0.000000
0.087069 0.478830 0.000000
0.119530 0.478073 0.000000
0.153107 0.477290 0.000000
0.187798 0.476482 0.000000
0.223605 0.475647 0.000000
0.260526 0.474787 0.000000
0.298562 0.473900 0.000000
0.337713 0.472987 0.000000
0.377979 0.472049 0.000000
0.419359 0.471084 0.000000
0.461855 0.470094 0.000000
0.505465 0.469077 0.000000
0.549156 0.468059 0.000000
0.591733 0.467066 0.000000
0.633195 0.466100 0.000000
0.673542 0.465159 0.000000
0.717704 0.464245 0.000000
0.764563 0.463356 0.000000
0.802598 0.462494 0.000000
0.833608 0.461657 0.000000
0.858999 0.460847 0.000000
0.879880 0.460062 0.000000
0.897124 0.459304 0.000000
0.911424 0.458571 0.000000
0.923329 0.457865 0.000000
0.933282 0.457184 0.000000
0.941633 0.456529 0.000000
0.948667 0.455901 0.000000
0.000000 0.522250 0.000000
0.000000 0.521598 0.000000
0.022116 0.520919 0.000000
0.052348 0.520214 0.000000
0.083695 0.519484 0.000000
0.116157 0.518727 0.000000
0.149733 0.517944 0.000000
0.184424 0.517136 0.000000
0.220231 0.516301 0.000000
0.257152 0.515440 0.000000
0.295188 0.514554 0.000000
0.334339 0.513641 0.000000
0.374605 0.512703 0.000000
0.415986 0.511738 0.000000
0.458481 0.510747 0.000000
0.502092 0.509731 0.000000
0.545782 0.508713 0.000000
0.588359 0.507720 0.000000
0.629821 0.506754 0.000000
0.670168 0.505813 0.000000
0.713133 0.504899 0.000000
0.760750 0.504010 0.000000
0.799401 0.503148 0.000000
0.830913 0.502311 0.000000
0.856716 0.501501 0.000000
0.877935 0.500716 0.000000
0.895458 0.499957 0.000000
0.909989 0.499225 0.000000
0.922088 0.498518 0.000000
0.932201 0.497838 0.000000
0.940688 0.497183 0.000000
0.947836 0.496554 0.000000
0.000000 0.562572 0.000000
0.000000 0.561919 0.000000
0.018770 0.561241 0.000000
0.049002 0.560536 0.000000
0.080349 0.559805 0.000000
0.112810 0.559049 0.000000
0.146387 0.558266 0.000000
0.181078 0.557457 0.000000
0.216885 0.556623 0.000000
0.253806 0.555762 0.000000
0.291842 0.554876 0.000000
0.330993 0.553963 0.000000
0.371259 0.553024 0.000000
0.412639 0.552060 0.000000
0.455135 0.551069 0.000000
0.498745 0.550053 0.000000
0.542436 0.549034 0.000000
0.585013 0.548042 0.000000
0.626475 0.547075 0.000000
0.666822 0.546135 0.000000
0.708525 0.545220 0.000000
0.756907 0.544332 0.000000
0.796179 0.543469 0.000000
0.828197 0.542633 0.000000
0.854414 0.541822 0.000000
0.875974 0.541038 0.000000
0.893779 0.540279 0.000000
0.908543 0.539547 0.000000
0.920836 0.538840 0.000000
0.931112 0.538160 0.000000
0.939735 0.537505 0.000000
0.946998 0.536876 0.000000
0.000000 0.601812 0.000000
0.000000 0.601159 0.000000
0.015514 0.600480 0.000000
0.045746 0.599776 0.000000
0.077092 0.599045 0.000000
0.109554 0.598288 0.000000
0.143130 0.597506 0.000000
0.177822 0.596697 0.000000
0.213628 0.595862 0.000000
0.250549 0.595002 0.000000
0.288585 0.594115 0.000000
0.327736 0.593202 0.000000
0.368002 0.592264 0.000000
0.409383 0.591299 0.000000
0.451879 0.590309 0.000000
0.495489 0.589292 0.000000
0.539179 0.588274 0.000000
0.581756 0.587281 0.000000
0.623218 0.586315 0.000000
0.663565 0.585374 0.000000
0.703970 0.584460 0.000000
0.753108 0.583571 0.000000
0.792994 0.582709 0.000000
0.825512 0.581872 0.000000
0.852139 0.581062 0.000000
0.874036 0.580277 0.000000
0.892119 0.579519 0.000000
0.907114 0.578786 0.000000
0.919599 0.578080 0.000000
0.930036 0.577399 0.000000
0.938793 0.576744 0.000000
0.946170 0.576116 0.000000
0.000000 0.639978 0.000000
0.000000 0.639325 0.000000
0.012346 0.638647 0.000000
0.042578 0.637942 0.000000
0.073925 0.637211 0.000000
0.106387 0.636455 0.000000
0.139963 0.635672 0.000000
0.174655 0.634863 0.000000
0.210461 0.634029 0.000000
0.247382 0.633168 0.000000
0.285418 0.632282 0.000000
0.324569 0.631369 0.000000
0.364835 0.630430 0.000000
0.406216 0.629466 0.000000
0.448711 0.628475 0.000000
0.492322 0.627459 0.000000
0.536012 0.626440 0.000000
0.578589 0.625448 0.000000
0.620051 0.624481 0.000000
0.660398 0.623541 0.000000
0.699630 0.622626 0.000000
0.749356 0.621738 0.000000
0.789848 0.620875 0.000000
0.822861 0.620039 0.000000
0.849892 0.619228 0.000000
0.872122 0.618444 0.000000
0.890479 0.617685 0.000000
0.905703 0.616953 0.000000
0.918377 0.616246 0.000000
0.928973 0.615565 0.000000
0.937863 0.614911 0.000000
0.945352 0.614282 0.000000
0.000000 0.677080 0.000000
0.000000 0.676427 0.000000
0.009267 0.675749 0.000000
0.039499 0.675044 0.000000
0.070846 0.674313 0.000000
0.103308 0.673557 0.000000
0.136884 0.672774 0.000000
0.171576 0.671965 0.000000
0.207382 0.671131 0.000000
0.244303 0.670270 0.000000
0.282339 0.669384 0.000000
0.321490 0.668471 0.000000
0.361756 0.667532 0.000000
0.403137 0.666568 0.000000
0.445632 0.665577 0.000000
0.489243 0.664561 0.000000
0.532933 0.663542 0.000000
0.575510 0.662550 0.000000
0.616972 0.661583 0.000000
0.657319 0.660643 0.000000
0.696551 0.659728 0.000000
0.745654 0.658840 0.000000
0.786744 0.657977 0.000000
0.820244 0.657141 0.000000
0.847675 0.656330 0.000000
0.870233 0.655546 0.000000
0.888862 0.654787 0.000000
0.904310 0.654055 0.000000
0.917172 0.653348 0.000000
0.927923 0.652668 0.000000
0.936946 0.652013 0.000000
0.944545 0.651384 0.000000
0.000000 0.718177 0.000000
0.000000 0.717300 0.000000
0.006276 0.716384 0.000000
0.036508 0.715431 0.000000
0.067855 0.714439 0.000000
0.100316 0.713408 0.000000
0.133893 0.712338 0.000000
0.168584 0.711229 0.000000
0.204390 0.710079 0.000000
0.241312 0.708888 0.000000
0.279348 0.707656 0.000000
0.318499 0.706383 0.000000
0.358765 0.705068 0.000000
0.400145 0.703710 0.000000
0.442641 0.702309 0.000000
0.486251 0.700865 0.000000
0.529942 0.699588 0.000000
0.572518 0.698595 0.000000
0.613980 0.697629 0.000000
0.654328 0.696688 0.000000
0.693560 0.695774 0.000000
0.742005 0.694885 0.000000
0.783685 0.694023 0.000000
0.817665 0.693186 0.000000
0.845490 0.692376 0.000000
0.868371 0.691591 0.000000
0.887267 0.690833 0.000000
0.902937 0.690100 0.000000
0.915984 0.689394 0.000000
0.926889 0.688713 0.000000
0.936041 0.688058 0.000000
0.943749 0.687430 0.000000
0.000000 0.761437 0.000000
0.000000 0.760695 0.000000
0.003372 0.759920 0.000000
0.033604 0.759113 0.000000
0.064950 0.758273 0.000000
0.097412 0.757401 0.000000
0.130989 0.756495 0.000000
0.165680 0.755556 0.000000
0.201486 0.754582 0.000000
0.238407 0.753574 0.000000
0.276443 0.752532 0.000000
0.315594 0.751454 0.000000
0.355860 0.750341 0.000000
0.397241 0.749191 0.000000
0.439737 0.748005 0.000000
0.483347 0.746783 0.000000
0.527037 0.745552 0.000000
0.569614 0.744346 0.000000
0.611076 0.743167 0.000000
0.651423 0.742014 0.000000
0.690656 0.740888 0.000000
0.738412 0.739790 0.000000
0.780672 0.738719 0.000000
0.815126 0.737676 0.000000
0.843338 0.736662 0.000000
0.866538 0.735676 0.000000
0.885698 0.734719 0.000000
0.901585 0.733792 0.000000
0.914814 0.732895 0.000000
0.925871 0.732028 0.000000
0.935150 0.731191 0.000000
0.942966 0.730386 0.000000
0.000000 0.797052 0.000000
0.000000 0.796420 0.000000
0.000554 0.795761 0.000000
0.030786 0.795075 0.000000
0.062133 0.794360 0.000000
0.094594 0.793618 0.000000
0.128171 0.792847 0.000000
0.162862 0.792048 0.000000
0.198669 0.791220 0.000000
0.235590 0.790363 0.000000
0.273626 0.789476 0.000000
0.312777 0.788559 0.000000
0.353043 0.787612 0.000000
0.394423 0.786634 0.000000
0.436919 0.785625 0.000000
0.480529 0.784585 0.000000
0.524220 0.783538 0.000000
0.566797 0.782512 0.000000
0.608258 0.781509 0.000000
0.648606 0.780528 0.000000
0.687838 0.779571 0.000000
0.734879 0.778636 0.000000
0.777710 0.777725 0.000000
0.812629 0.776838 0.000000
0.841222 0.775975 0.000000
0.864736 0.775136 0.000000
0.884154 0.774323 0.000000
0.900256 0.773534 0.000000
0.913663 0.772771 0.000000
0.924870 0.772033 0.000000
0.934274 0.771321 0.000000
0.942195 0.770636 0.000000
0.000000 0.826495 0.000000
0.000000 0.825955 0.000000
0.000000 0.825392 0.000000
0.028054 0.824805 0.000000
0.059401 0.824194 0.000000
0.091863 0.823560 0.000000
0.125439 0.822901 0.000000
0.160131 0.822218 0.000000
0.195937 0.821510 0.000000
0.232858 0.820777 0.000000
0.270894 0.820018 0.000000
0.310045 0.819234 0.000000
0.350311 0.818425 0.000000
0.391692 0.817589 0.000000
0.434187 0.816726 0.000000
0.477798 0.815837 0.000000
0.521488 0.814942 0.000000
0.564065 0.814065 0.000000
0.605527 0.813207 0.000000
0.645874 0.812369 0.000000
0.685106 0.811550 0.000000
0.731408 0.810751 0.000000
0.774799 0.809972 0.000000
0.810176 0.809214 0.000000
0.839143 0.808476 0.000000
0.862965 0.807759 0.000000
0.882637 0.807063 0.000000
0.898950 0.806389 0.000000
0.912532 0.805737 0.000000
0.923886 0.805106 0.000000
0.933414 0.804498 0.000000
0.941439 0.803912 0.000000
0.000000 0.850937 0.000000
0.000000 0.850473 0.000000
0.000000 0.849989 0.000000
0.025408 0.849485 0.000000
0.056755 0.848960 0.000000
0.089216 0.848415 0.000000
0.122793 0.847849 0.000000
0.157484 0.847262 0.000000
0.193291 0.846654 0.000000
0.230212 0.846024 0.000000
0.268248 0.845372 0.000000
0.307399 0.844699 0.000000
0.347665 0.844003 0.000000
0.389046 0.843285 0.000000
0.431541 0.842544 0.000000
0.475152 0.841780 0.000000
0.518842 0.841011 0.000000
0.561419 0.840258 0.000000
0.602881 0.839521 0.000000
0.643228 0.838801 0.000000
0.682460 0.838097 0.000000
0.728002 0.837411 0.000000
0.771944 0.836742 0.000000
0.807769 0.836090 0.000000
0.837103 0.835456 0.000000
0.861227 0.834840 0.000000
0.881149 0.834243 0.000000
0.897669 0.833663 0.000000
0.911423 0.833103 0.000000
0.922921 0.832561 0.000000
0.932569 0.832038 0.000000
0.940696 0.831535 0.000000
0.000000 0.871309 0.000000
0.000000 0.870908 0.000000
0.000000 0.870490 0.000000
0.022847 0.870055 0.000000
0.054194 0.869602 0.000000
0.086656 0.869131 0.000000
0.120232 0.868643 0.000000
0.154923 0.868136 0.000000
0.190730 0.867611 0.000000
0.227651 0.867067 0.000000
0.265687 0.866505 0.000000
0.304838 0.865923 0.000000
0.345104 0.865323 0.000000
0.386485 0.864703 0.000000
0.428980 0.864063 0.000000
0.472591 0.863403 0.000000
0.516281 0.862739 0.000000
0.558858 0.862089 0.000000
0.600320 0.861453 0.000000
0.640667 0.860831 0.000000
0.679899 0.860224 0.000000
0.724665 0.859631 0.000000
0.769145 0.859053 0.000000
0.805410 0.858491 0.000000
0.835105 0.857943 0.000000
0.859524 0.857412 0.000000
0.879690 0.856896 0.000000
0.896413 0.856396 0.000000
0.910336 0.855912 0.000000
0.921975 0.855444 0.000000
0.931742 0.854993 0.000000
0.939968 0.854558 0.000000
0.000000 0.888355 0.000000
0.000000 0.888007 0.000000
0.000000 0.887645 0.000000
0.020371 0.887267 0.000000
0.051718 0.886874 0.000000
0.084179 0.886466 0.000000
0.117756 0.886042 0.000000
0.152447 0.885602 0.000000
0.188253 0.885147 0.000000
0.225175 0.884675 0.000000
0.263211 0.884187 0.000000
0.302362 0.883683 0.000000
0.342628 0.883162 0.000000
0.384008 0.882624 0.000000
0.426504 0.882069 0.000000
0.470114 0.881497 0.000000
0.513805 0.880920 0.000000
0.556381 0.880356 0.000000
0.597843 0.879804 0.000000
0.638191 0.879265 0.000000
0.677423 0.878738 0.000000
0.721399 0.878224 0.000000
0.766407 0.877723 0.000000
0.803102 0.877235 0.000000
0.833149 0.876760 0.000000
0.857858 0.876299 0.000000
0.878263 0.875851 0.000000
0.895184 0.875417 0.000000
0.909273 0.874997 0.000000
0.921050 0.874591 0.000000
0.930932 0.874200 0.000000
0.939256 0.873823 0.000000
0.000000 0.902673 0.000000
0.000000 0.902370 0.000000
0.000000 0.902054 0.000000
0.017979 0.901725 0.000000
0.049326 0.901383 0.000000
0.081787 0.901027 0.000000
0.115364 0.900657 0.000000
0.150055 0.900274 0.000000
0.185862 0.899877 0.000000
0.222783 0.899465 0.000000
0.260819 0.899040 0.000000
0.299970 0.898600 0.000000
0.340236 0.898146 0.000000
0.381616 0.897677 0.000000
0.424112 0.897194 0.000000
0.467722 0.896695 0.000000
0.511413 0.896192 0.000000
0.553989 0.895701 0.000000
0.595451 0.895220 0.000000
