assets/luts/idol.cube
# Beauty Camera 3D LUT
# Filter: Idol (idol)
# Category: Korean
TITLE "Idol"
LUT_3D_SIZE 5
DOMAIN_MIN 0.000000 0.000000 0.000000
DOMAIN_MAX 0.903226 0.903226 0.903226
0.000000 0.000000 0.000000
0.294345 0.000000 0.000000
0.606734 0.000000 0.000000
0.903514 0.000000 0.000000
0.987377 0.000000 0.000000
0.000000 0.244446 0.000000
0.261969 0.234047 0.000000
0.574358 0.225138 0.000000
0.878411 0.216715 0.000000
0.984093 0.208593 0.000000
0.000000 0.527627 0.000000
0.232834 0.517229 0.000000
0.545223 0.508319 0.000000
0.850281 0.499897 0.000000
0.980413 0.491775 0.000000
0.000000 0.800035 0.000000
0.204808 0.789626 0.000000
0.517198 0.780716 0.000000
0.817100 0.772293 0.000000
0.976072 0.764172 0.000000
0.000000 0.970010 0.000000
0.177480 0.967698 0.000000
0.489870 0.965576 0.000000
0.785185 0.963441 0.000000
0.970914 0.961258 0.000000
0.000000 0.000000 0.321617
0.290856 0.000000 0.311219
0.603246 0.000000 0.302309
0.901080 0.000000 0.293886
0.987059 0.000000 0.285765
0.000000 0.240957 0.289241
0.258480 0.230559 0.278843
0.570870 0.221649 0.269933
0.875343 0.213226 0.261511
0.983692 0.205105 0.253389
0.000000 0.524139 0.260106
0.229345 0.513741 0.249708
0.541735 0.504831 0.240798
0.846504 0.496408 0.232375
0.979919 0.488287 0.224254
0.000000 0.796536 0.232081
0.201320 0.786138 0.221683
0.513710 0.777228 0.212773
0.812485 0.768805 0.204350
0.975469 0.760684 0.196229
0.000000 0.969254 0.204752
0.173991 0.966883 0.194354
0.486381 0.964707 0.185444
0.781696 0.962519 0.177022
0.970181 0.960280 0.168900
0.000000 0.000000 0.635795
0.287869 0.000000 0.625397
0.600259 0.000000 0.616487
0.898947 0.000000 0.608064
0.986780 0.000000 0.599943
0.000000 0.237970 0.603419
0.255494 0.227572 0.593021
0.567883 0.218662 0.584111
0.872655 0.210240 0.575689
0.983340 0.202118 0.567567
0.000000 0.521152 0.574284
0.226358 0.510754 0.563886
0.538748 0.501844 0.554976
0.843194 0.493421 0.546553
0.979486 0.485300 0.538432
0.000000 0.793549 0.546259
0.198333 0.783151 0.535860
0.510723 0.774241 0.526951
0.808442 0.765818 0.518528
0.974940 0.757697 0.510407
0.000000 0.968591 0.518930
0.171005 0.966169 0.508532
0.483394 0.963946 0.499622
0.778709 0.961710 0.491200
0.969538 0.959424 0.483078
0.000000 0.000000 0.921439
0.285065 0.000000 0.915381
0.597454 0.000000 0.909821
0.896902 0.000000 0.904229
0.986512 0.000000 0.898509
0.000000 0.235166 0.900998
0.252689 0.224767 0.893365
0.565078 0.215858 0.886358
0.870078 0.207435 0.879311
0.983003 0.199313 0.872103
0.000000 0.518347 0.878095
0.223554 0.507949 0.868696
0.535943 0.499039 0.860068
0.840021 0.490617 0.851390
0.979071 0.482495 0.842515
0.000000 0.790744 0.851077
0.195528 0.780346 0.839595
0.507918 0.771436 0.829055
0.804565 0.763013 0.818455
0.974432 0.754892 0.807612
0.000000 0.967955 0.818976
0.168200 0.965484 0.805019
0.480590 0.963216 0.794648
0.775905 0.960936 0.786225
0.968921 0.958602 0.778104
0.000000 0.000000 0.989603
0.282373 0.000000 0.988802
0.594763 0.000000 0.988066
0.894901 0.000000 0.987326
0.986250 0.000000 0.986569
0.000000 0.232474 0.986898
0.249997 0.222076 0.985888
0.562387 0.213166 0.984961
0.867556 0.204743 0.984028
0.982673 0.196622 0.983074
0.000000 0.515656 0.983867
0.220862 0.505257 0.982623
0.533252 0.496348 0.981481
0.836915 0.487925 0.980333
0.978665 0.479804 0.979159
0.000000 0.788053 0.980292
0.192836 0.777654 0.978772
0.505226 0.768744 0.977377
0.800772 0.760322 0.975974
0.973936 0.752200 0.974540
0.000000 0.967333 0.976043
0.165508 0.964814 0.974196
0.477898 0.962502 0.972501
0.773213 0.960177 0.970796
0.968318 0.957799 0.969051
