assets/luts/idol.cube
# Beauty Camera 3D LUT
# Filter: Idol (idol)
# Category: Korean
TITLE "Idol"
LUT_3D_SIZE 8
DOMAIN_MIN 0.000000 0.000000 0.000000
DOMAIN_MAX 0.903226 0.903226 0.903226
0.000000 0.000000 0.000000
0.150970 0.000000 0.000000
0.340509 0.000000 0.000000
0.519688 0.000000 0.000000
0.692454 0.000000 0.000000
0.870272 0.000000 0.000000
0.959955 0.000000 0.000000
0.987377 0.000000 0.000000
0.000000 0.117193 0.000000
0.131686 0.110884 0.000000
0.321225 0.105478 0.000000
0.500404 0.100368 0.000000
0.673171 0.095440 0.000000
0.851115 0.090644 0.000000
0.954041 0.085951 0.000000
0.985513 0.081341 0.000000
0.000000 0.285860 0.000000
0.114333 0.279551 0.000000
0.303872 0.274145 0.000000
0.483051 0.269035 0.000000
0.655817 0.264107 0.000000
0.831468 0.259311 0.000000
0.947976 0.254618 0.000000
0.983602 0.250008 0.000000
0.000000 0.448104 0.000000
0.097641 0.441795 0.000000
0.287180 0.436389 0.000000
0.466359 0.431278 0.000000
0.639125 0.426351 0.000000
0.810126 0.421555 0.000000
0.941388 0.416861 0.000000
0.981525 0.412251 0.000000
0.000000 0.606311 0.000000
0.081363 0.600002 0.000000
0.270902 0.594596 0.000000
0.450081 0.589486 0.000000
0.622848 0.584558 0.000000
0.790997 0.579762 0.000000
0.934162 0.575069 0.000000
0.979247 0.570459 0.000000
0.000000 0.761584 0.000000
0.065388 0.755275 0.000000
0.254927 0.749869 0.000000
0.434106 0.744759 0.000000
0.606872 0.739831 0.000000
0.775022 0.735035 0.000000
0.926204 0.730342 0.000000
0.976739 0.725732 0.000000
0.000000 0.911761 0.000000
0.049650 0.907694 0.000000
0.239188 0.904060 0.000000
0.418368 0.900493 0.000000
0.591134 0.896928 0.000000
0.759283 0.893336 0.000000
0.917423 0.889700 0.000000
0.973971 0.886007 0.000000
0.000000 0.970010 0.000000
0.034105 0.968628 0.000000
0.223644 0.967393 0.000000
0.402823 0.966181 0.000000
0.575589 0.964969 0.000000
0.743739 0.963748 0.000000
0.907726 0.962512 0.000000
0.970914 0.961258 0.000000
0.000000 0.000000 0.176440
0.148862 0.000000 0.170131
0.338400 0.000000 0.164726
0.517580 0.000000 0.159615
0.690346 0.000000 0.154688
0.868304 0.000000 0.149892
0.959347 0.000000 0.145198
0.987186 0.000000 0.140588
0.000000 0.115085 0.157157
0.129578 0.108776 0.150848
0.319117 0.103370 0.145442
0.498296 0.098260 0.140332
0.671062 0.093332 0.135404
0.848856 0.088536 0.130608
0.953344 0.083843 0.125915
0.985293 0.079233 0.121305
0.000000 0.283752 0.139804
0.112225 0.277443 0.133495
0.301764 0.272037 0.128089
0.480943 0.266927 0.122978
0.653709 0.261999 0.118051
0.828911 0.257203 0.113255
0.947187 0.252510 0.108562
0.983353 0.247900 0.103952
0.000000 0.445995 0.123111
0.095532 0.439686 0.116802
0.285071 0.434280 0.111396
0.464250 0.429170 0.106286
0.637017 0.424242 0.101358
0.807246 0.419447 0.096563
0.940499 0.414753 0.091869
0.981245 0.410143 0.087259
0.000000 0.604203 0.106834
0.079255 0.597894 0.100525
0.268794 0.592488 0.095119
0.447973 0.587378 0.090009
0.620740 0.582450 0.085081
0.788889 0.577654 0.080285
0.933163 0.572961 0.075592
0.978932 0.568351 0.070982
0.000000 0.759476 0.090859
0.063280 0.753167 0.084550
0.252819 0.747761 0.079144
0.431998 0.742651 0.074034
0.604764 0.737723 0.069106
0.772914 0.732927 0.064310
0.925084 0.728234 0.059617
0.976386 0.723624 0.055007
0.000000 0.910422 0.075120
0.047541 0.906293 0.068811
0.237080 0.902604 0.063405
0.416259 0.898983 0.058295
0.589026 0.895364 0.053367
0.757175 0.891718 0.048572
0.916170 0.888026 0.043878
0.973576 0.884278 0.039268
0.000000 0.969555 0.059576
0.031997 0.968152 0.053267
0.221536 0.966898 0.047861
0.400715 0.965668 0.042750
0.573481 0.964438 0.037823
0.741630 0.963198 0.033027
0.906326 0.961944 0.028334
0.970473 0.960670 0.023724
0.000000 0.000000 0.368215
0.147038 0.000000 0.361906
0.336577 0.000000 0.356500
0.515756 0.000000 0.351390
0.688523 0.000000 0.346462
0.866578 0.000000 0.341666
0.958814 0.000000 0.336973
0.987018 0.000000 0.332363
0.000000 0.113262 0.348932
0.127755 0.106953 0.342623
0.317294 0.101547 0.337217
0.496473 0.096436 0.332106
0.669239 0.091509 0.327179
0.846875 0.086713 0.322383
0.952732 0.082020 0.317690
0.985101 0.077410 0.313080
0.000000 0.281929 0.331578
0.110402 0.275620 0.325269
0.299941 0.270214 0.319864
0.479120 0.265104 0.314753
0.651886 0.260176 0.309826
0.826668 0.255380 0.305030
0.946494 0.250687 0.300336
0.983135 0.246077 0.295726
0.000000 0.444172 0.314886
0.093709 0.437863 0.308577
0.283248 0.432457 0.303171
0.462427 0.427347 0.298061
0.635194 0.422419 0.293133
0.804719 0.417623 0.288337
0.939719 0.412930 0.283644
0.980999 0.408320 0.279034
0.000000 0.602380 0.298609
0.077432 0.596071 0.292300
0.266971 0.590665 0.286894
0.446150 0.585555 0.281784
0.618916 0.580627 0.276856
0.787066 0.575831 0.272060
0.932287 0.571138 0.267367
0.978656 0.566528 0.262757
0.000000 0.757653 0.282634
0.061457 0.751344 0.276325
0.250996 0.745938 0.270919
0.430175 0.740827 0.265808
0.602941 0.735900 0.260881
0.771090 0.731104 0.256085
0.924102 0.726411 0.251392
0.976076 0.721801 0.246782
0.000000 0.909248 0.266895
0.045718 0.905065 0.260586
0.235257 0.901328 0.255180
0.414436 0.897659 0.250070
0.587202 0.893993 0.245142
0.755352 0.890299 0.240346
0.915071 0.886559 0.235653
0.973230 0.882761 0.231043
0.000000 0.969156 0.251350
0.030174 0.967735 0.245041
0.219713 0.966464 0.239635
0.398892 0.965218 0.234525
0.571658 0.963972 0.229598
0.739807 0.962716 0.224802
0.905098 0.961445 0.220108
0.970086 0.960154 0.215498
0.000000 0.000000 0.548500
0.145324 0.000000 0.542191
0.334863 0.000000 0.536785
0.514042 0.000000 0.531675
0.686809 0.000000 0.526747
0.864934 0.000000 0.521952
0.958307 0.000000 0.517258
0.986858 0.000000 0.512648
0.000000 0.111548 0.529217
0.126041 0.105239 0.522908
0.315580 0.099833 0.517502
0.494759 0.094723 0.512392
0.667525 0.089795 0.507464
0.844988 0.084999 0.502668
0.952150 0.080306 0.497975
0.984917 0.075696 0.493365
0.000000 0.280215 0.511864
0.108688 0.273906 0.505555
0.298227 0.268500 0.500149
0.477406 0.263390 0.495038
0.650172 0.258462 0.490111
0.824533 0.253666 0.485315
0.945835 0.248973 0.480621
0.982927 0.244363 0.476011
0.000000 0.442458 0.495171
0.091995 0.436149 0.488862
0.281534 0.430743 0.483456
0.460713 0.425633 0.478346
0.633480 0.420705 0.473418
0.802314 0.415910 0.468623
0.938976 0.411216 0.463929
0.980765 0.406606 0.459319
0.000000 0.600666 0.478894
0.075718 0.594357 0.472585
0.265257 0.588951 0.467179
0.444436 0.583841 0.462069
0.617202 0.578913 0.457141
0.785352 0.574117 0.452345
0.931453 0.569424 0.447652
0.978393 0.564814 0.443042
0.000000 0.755939 0.462919
0.059743 0.749630 0.456610
0.249282 0.744224 0.451204
0.428461 0.739114 0.446093
0.601227 0.734186 0.441166
0.769377 0.729390 0.436370
0.923167 0.724697 0.431677
0.975782 0.720087 0.427067
0.000000 0.908130 0.447180
0.044004 0.903896 0.440871
0.233543 0.900112 0.435465
0.412722 0.896398 0.430355
0.585489 0.892687 0.425427
0.753638 0.888947 0.420631
0.914025 0.885161 0.415938
0.972900 0.881317 0.411328
0.000000 0.968776 0.431636
0.028460 0.967337 0.425327
0.217999 0.966051 0.419921
0.397178 0.964789 0.414810
0.569944 0.963528 0.409883
0.738093 0.962257 0.405087
0.903929 0.960970 0.400393
0.969718 0.959663 0.395783
0.000000 0.000000 0.721600
0.143679 0.000000 0.715291
0.333218 0.000000 0.709885
0.512397 0.000000 0.704774
0.685163 0.000000 0.699847
0.863337 0.000000 0.695051
0.957814 0.000000 0.690357
0.986703 0.000000 0.685747
0.000000 0.109902 0.702316
0.124395 0.103593 0.696007
0.313934 0.098187 0.690601
0.493113 0.093077 0.685491
0.665880 0.088149 0.680563
0.843156 0.083354 0.675767
0.951584 0.078660 0.671074
0.984739 0.074050 0.666464
0.000000 0.278569 0.684963
0.107042 0.272260 0.678654
0.296581 0.266854 0.673248
0.475760 0.261744 0.668138
0.648526 0.256816 0.663210
0.822458 0.252021 0.658414
0.945195 0.247327 0.653721
0.982725 0.242717 0.649111
0.000000 0.440813 0.668271
0.090350 0.434504 0.661961
0.279889 0.429098 0.656556
0.459068 0.423987 0.651445
0.631834 0.419060 0.646518
0.799983 0.414264 0.641722
0.938255 0.409570 0.637028
0.980537 0.404960 0.632418
0.000000 0.599020 0.651993
0.074072 0.592711 0.645684
0.263611 0.587305 0.640278
0.442790 0.582195 0.635168
0.615557 0.577267 0.630240
0.783706 0.572472 0.625445
0.930642 0.567778 0.620751
0.978138 0.563168 0.616141
0.000000 0.754293 0.636018
0.058097 0.747984 0.629709
0.247636 0.742578 0.624303
0.426815 0.737468 0.619193
0.599582 0.732540 0.614265
0.767731 0.727745 0.609469
0.922259 0.723051 0.604776
0.975495 0.718441 0.600166
0.000000 0.907044 0.620280
0.042359 0.902759 0.613970
0.231898 0.898931 0.608565
0.411077 0.895174 0.603454
0.583843 0.891418 0.598527
0.751992 0.887634 0.593731
0.913009 0.883803 0.589037
0.972580 0.879914 0.584427
0.000000 0.968407 0.604735
0.026814 0.966951 0.598426
0.216353 0.965650 0.593020
0.395532 0.964373 0.587910
0.568298 0.963097 0.582982
0.736448 0.961810 0.578186
0.902793 0.960508 0.573493
0.969360 0.959186 0.568883
0.000000 0.000000 0.894473
0.142082 0.000000 0.889609
0.331621 0.000000 0.885263
0.510800 0.000000 0.880997
0.683567 0.000000 0.876734
0.861770 0.000000 0.872438
0.957330 0.000000 0.868089
0.986550 0.000000 0.863673
0.000000 0.108306 0.878889
0.122799 0.101997 0.873306
0.312338 0.096591 0.868319
0.491517 0.091481 0.863423
0.664283 0.086553 0.858530
0.841357 0.081757 0.853600
0.951029 0.077064 0.848609
0.984564 0.072454 0.843541
0.000000 0.276973 0.862907
0.105446 0.270664 0.856588
0.294985 0.265258 0.850942
0.474164 0.260148 0.845400
0.646930 0.255220 0.839862
0.820422 0.250424 0.834281
0.944566 0.245731 0.828631
0.982527 0.241121 0.822895
0.000000 0.439216 0.845547
0.088753 0.432907 0.838427
0.278292 0.427501 0.832067
0.457471 0.422391 0.825823
0.630238 0.417463 0.819584
0.798387 0.412668 0.813296
0.937547 0.407974 0.806931
0.980314 0.403364 0.800468
0.000000 0.597424 0.826504
0.072476 0.591115 0.818507
0.262015 0.585709 0.811361
0.441194 0.580599 0.804348
0.613960 0.575671 0.798150
0.782110 0.570875 0.793354
0.929847 0.566182 0.788661
0.977887 0.561572 0.784051
0.000000 0.752697 0.805533
0.056501 0.746388 0.797618
0.246040 0.740982 0.792213
0.425219 0.735872 0.787102
0.597985 0.730944 0.782175
0.766135 0.726148 0.777379
0.921367 0.721455 0.772685
0.975214 0.716845 0.768075
0.000000 0.905978 0.788189
0.040762 0.901644 0.781880
0.230301 0.897772 0.776474
0.409480 0.893971 0.771363
0.582247 0.890173 0.766436
0.750396 0.886346 0.761640
0.912011 0.882471 0.756947
0.972265 0.878536 0.752337
0.000000 0.968045 0.772644
0.025218 0.966572 0.766335
0.214757 0.965256 0.760929
0.393936 0.963964 0.755819
0.566702 0.962673 0.750891
0.734851 0.961373 0.746095
0.901679 0.960056 0.741402
0.969008 0.958718 0.736792
0.000000 0.000000 0.967264
0.140525 0.000000 0.965755
0.330063 0.000000 0.964407
0.509243 0.000000 0.963084
0.682009 0.000000 0.961761
0.860223 0.000000 0.960429
0.956853 0.000000 0.959080
0.986400 0.000000 0.957710
0.000000 0.106748 0.962430
0.121241 0.100439 0.960698
0.310780 0.095033 0.959151
0.489959 0.089923 0.957632
0.662725 0.084995 0.956114
0.839582 0.080199 0.954585
0.950481 0.075506 0.953037
0.984391 0.070896 0.951465
0.000000 0.275415 0.957472
0.103888 0.269106 0.955512
0.293427 0.263700 0.953760
0.472606 0.258590 0.952041
0.645372 0.253662 0.950323
0.818413 0.248866 0.948592
0.943946 0.244173 0.946839
0.982331 0.239563 0.945060
0.000000 0.437658 0.952087
0.087195 0.431349 0.949878
0.276734 0.425943 0.947905
0.455913 0.420833 0.945968
0.628680 0.415906 0.944033
0.796829 0.411110 0.942082
0.936848 0.406416 0.940108
0.980094 0.401806 0.938103
0.000000 0.595866 0.946179
0.070918 0.589557 0.943699
0.260457 0.584151 0.941482
0.439636 0.579041 0.939306
0.612403 0.574113 0.937132
0.780552 0.569317 0.934941
0.929062 0.564624 0.932723
0.977640 0.560014 0.930471
0.000000 0.751139 0.939674
0.054943 0.744830 0.936893
0.244482 0.739424 0.934409
0.423661 0.734314 0.931970
0.596427 0.729386 0.929533
0.764577 0.724590 0.927077
0.920487 0.719897 0.924591
0.974937 0.715287 0.922067
0.000000 0.904926 0.932496
0.039204 0.900544 0.929385
0.228743 0.896628 0.926605
0.407922 0.892785 0.923876
0.580689 0.888944 0.921149
0.748838 0.885074 0.918401
0.911027 0.881156 0.915619
0.971955 0.877177 0.912794
0.000000 0.967687 0.924569
0.023660 0.966198 0.921092
0.213199 0.964867 0.917986
0.392378 0.963561 0.914937
0.565144 0.962256 0.911889
0.733293 0.960940 0.908819
0.900578 0.959609 0.905710
0.968661 0.958256 0.902554
0.000000 0.000000 0.989603
0.138998 0.000000 0.989124
0.328537 0.000000 0.988696
0.507716 0.000000 0.988276
0.680482 0.000000 0.987856
0.858691 0.000000 0.987432
0.956380 0.000000 0.987004
0.986250 0.000000 0.986569
0.000000 0.105221 0.988068
0.119714 0.098912 0.987518
0.309253 0.093507 0.987026
0.488432 0.088396 0.986544
0.661199 0.083469 0.986062
0.837823 0.078673 0.985576
0.949938 0.073979 0.985085
0.984220 0.069369 0.984585
0.000000 0.273888 0.986493
0.102361 0.267579 0.985871
0.291900 0.262174 0.985314
0.471079 0.257063 0.984769
0.643846 0.252136 0.984223
0.816422 0.247340 0.983673
0.943332 0.242646 0.983116
0.982138 0.238036 0.982551
0.000000 0.436132 0.984783
0.085669 0.429823 0.984082
0.275208 0.424417 0.983455
0.454387 0.419306 0.982840
0.627153 0.414379 0.982225
0.795302 0.409583 0.981606
0.936156 0.404890 0.980978
0.979876 0.400280 0.980342
0.000000 0.594339 0.982907
0.069392 0.588030 0.982119
0.258931 0.582625 0.981415
0.438110 0.577514 0.980724
0.610876 0.572587 0.980033
0.779025 0.567791 0.979338
0.928284 0.563097 0.978633
0.977394 0.558487 0.977918
0.000000 0.749612 0.980841
0.053416 0.743303 0.979958
0.242955 0.737898 0.979168
0.422134 0.732787 0.978394
0.594901 0.727860 0.977620
0.763050 0.723064 0.976840
0.919615 0.718370 0.976050
0.974662 0.713760 0.975249
0.000000 0.903884 0.978561
0.037678 0.899453 0.977573
0.227217 0.895495 0.976690
0.406396 0.891609 0.975823
0.579162 0.887727 0.974957
0.747311 0.883814 0.974084
0.910051 0.879853 0.973201
0.971647 0.875831 0.972304
0.000000 0.967333 0.976043
0.022133 0.965827 0.974939
0.211672 0.964482 0.973953
0.390851 0.963162 0.972984
0.563617 0.961842 0.972016
0.731767 0.960512 0.971041
0.899488 0.959166 0.970054
0.968318 0.957799 0.969051
