assets/luts/idol.cube
# Beauty Camera 3D LUT
# Filter: Idol (idol)
# Category: Korean
TITLE "Idol"
LUT_3D_SIZE 32
DOMAIN_MIN 0.0 0.0 0.0
DOMAIN_MAX 1.0 1.0 1.0
0.000000 0.000000 0.000000
0.000000 0.000000 0.000000
0.048894 0.000000 0.000000
0.100862 0.000000 0.000000
0.150970 0.000000 0.000000
0.199738 0.000000 0.000000
0.247466 0.000000 0.000000
0.294345 0.000000 0.000000
0.340509 0.000000 0.000000
0.386057 0.000000 0.000000
0.431065 0.000000 0.000000
0.475592 0.000000 0.000000
0.519688 0.000000 0.000000
0.563391 0.000000 0.000000
0.606734 0.000000 0.000000
0.649747 0.000000 0.000000
0.692454 0.000000 0.000000
0.734875 0.000000 0.000000
0.777030 0.000000 0.000000
0.825300 0.000000 0.000000
0.870272 0.000000 0.000000
0.903514 0.000000 0.000000
0.928130 0.000000 0.000000
0.946389 0.000000 0.000000
0.959955 0.000000 0.000000
0.970049 0.000000 0.000000
0.977571 0.000000 0.000000
0.983183 0.000000 0.000000
0.987377 0.000000 0.000000
0.990515 0.000000 0.000000
0.992865 0.000000 0.000000
0.994627 0.000000 0.000000
0.000000 0.000000 0.000000
0.000000 0.000000 0.000000
0.043552 0.000000 0.000000
0.095520 0.000000 0.000000
0.145627 0.000000 0.000000
0.194396 0.000000 0.000000
0.242124 0.000000 0.000000
0.289002 0.000000 0.000000
0.335166 0.000000 0.000000
0.380715 0.000000 0.000000
0.425723 0.000000 0.000000
0.470250 0.000000 0.000000
0.514345 0.000000 0.000000
0.558048 0.000000 0.000000
0.601392 0.000000 0.000000
0.644405 0.000000 0.000000
0.687112 0.000000 0.000000
0.729533 0.000000 0.000000
0.771688 0.000000 0.000000
0.818505 0.000000 0.000000
0.865227 0.000000 0.000000
0.899761 0.000000 0.000000
0.925335 0.000000 0.000000
0.944304 0.000000 0.000000
0.958397 0.000000 0.000000
0.968884 0.000000 0.000000
0.976698 0.000000 0.000000
0.982529 0.000000 0.000000
0.986886 0.000000 0.000000
0.990146 0.000000 0.000000
0.992588 0.000000 0.000000
0.994418 0.000000 0.000000
0.000000 0.028417 0.000000
0.000000 0.026587 0.000000
0.038744 0.025019 0.000000
0.090712 0.023537 0.000000
0.140820 0.022108 0.000000
0.189589 0.020717 0.000000
0.237316 0.019355 0.000000
0.284195 0.018018 0.000000
0.330359 0.016702 0.000000
0.375907 0.015403 0.000000
0.420915 0.014119 0.000000
0.465443 0.012849 0.000000
0.509538 0.011591 0.000000
0.553241 0.010345 0.000000
0.596585 0.009109 0.000000
0.639598 0.007882 0.000000
0.682304 0.006664 0.000000
0.724726 0.005454 0.000000
0.766880 0.004251 0.000000
0.812164 0.003056 0.000000
0.860518 0.001868 0.000000
0.896260 0.000686 0.000000
0.922726 0.000000 0.000000
0.942358 0.000000 0.000000
0.956944 0.000000 0.000000
0.967797 0.000000 0.000000
0.975884 0.000000 0.000000
0.981919 0.000000 0.000000
0.986428 0.000000 0.000000
0.989802 0.000000 0.000000
0.992329 0.000000 0.000000
0.994223 0.000000 0.000000
0.000000 0.073364 0.000000
0.000000 0.071534 0.000000
0.034120 0.069966 0.000000
0.086088 0.068484 0.000000
0.136196 0.067055 0.000000
0.184964 0.065664 0.000000
0.232692 0.064303 0.000000
0.279570 0.062966 0.000000
0.325735 0.061649 0.000000
0.371283 0.060350 0.000000
0.416291 0.059066 0.000000
0.460818 0.057796 0.000000
0.504914 0.056539 0.000000
0.548616 0.055292 0.000000
0.591960 0.054056 0.000000
0.634973 0.052829 0.000000
0.677680 0.051611 0.000000
0.720101 0.050401 0.000000
0.762256 0.049199 0.000000
0.805856 0.048004 0.000000
0.855834 0.046815 0.000000
0.892776 0.045633 0.000000
0.920131 0.044457 0.000000
0.940422 0.043287 0.000000
0.955498 0.042122 0.000000
0.966715 0.040962 0.000000
0.975074 0.039807 0.000000
0.981312 0.038657 0.000000
0.985972 0.037512 0.000000
0.989459 0.036371 0.000000
0.992071 0.035234 0.000000
0.994030 0.034101 0.000000
0.000000 0.117193 0.000000
0.000000 0.115363 0.000000
0.029611 0.113796 0.000000
0.081578 0.112313 0.000000
0.131686 0.110884 0.000000
0.180455 0.109493 0.000000
0.228182 0.108132 0.000000
0.275061 0.106795 0.000000
0.321225 0.105478 0.000000
0.366773 0.104179 0.000000
0.411781 0.102895 0.000000
0.456309 0.101625 0.000000
0.500404 0.100368 0.000000
0.544107 0.099121 0.000000
0.587451 0.097885 0.000000
0.630464 0.096658 0.000000
0.673171 0.095440 0.000000
0.715592 0.094230 0.000000
0.757747 0.093028 0.000000
0.799651 0.091833 0.000000
0.851115 0.090644 0.000000
0.889266 0.089462 0.000000
0.917517 0.088286 0.000000
0.938472 0.087116 0.000000
0.954041 0.085951 0.000000
0.965626 0.084791 0.000000
0.974258 0.083637 0.000000
0.980700 0.082486 0.000000
0.985513 0.081341 0.000000
0.989114 0.080200 0.000000
0.991811 0.079063 0.000000
0.993834 0.077930 0.000000
0.000000 0.160210 0.000000
0.000000 0.158380 0.000000
0.025185 0.156812 0.000000
0.077153 0.155330 0.000000
0.127260 0.153900 0.000000
0.176029 0.152510 0.000000
0.223757 0.151148 0.000000
0.270635 0.149811 0.000000
0.316799 0.148495 0.000000
0.362348 0.147195 0.000000
0.407356 0.145912 0.000000
0.451883 0.144642 0.000000
0.495978 0.143384 0.000000
0.539681 0.142138 0.000000
0.583025 0.140901 0.000000
0.626038 0.139675 0.000000
0.668745 0.138457 0.000000
0.711166 0.137247 0.000000
0.753321 0.136044 0.000000
0.795225 0.134849 0.000000
0.846333 0.133661 0.000000
0.885709 0.132479 0.000000
0.914867 0.131303 0.000000
0.936496 0.130132 0.000000
0.952565 0.128967 0.000000
0.964522 0.127808 0.000000
0.973432 0.126653 0.000000
0.980080 0.125503 0.000000
0.985048 0.124357 0.000000
0.988765 0.123216 0.000000
0.991548 0.122079 0.000000
0.993636 0.120947 0.000000
0.000000 0.202589 0.000000
0.000000 0.200759 0.000000
0.020825 0.199191 0.000000
0.072792 0.197709 0.000000
0.122900 0.196280 0.000000
0.171669 0.194889 0.000000
0.219397 0.193528 0.000000
0.266275 0.192191 0.000000
0.312439 0.190874 0.000000
0.357987 0.189575 0.000000
0.402995 0.188291 0.000000
0.447523 0.187021 0.000000
0.491618 0.185763 0.000000
0.535321 0.184517 0.000000
0.578665 0.183281 0.000000
0.621678 0.182054 0.000000
0.664385 0.180836 0.000000
0.706806 0.179626 0.000000
0.748961 0.178424 0.000000
0.790865 0.177228 0.000000
0.841472 0.176040 0.000000
0.882094 0.174858 0.000000
0.912174 0.173682 0.000000
0.934487 0.172512 0.000000
0.951064 0.171347 0.000000
0.963399 0.170187 0.000000
0.972591 0.169032 0.000000
0.979450 0.167882 0.000000
0.984575 0.166737 0.000000
0.988409 0.165596 0.000000
0.991281 0.164459 0.000000
0.993435 0.163326 0.000000
0.000000 0.244446 0.000000
0.000000 0.242616 0.000000
0.016518 0.241048 0.000000
0.068486 0.239566 0.000000
0.118594 0.238137 0.000000
0.167363 0.236746 0.000000
0.215090 0.235384 0.000000
0.261969 0.234047 0.000000
0.308133 0.232731 0.000000
0.353681 0.231432 0.000000
0.398689 0.230148 0.000000
0.443217 0.228878 0.000000
0.487312 0.227620 0.000000
0.531015 0.226374 0.000000
0.574358 0.225138 0.000000
0.617372 0.223911 0.000000
0.660078 0.222693 0.000000
0.702500 0.221483 0.000000
0.744654 0.220280 0.000000
0.786559 0.219085 0.000000
0.836520 0.217897 0.000000
0.878411 0.216715 0.000000
0.909431 0.215539 0.000000
0.932440 0.214368 0.000000
0.949536 0.213203 0.000000
0.962256 0.212044 0.000000
0.971735 0.210889 0.000000
0.978808 0.209739 0.000000
0.984093 0.208593 0.000000
0.988047 0.207452 0.000000
0.991009 0.206315 0.000000
0.993230 0.205183 0.000000
0.000000 0.285860 0.000000
0.000000 0.284030 0.000000
0.012257 0.282463 0.000000
0.064225 0.280980 0.000000
0.114333 0.279551 0.000000
0.163102 0.278160 0.000000
0.210829 0.276799 0.000000
0.257708 0.275462 0.000000
0.303872 0.274145 0.000000
0.349420 0.272846 0.000000
0.394428 0.271562 0.000000
0.438956 0.270293 0.000000
0.483051 0.269035 0.000000
0.526754 0.267788 0.000000
0.570098 0.266552 0.000000
0.613111 0.265325 0.000000
0.655817 0.264107 0.000000
0.698239 0.262897 0.000000
0.740393 0.261695 0.000000
0.782298 0.260500 0.000000
0.831468 0.259311 0.000000
0.874653 0.258129 0.000000
0.906632 0.256953 0.000000
0.930353 0.255783 0.000000
0.947976 0.254618 0.000000
0.961090 0.253458 0.000000
0.970861 0.252304 0.000000
0.978153 0.251154 0.000000
0.983602 0.250008 0.000000
0.987678 0.248867 0.000000
0.990731 0.247730 0.000000
0.993020 0.246597 0.000000
0.000000 0.326892 0.000000
0.000000 0.325062 0.000000
0.008036 0.323494 0.000000
0.060004 0.322012 0.000000
0.110111 0.320583 0.000000
0.158880 0.319192 0.000000
0.206608 0.317831 0.000000
0.253486 0.316494 0.000000
0.299650 0.315177 0.000000
0.345199 0.313878 0.000000
0.390207 0.312594 0.000000
0.434734 0.311324 0.000000
0.478829 0.310067 0.000000
0.522532 0.308820 0.000000
0.565876 0.307584 0.000000
0.608889 0.306357 0.000000
0.651596 0.305139 0.000000
0.694017 0.303929 0.000000
0.736172 0.302727 0.000000
0.778076 0.301532 0.000000
0.826308 0.300343 0.000000
0.870816 0.299161 0.000000
0.903774 0.297985 0.000000
0.928220 0.296815 0.000000
0.946383 0.295650 0.000000
0.959898 0.294490 0.000000
0.969969 0.293335 0.000000
0.977484 0.292185 0.000000
0.983100 0.291040 0.000000
0.987300 0.289899 0.000000
0.990447 0.288762 0.000000
0.992807 0.287629 0.000000
0.000000 0.367587 0.000000
0.000000 0.365757 0.000000
0.003849 0.364189 0.000000
0.055817 0.362707 0.000000
0.105924 0.361278 0.000000
0.154693 0.359887 0.000000
0.202421 0.358526 0.000000
0.249299 0.357189 0.000000
0.295463 0.355872 0.000000
0.341012 0.354573 0.000000
0.386020 0.353289 0.000000
0.430547 0.352019 0.000000
0.474642 0.350762 0.000000
0.518345 0.349515 0.000000
0.561689 0.348279 0.000000
0.604702 0.347052 0.000000
0.647409 0.345834 0.000000
0.689830 0.344624 0.000000
0.731985 0.343422 0.000000
0.773889 0.342227 0.000000
0.821035 0.341038 0.000000
0.866894 0.339856 0.000000
0.900852 0.338680 0.000000
0.926041 0.337510 0.000000
0.944756 0.336345 0.000000
0.958681 0.335185 0.000000
0.969058 0.334030 0.000000
0.976801 0.332880 0.000000
0.982586 0.331735 0.000000
0.986915 0.330594 0.000000
0.990157 0.329457 0.000000
0.992588 0.328324 0.000000
0.000000 0.407981 0.000000
0.000000 0.406151 0.000000
0.000000 0.404583 0.000000
0.051661 0.403101 0.000000
0.101769 0.401672 0.000000
0.150537 0.400281 0.000000
0.198265 0.398920 0.000000
0.245143 0.397583 0.000000
0.291308 0.396266 0.000000
0.336856 0.394967 0.000000
0.381864 0.393683 0.000000
0.426391 0.392413 0.000000
0.470487 0.391156 0.000000
0.514189 0.389909 0.000000
0.557533 0.388673 0.000000
0.600546 0.387446 0.000000
0.643253 0.386228 0.000000
0.685674 0.385018 0.000000
0.727829 0.383816 0.000000
0.769734 0.382621 0.000000
0.815643 0.381432 0.000000
0.862884 0.380250 0.000000
0.897865 0.379074 0.000000
0.923813 0.377904 0.000000
0.943091 0.376739 0.000000
0.957436 0.375579 0.000000
0.968125 0.374424 0.000000
0.976102 0.373274 0.000000
0.982062 0.372129 0.000000
0.986521 0.370988 0.000000
0.989860 0.369851 0.000000
0.992365 0.368718 0.000000
0.000000 0.448104 0.000000
0.000000 0.446274 0.000000
0.000000 0.444706 0.000000
0.047533 0.443224 0.000000
0.097641 0.441795 0.000000
0.146409 0.440404 0.000000
0.194137 0.439042 0.000000
0.241015 0.437705 0.000000
0.287180 0.436389 0.000000
0.332728 0.435090 0.000000
0.377736 0.433806 0.000000
0.422263 0.432536 0.000000
0.466359 0.431278 0.000000
0.510061 0.430032 0.000000
0.553405 0.428795 0.000000
0.596418 0.427569 0.000000
0.639125 0.426351 0.000000
0.681546 0.425141 0.000000
0.723701 0.423938 0.000000
0.765606 0.422743 0.000000
0.810126 0.421555 0.000000
0.858780 0.420373 0.000000
0.894809 0.419197 0.000000
0.921533 0.418026 0.000000
0.941388 0.416861 0.000000
0.956162 0.415702 0.000000
0.967172 0.414547 0.000000
0.975387 0.413397 0.000000
0.981525 0.412251 0.000000
0.986117 0.411110 0.000000
0.989557 0.409973 0.000000
0.992137 0.408841 0.000000
0.000000 0.487979 0.000000
0.000000 0.486149 0.000000
0.000000 0.484581 0.000000
0.043430 0.483099 0.000000
0.093538 0.481670 0.000000
0.142307 0.480279 0.000000
0.190034 0.478918 0.000000
0.236913 0.477581 0.000000
0.283077 0.476264 0.000000
0.328625 0.474965 0.000000
0.373633 0.473681 0.000000
0.418161 0.472411 0.000000
0.462256 0.471154 0.000000
0.505959 0.469907 0.000000
0.549303 0.468671 0.000000
0.592316 0.467444 0.000000
0.635022 0.466226 0.000000
0.677444 0.465016 0.000000
0.719599 0.463814 0.000000
0.761503 0.462619 0.000000
0.804480 0.461430 0.000000
0.854581 0.460248 0.000000
0.891681 0.459072 0.000000
0.919200 0.457902 0.000000
0.939645 0.456737 0.000000
0.954859 0.455577 0.000000
0.966195 0.454422 0.000000
0.974655 0.453272 0.000000
0.980976 0.452127 0.000000
0.985704 0.450986 0.000000
0.989247 0.449849 0.000000
0.991903 0.448716 0.000000
0.000000 0.527627 0.000000
0.000000 0.525798 0.000000
0.000000 0.524230 0.000000
0.039351 0.522748 0.000000
0.089459 0.521318 0.000000
0.138228 0.519927 0.000000
0.185955 0.518566 0.000000
0.232834 0.517229 0.000000
0.278998 0.515912 0.000000
0.324546 0.514613 0.000000
0.369554 0.513330 0.000000
0.414081 0.512060 0.000000
0.458177 0.510802 0.000000
0.501880 0.509556 0.000000
0.545223 0.508319 0.000000
0.588236 0.507093 0.000000
0.630943 0.505875 0.000000
0.673365 0.504665 0.000000
0.715519 0.503462 0.000000
0.757424 0.502267 0.000000
0.799092 0.501079 0.000000
0.850281 0.499897 0.000000
0.888478 0.498720 0.000000
0.916811 0.497550 0.000000
0.937861 0.496385 0.000000
0.953524 0.495225 0.000000
0.965196 0.494071 0.000000
0.973905 0.492921 0.000000
0.980413 0.491775 0.000000
0.985282 0.490634 0.000000
0.988929 0.489497 0.000000
0.991663 0.488364 0.000000
0.000000 0.567067 0.000000
0.000000 0.565237 0.000000
0.000000 0.563669 0.000000
0.035293 0.562187 0.000000
0.085401 0.560757 0.000000
0.134170 0.559367 0.000000
0.181897 0.558005 0.000000
0.228776 0.556668 0.000000
0.274940 0.555352 0.000000
0.320488 0.554052 0.000000
0.365496 0.552769 0.000000
0.410024 0.551499 0.000000
0.454119 0.550241 0.000000
0.497822 0.548995 0.000000
0.541166 0.547758 0.000000
0.584179 0.546532 0.000000
0.626885 0.545314 0.000000
0.669307 0.544104 0.000000
0.711462 0.542901 0.000000
0.753366 0.541706 0.000000
0.795035 0.540518 0.000000
0.845879 0.539336 0.000000
0.885198 0.538160 0.000000
0.914364 0.536989 0.000000
0.936033 0.535824 0.000000
0.952157 0.534665 0.000000
0.964172 0.533510 0.000000
0.973138 0.532360 0.000000
0.979837 0.531214 0.000000
0.984849 0.530073 0.000000
0.988603 0.528936 0.000000
0.991418 0.527804 0.000000
0.000000 0.606311 0.000000
0.000000 0.604481 0.000000
0.000000 0.602914 0.000000
0.031256 0.601431 0.000000
0.081363 0.600002 0.000000
0.130132 0.598611 0.000000
0.177860 0.597250 0.000000
0.224738 0.595913 0.000000
0.270902 0.594596 0.000000
0.316451 0.593297 0.000000
0.361459 0.592013 0.000000
0.405986 0.590744 0.000000
0.450081 0.589486 0.000000
0.493784 0.588239 0.000000
0.537128 0.587003 0.000000
0.580141 0.585776 0.000000
0.622848 0.584558 0.000000
0.665269 0.583348 0.000000
0.707424 0.582146 0.000000
0.749328 0.580951 0.000000
0.790997 0.579762 0.000000
0.841369 0.578580 0.000000
0.881839 0.577404 0.000000
0.911859 0.576234 0.000000
0.934162 0.575069 0.000000
0.950757 0.573909 0.000000
0.963124 0.572755 0.000000
0.972352 0.571605 0.000000
0.979247 0.570459 0.000000
0.984406 0.569318 0.000000
0.988270 0.568181 0.000000
0.991167 0.567048 0.000000
0.000000 0.645375 0.000000
0.000000 0.643545 0.000000
0.000000 0.641977 0.000000
0.027237 0.640495 0.000000
0.077344 0.639065 0.000000
0.126113 0.637675 0.000000
0.173841 0.636313 0.000000
0.220719 0.634976 0.000000
0.266883 0.633660 0.000000
0.312432 0.632360 0.000000
0.357440 0.631077 0.000000
0.401967 0.629807 0.000000
0.446062 0.628549 0.000000
0.489765 0.627303 0.000000
0.533109 0.626066 0.000000
0.576122 0.624840 0.000000
0.618829 0.623622 0.000000
0.661250 0.622412 0.000000
0.703405 0.621209 0.000000
0.745309 0.620014 0.000000
0.786978 0.618826 0.000000
0.836749 0.617644 0.000000
0.878398 0.616468 0.000000
0.909292 0.615297 0.000000
0.932244 0.614132 0.000000
0.949323 0.612973 0.000000
0.962050 0.611818 0.000000
0.971547 0.610668 0.000000
0.978643 0.609522 0.000000
0.983951 0.608381 0.000000
0.987928 0.607244 0.000000
0.990910 0.606112 0.000000
0.000000 0.684268 0.000000
0.000000 0.682438 0.000000
0.000000 0.680870 0.000000
0.023235 0.679388 0.000000
0.073343 0.677959 0.000000
0.122112 0.676568 0.000000
0.169839 0.675207 0.000000
0.216718 0.673870 0.000000
0.262882 0.672553 0.000000
0.308430 0.671254 0.000000
0.353438 0.669970 0.000000
0.397966 0.668700 0.000000
0.442061 0.667443 0.000000
0.485764 0.666196 0.000000
0.529107 0.664960 0.000000
0.572121 0.663733 0.000000
0.614827 0.662515 0.000000
0.657249 0.661305 0.000000
0.699403 0.660103 0.000000
0.741308 0.658908 0.000000
0.782976 0.657719 0.000000
0.832016 0.656537 0.000000
0.874872 0.655361 0.000000
0.906662 0.654191 0.000000
0.930280 0.653026 0.000000
0.947854 0.651866 0.000000
0.960950 0.650711 0.000000
0.970722 0.649561 0.000000
0.978024 0.648416 0.000000
0.983486 0.647275 0.000000
0.987578 0.646138 0.000000
0.990646 0.645005 0.000000
0.000000 0.723001 0.000000
0.000000 0.721172 0.000000
0.000000 0.719604 0.000000
0.019250 0.718122 0.000000
0.069358 0.716692 0.000000
0.118126 0.715301 0.000000
0.165854 0.713940 0.000000
0.212733 0.712603 0.000000
0.258897 0.711286 0.000000
0.304445 0.709987 0.000000
0.349453 0.708704 0.000000
0.393980 0.707434 0.000000
0.438076 0.706176 0.000000
0.481779 0.704930 0.000000
0.525122 0.703693 0.000000
0.568135 0.702467 0.000000
0.610842 0.701249 0.000000
0.653264 0.700039 0.000000
0.695418 0.698836 0.000000
0.737323 0.697641 0.000000
0.778991 0.696453 0.000000
0.827165 0.695271 0.000000
0.871259 0.694095 0.000000
0.903967 0.692924 0.000000
0.928267 0.691759 0.000000
0.946348 0.690600 0.000000
0.959822 0.689445 0.000000
0.969876 0.688295 0.000000
0.977389 0.687149 0.000000
0.983009 0.686008 0.000000
0.987219 0.684871 0.000000
0.990376 0.683738 0.000000
0.000000 0.761584 0.000000
0.000000 0.759754 0.000000
0.000000 0.758186 0.000000
0.015280 0.756704 0.000000
0.065388 0.755275 0.000000
0.114157 0.753884 0.000000
0.161884 0.752523 0.000000
0.208763 0.751186 0.000000
0.254927 0.749869 0.000000
0.300475 0.748570 0.000000
0.345483 0.747286 0.000000
0.390011 0.746016 0.000000
0.434106 0.744759 0.000000
0.477809 0.743512 0.000000
0.521153 0.742276 0.000000
0.564166 0.741049 0.000000
0.606872 0.739831 0.000000
0.649294 0.738621 0.000000
0.691449 0.737419 0.000000
0.733353 0.736224 0.000000
0.775022 0.735035 0.000000
0.822194 0.733853 0.000000
0.867557 0.732677 0.000000
0.901205 0.731507 0.000000
0.926204 0.730342 0.000000
0.944805 0.729182 0.000000
0.958667 0.728027 0.000000
0.969010 0.726877 0.000000
0.976739 0.725732 0.000000
0.982521 0.724591 0.000000
0.986852 0.723454 0.000000
0.990099 0.722321 0.000000
0.000000 0.800035 0.000000
0.000000 0.798194 0.000000
0.000000 0.796627 0.000000
0.011325 0.795144 0.000000
0.061433 0.793715 0.000000
0.110202 0.792324 0.000000
0.157930 0.790963 0.000000
0.204808 0.789626 0.000000
0.250972 0.788309 0.000000
0.296520 0.787010 0.000000
0.341528 0.785727 0.000000
0.386056 0.784457 0.000000
0.430151 0.783199 0.000000
0.473854 0.781952 0.000000
0.517198 0.780716 0.000000
0.560211 0.779489 0.000000
0.602918 0.778271 0.000000
0.645339 0.777061 0.000000
0.687494 0.775859 0.000000
0.729398 0.774664 0.000000
0.771067 0.773476 0.000000
0.817100 0.772293 0.000000
0.863762 0.771117 0.000000
0.898374 0.769947 0.000000
0.924089 0.768782 0.000000
0.943224 0.767622 0.000000
0.957482 0.766468 0.000000
0.968122 0.765318 0.000000
0.976072 0.764172 0.000000
0.982020 0.763031 0.000000
0.986475 0.761894 0.000000
0.989816 0.760761 0.000000
0.000000 0.847900 0.000000
0.000000 0.845899 0.000000
0.000000 0.844163 0.000000
0.007384 0.842505 0.000000
0.057492 0.840889 0.000000
0.106261 0.839300 0.000000
0.153989 0.837730 0.000000
0.200867 0.836173 0.000000
0.247031 0.834625 0.000000
0.292579 0.833083 0.000000
0.337587 0.831545 0.000000
0.382115 0.830010 0.000000
0.426210 0.828476 0.000000
0.469913 0.826942 0.000000
0.513257 0.825408 0.000000
0.556270 0.823871 0.000000
0.598977 0.822332 0.000000
0.641398 0.820790 0.000000
0.683553 0.819244 0.000000
0.725457 0.817694 0.000000
0.767126 0.816140 0.000000
0.811878 0.814581 0.000000
0.859872 0.813017 0.000000
0.895473 0.811447 0.000000
0.921922 0.809872 0.000000
0.941603 0.808290 0.000000
0.956269 0.806703 0.000000
0.967212 0.805108 0.000000
0.975389 0.803507 0.000000
0.981507 0.801899 0.000000
0.986089 0.800284 0.000000
0.989525 0.799066 0.000000
0.000000 0.884201 0.000000
0.000000 0.882678 0.000000
0.000000 0.881356 0.000000
0.003457 0.880094 0.000000
0.053565 0.878863 0.000000
0.102333 0.877654 0.000000
0.150061 0.876458 0.000000
0.196940 0.875273 0.000000
0.243104 0.874094 0.000000
0.288652 0.872921 0.000000
0.333660 0.871750 0.000000
0.378187 0.870581 0.000000
0.422283 0.869413 0.000000
0.465985 0.868246 0.000000
0.509329 0.867077 0.000000
0.552342 0.865907 0.000000
0.595049 0.864735 0.000000
0.637470 0.863561 0.000000
0.679625 0.862385 0.000000
0.721530 0.861205 0.000000
0.763198 0.860022 0.000000
0.806526 0.858835 0.000000
0.855885 0.857644 0.000000
0.892498 0.856449 0.000000
0.919700 0.855249 0.000000
0.939941 0.854045 0.000000
0.955024 0.852836 0.000000
0.966279 0.851622 0.000000
0.974689 0.850404 0.000000
0.980980 0.849179 0.000000
0.985693 0.847949 0.000000
0.989227 0.846714 0.000000
0.000000 0.911761 0.000000
0.000000 0.910600 0.000000
0.000000 0.909593 0.000000
0.000000 0.908631 0.000000
0.049650 0.907694 0.000000
0.098418 0.906772 0.000000
0.146146 0.905861 0.000000
0.193024 0.904958 0.000000
0.239188 0.904060 0.000000
0.284737 0.903165 0.000000
0.329745 0.902273 0.000000
0.374272 0.901383 0.000000
0.418368 0.900493 0.000000
0.462070 0.899603 0.000000
0.505414 0.898713 0.000000
0.548427 0.897821 0.000000
0.591134 0.896928 0.000000
0.633555 0.896034 0.000000
0.675710 0.895137 0.000000
0.717614 0.894238 0.000000
0.759283 0.893336 0.000000
0.801039 0.892432 0.000000
0.851798 0.891524 0.000000
0.889450 0.890614 0.000000
0.917423 0.889700 0.000000
0.938238 0.888782 0.000000
0.953749 0.887861 0.000000
0.965323 0.886936 0.000000
0.973971 0.886007 0.000000
0.980441 0.885074 0.000000
0.985287 0.884137 0.000000
0.988921 0.883196 0.000000
0.000000 0.932706 0.000000
0.000000 0.931820 0.000000
0.000000 0.931052 0.000000
0.000000 0.930319 0.000000
0.045747 0.929604 0.000000
0.094515 0.928901 0.000000
0.142243 0.928206 0.000000
0.189121 0.927517 0.000000
0.235285 0.926832 0.000000
0.280834 0.926150 0.000000
0.325842 0.925470 0.000000
0.370369 0.924791 0.000000
0.414464 0.924112 0.000000
0.458167 0.923433 0.000000
0.501511 0.922754 0.000000
0.544524 0.922074 0.000000
0.587231 0.921393 0.000000
0.629652 0.920711 0.000000
0.671807 0.920027 0.000000
0.713711 0.919342 0.000000
0.755380 0.918654 0.000000
0.796826 0.917964 0.000000
0.847609 0.917272 0.000000
0.886324 0.916578 0.000000
0.915089 0.915881 0.000000
0.936492 0.915181 0.000000
0.952441 0.914478 0.000000
0.964343 0.913773 0.000000
0.973235 0.913065 0.000000
0.979888 0.912353 0.000000
0.984871 0.911639 0.000000
0.988608 0.910921 0.000000
0.000000 0.948637 0.000000
0.000000 0.947962 0.000000
0.000000 0.947376 0.000000
0.000000 0.946816 0.000000
0.041855 0.946270 0.000000
0.090624 0.945733 0.000000
0.138351 0.945203 0.000000
0.185230 0.944677 0.000000
0.231394 0.944155 0.000000
0.276942 0.943634 0.000000
0.321950 0.943115 0.000000
0.366478 0.942596 0.000000
0.410573 0.942078 0.000000
0.454276 0.941560 0.000000
0.497620 0.941042 0.000000
0.540633 0.940523 0.000000
0.583339 0.940003 0.000000
0.625761 0.939483 0.000000
0.667916 0.938961 0.000000
0.709820 0.938437 0.000000
0.751489 0.937913 0.000000
0.792935 0.937386 0.000000
0.843313 0.936858 0.000000
0.883120 0.936328 0.000000
0.912695 0.935796 0.000000
0.934702 0.935262 0.000000
0.951101 0.934726 0.000000
0.963338 0.934187 0.000000
0.972481 0.933647 0.000000
0.979321 0.933103 0.000000
0.984445 0.932558 0.000000
0.988287 0.932010 0.000000
0.000000 0.960767 0.000000
0.000000 0.960251 0.000000
0.000000 0.959804 0.000000
0.000000 0.959376 0.000000
0.037975 0.958959 0.000000
0.086743 0.958549 0.000000
0.134471 0.958144 0.000000
0.181350 0.957742 0.000000
0.227514 0.957343 0.000000
0.273062 0.956945 0.000000
0.318070 0.956549 0.000000
0.362597 0.956153 0.000000
0.406693 0.955757 0.000000
0.450396 0.955362 0.000000
0.493739 0.954966 0.000000
0.536752 0.954569 0.000000
0.579459 0.954172 0.000000
0.621880 0.953775 0.000000
0.664035 0.953376 0.000000
