assets/luts/kodak.cube
# Beauty Camera 3D LUT
# Filter: Kodak (kodak)
# Category: Film
TITLE "Kodak"
LUT_3D_SIZE 32
DOMAIN_MIN 0.0 0.0 0.0
DOMAIN_MAX 1.0 1.0 1.0
0.010109 0.027616 0.025612
0.046018 0.026909 0.024905
0.081335 0.026212 0.024209
0.116824 0.025513 0.023509
0.152717 0.024806 0.022802
0.189123 0.024088 0.022084
0.226105 0.023359 0.021356
0.263701 0.022618 0.020615
0.301937 0.021865 0.019861
0.340830 0.021098 0.019095
0.380394 0.020319 0.018315
0.420636 0.019525 0.017522
0.461564 0.018719 0.016715
0.503183 0.017899 0.015895
0.545463 0.017065 0.015062
0.587276 0.016241 0.014238
0.628076 0.015437 0.013433
0.667884 0.014653 0.012649
0.709442 0.013887 0.011884
0.757388 0.013141 0.011137
0.796507 0.012413 0.010410
0.828559 0.011704 0.009700
0.854926 0.011013 0.009009
0.876705 0.010340 0.008336
0.894763 0.009684 0.007680
0.909795 0.009046 0.007042
0.922354 0.008426 0.006422
0.932885 0.007823 0.005819
0.941748 0.007236 0.005233
0.949233 0.006667 0.004663
0.955576 0.006115 0.004111
0.960970 0.005579 0.003575
0.008074 0.056880 0.023578
0.043983 0.056172 0.022870
0.079300 0.055476 0.022174
0.114789 0.054777 0.021474
0.150682 0.054069 0.020767
0.187088 0.053352 0.020049
0.224070 0.052623 0.019321
0.261666 0.051882 0.018580
0.299902 0.051128 0.017826
0.338795 0.050362 0.017060
0.378359 0.049582 0.016280
0.418601 0.048789 0.015487
0.459529 0.047982 0.014680
0.501148 0.047162 0.013860
0.543428 0.046329 0.013027
0.585241 0.045505 0.012203
0.626041 0.044701 0.011398
0.665849 0.043916 0.010614
0.706613 0.043151 0.009849
0.755026 0.042404 0.009102
0.794526 0.041677 0.008375
0.826889 0.040967 0.007665
0.853514 0.040276 0.006974
0.875504 0.039603 0.006301
0.893739 0.038948 0.005645
0.908917 0.038310 0.005008
0.921597 0.037689 0.004387
0.932231 0.037086 0.003784
0.941180 0.036500 0.003198
0.948738 0.035931 0.002628
0.955143 0.035378 0.002076
0.960589 0.034843 0.001540
0.006004 0.086644 0.021508
0.041913 0.085936 0.020800
0.077231 0.085240 0.020104
0.112720 0.084540 0.019405
0.148612 0.083833 0.018697
0.185018 0.083116 0.017980
0.222000 0.082387 0.017251
0.259596 0.081646 0.016510
0.297832 0.080892 0.015756
0.336726 0.080126 0.014990
0.376289 0.079346 0.014210
0.416532 0.078553 0.013417
0.457460 0.077746 0.012610
0.499078 0.076926 0.011790
0.541359 0.076093 0.010957
0.583171 0.075269 0.010133
0.623971 0.074465 0.009329
0.663779 0.073680 0.008544
0.703707 0.072915 0.007779
0.752599 0.072168 0.007033
0.792491 0.071441 0.006305
0.825175 0.070731 0.005595
0.852063 0.070040 0.004904
0.874271 0.069367 0.004231
0.892686 0.068711 0.003576
0.908014 0.068074 0.002938
0.920821 0.067453 0.002317
0.931560 0.066850 0.001714
0.940598 0.066264 0.001128
0.948231 0.065694 0.000559
0.954699 0.065142 0.000006
0.960199 0.064606 0.000000
0.003893 0.117001 0.019397
0.039802 0.116293 0.018689
0.075120 0.115597 0.017993
0.110609 0.114898 0.017294
0.146501 0.114190 0.016586
0.182907 0.113473 0.015869
0.219889 0.112744 0.015140
0.257485 0.112003 0.014399
0.295721 0.111249 0.013645
0.334615 0.110483 0.012879
0.374178 0.109703 0.012099
0.414421 0.108910 0.011306
0.455349 0.108103 0.010499
0.496967 0.107283 0.009679
0.539248 0.106450 0.008846
0.581060 0.105626 0.008022
0.621860 0.104822 0.007218
0.661668 0.104037 0.006433
0.700713 0.103272 0.005668
0.750100 0.102526 0.004921
0.790394 0.101798 0.004194
0.823408 0.101088 0.003484
0.850568 0.100397 0.002793
0.873001 0.099724 0.002120
0.891602 0.099069 0.001465
0.907085 0.098431 0.000827
0.920021 0.097810 0.000206
0.930869 0.097207 0.000000
0.939998 0.096621 0.000000
0.947708 0.096052 0.000000
0.954241 0.095499 0.000000
0.959797 0.094964 0.000000
0.001738 0.147992 0.017242
0.037647 0.147284 0.016534
0.072965 0.146588 0.015838
0.108453 0.145888 0.015138
0.144346 0.145181 0.014431
0.180752 0.144464 0.013714
0.217734 0.143735 0.012985
0.255330 0.142994 0.012244
0.293566 0.142240 0.011490
0.332460 0.141474 0.010724
0.372023 0.140694 0.009944
0.412265 0.139901 0.009151
0.453194 0.139094 0.008344
0.494812 0.138274 0.007524
0.537093 0.137441 0.006691
0.578905 0.136617 0.005867
0.619705 0.135813 0.005063
0.659513 0.135028 0.004278
0.698345 0.134263 0.003513
0.747522 0.133516 0.002766
0.788232 0.132789 0.002039
0.821587 0.132079 0.001329
0.849027 0.131388 0.000638
0.871691 0.130715 0.000000
0.890484 0.130059 0.000000
0.906127 0.129422 0.000000
0.919196 0.128801 0.000000
0.930155 0.128198 0.000000
0.939379 0.127612 0.000000
0.947168 0.127043 0.000000
0.953769 0.126490 0.000000
0.959382 0.125954 0.000000
0.000000 0.179638 0.015041
0.035446 0.178930 0.014333
0.070764 0.178234 0.013637
0.106253 0.177535 0.012938
0.142145 0.176827 0.012230
0.178552 0.176110 0.011513
0.215534 0.175381 0.010784
0.253130 0.174640 0.010043
0.291366 0.173887 0.009290
0.330259 0.173120 0.008523
0.369822 0.172340 0.007743
0.410065 0.171547 0.006950
0.450993 0.170741 0.006144
0.492612 0.169920 0.005323
0.534892 0.169087 0.004490
0.576704 0.168263 0.003666
0.617505 0.167459 0.002862
0.657312 0.166674 0.002077
0.696144 0.165909 0.001312
0.744862 0.165163 0.000566
0.786001 0.164435 0.000000
0.819707 0.163726 0.000000
0.847436 0.163034 0.000000
0.870339 0.162361 0.000000
0.889330 0.161706 0.000000
0.905138 0.161068 0.000000
0.918345 0.160447 0.000000
0.929420 0.159844 0.000000
0.938740 0.159258 0.000000
0.946612 0.158689 0.000000
0.953282 0.158136 0.000000
0.958954 0.157601 0.000000
0.000000 0.211953 0.012794
0.033199 0.211245 0.012086
0.068517 0.210549 0.011390
0.104006 0.209850 0.010691
0.139898 0.209142 0.009983
0.176304 0.208425 0.009266
0.213286 0.207696 0.008537
0.250882 0.206955 0.007796
0.289118 0.206202 0.007042
0.328012 0.205435 0.006276
0.367575 0.204655 0.005496
0.407818 0.203862 0.004703
0.448746 0.203056 0.003896
0.490364 0.202235 0.003076
0.532645 0.201402 0.002243
0.574457 0.200578 0.001419
0.615257 0.199774 0.000615
0.655065 0.198989 0.000000
0.693897 0.198224 0.000000
0.742117 0.197478 0.000000
0.783699 0.196750 0.000000
0.817768 0.196041 0.000000
0.845795 0.195350 0.000000
0.868944 0.194676 0.000000
0.888140 0.194021 0.000000
0.904117 0.193383 0.000000
0.917466 0.192763 0.000000
0.928660 0.192159 0.000000
0.938081 0.191573 0.000000
0.946037 0.191004 0.000000
0.952780 0.190452 0.000000
0.958513 0.189916 0.000000
0.000000 0.244946 0.010499
0.030905 0.244238 0.009792
0.066222 0.243542 0.009096
0.101711 0.242842 0.008396
0.137604 0.242135 0.007689
0.174010 0.241418 0.006971
0.210992 0.240689 0.006243
0.248588 0.239948 0.005502
0.286824 0.239194 0.004748
0.325717 0.238428 0.003982
0.365281 0.237648 0.003202
0.405523 0.236855 0.002409
0.446451 0.236048 0.001602
0.488070 0.235228 0.000782
0.530350 0.234395 0.000000
0.572163 0.233571 0.000000
0.612963 0.232767 0.000000
0.652771 0.231982 0.000000
0.691603 0.231217 0.000000
0.739285 0.230470 0.000000
0.781323 0.229743 0.000000
0.815766 0.229033 0.000000
0.844101 0.228342 0.000000
0.867505 0.227669 0.000000
0.886911 0.227013 0.000000
0.903064 0.226376 0.000000
0.916560 0.225755 0.000000
0.927877 0.225152 0.000000
0.937401 0.224566 0.000000
0.945445 0.223997 0.000000
0.952261 0.223444 0.000000
0.958057 0.222908 0.000000
0.000000 0.278622 0.008158
0.028563 0.277914 0.007450
0.063881 0.277218 0.006754
0.099370 0.276518 0.006055
0.135262 0.275811 0.005347
0.171668 0.275093 0.004630
0.208650 0.274365 0.003901
0.246246 0.273624 0.003160
0.284482 0.272870 0.002406
0.323376 0.272104 0.001640
0.362939 0.271324 0.000860
0.403181 0.270531 0.000067
0.444110 0.269724 0.000000
0.485728 0.268904 0.000000
0.528009 0.268071 0.000000
0.569821 0.267247 0.000000
0.610621 0.266442 0.000000
0.650429 0.265658 0.000000
0.689261 0.264893 0.000000
0.736361 0.264146 0.000000
0.778871 0.263419 0.000000
0.813700 0.262709 0.000000
0.842353 0.262018 0.000000
0.866019 0.261345 0.000000
0.885643 0.260689 0.000000
0.901977 0.260052 0.000000
0.915624 0.259431 0.000000
0.927068 0.258828 0.000000
0.936699 0.258242 0.000000
0.944833 0.257672 0.000000
0.951726 0.257120 0.000000
0.957587 0.256584 0.000000
0.000000 0.312985 0.005768
0.026174 0.312277 0.005060
0.061491 0.311581 0.004364
0.096980 0.310882 0.003665
0.132873 0.310174 0.002958
0.169279 0.309457 0.002240
0.206261 0.308728 0.001511
0.243857 0.307987 0.000770
0.282093 0.307234 0.000017
0.320986 0.306467 0.000000
0.360549 0.305687 0.000000
0.400792 0.304894 0.000000
0.441720 0.304088 0.000000
0.483339 0.303267 0.000000
0.525619 0.302434 0.000000
0.567431 0.301610 0.000000
0.608232 0.300806 0.000000
0.648039 0.300021 0.000000
0.686871 0.299256 0.000000
0.733344 0.298510 0.000000
0.776340 0.297782 0.000000
0.811568 0.297073 0.000000
0.840549 0.296382 0.000000
0.864485 0.295708 0.000000
0.884334 0.295053 0.000000
0.900855 0.294415 0.000000
0.914658 0.293795 0.000000
0.926233 0.293191 0.000000
0.935975 0.292605 0.000000
0.944201 0.292036 0.000000
0.951173 0.291484 0.000000
0.957101 0.290948 0.000000
0.000000 0.348039 0.003330
0.023736 0.347331 0.002623
0.059053 0.346635 0.001927
0.094542 0.345936 0.001227
0.130435 0.345228 0.000520
0.166841 0.344511 0.000000
0.203823 0.343782 0.000000
0.241419 0.343041 0.000000
0.279655 0.342288 0.000000
0.318548 0.341521 0.000000
0.358112 0.340741 0.000000
0.398354 0.339948 0.000000
0.439282 0.339142 0.000000
0.480901 0.338321 0.000000
0.523181 0.337488 0.000000
0.564994 0.336664 0.000000
0.605794 0.335860 0.000000
0.645602 0.335075 0.000000
0.684434 0.334310 0.000000
0.730230 0.333564 0.000000
0.773729 0.332836 0.000000
0.809368 0.332127 0.000000
0.838687 0.331436 0.000000
0.862903 0.330762 0.000000
0.882983 0.330107 0.000000
0.899697 0.329469 0.000000
0.913662 0.328849 0.000000
0.925372 0.328245 0.000000
0.935227 0.327659 0.000000
0.943550 0.327090 0.000000
0.950603 0.326538 0.000000
0.956600 0.326002 0.000000
0.000000 0.383786 0.000845
0.021250 0.383078 0.000137
0.056568 0.382382 0.000000
0.092056 0.381683 0.000000
0.127949 0.380975 0.000000
0.164355 0.380258 0.000000
0.201337 0.379529 0.000000
0.238933 0.378788 0.000000
0.277169 0.378034 0.000000
0.316063 0.377268 0.000000
0.355626 0.376488 0.000000
0.395868 0.375695 0.000000
0.436797 0.374888 0.000000
0.478415 0.374068 0.000000
0.520696 0.373235 0.000000
0.562508 0.372411 0.000000
0.603308 0.371607 0.000000
0.643116 0.370822 0.000000
0.681948 0.370057 0.000000
0.727018 0.369310 0.000000
0.771035 0.368583 0.000000
0.807098 0.367873 0.000000
0.836766 0.367182 0.000000
0.861271 0.366509 0.000000
0.881590 0.365854 0.000000
0.898503 0.365216 0.000000
0.912634 0.364595 0.000000
0.924483 0.363992 0.000000
0.934456 0.363406 0.000000
0.942878 0.362837 0.000000
0.950015 0.362284 0.000000
0.956084 0.361749 0.000000
0.000000 0.420227 0.000000
0.018716 0.419519 0.000000
0.054033 0.418823 0.000000
0.089522 0.418124 0.000000
0.125415 0.417416 0.000000
0.161821 0.416699 0.000000
0.198803 0.415970 0.000000
0.236399 0.415229 0.000000
0.274635 0.414475 0.000000
0.313528 0.413709 0.000000
0.353092 0.412929 0.000000
0.393334 0.412136 0.000000
0.434262 0.411329 0.000000
0.475881 0.410509 0.000000
0.518161 0.409676 0.000000
0.559974 0.408852 0.000000
0.600774 0.408048 0.000000
0.640582 0.407263 0.000000
0.679414 0.406498 0.000000
0.723704 0.405752 0.000000
0.768255 0.405024 0.000000
0.804756 0.404314 0.000000
0.834784 0.403623 0.000000
0.859587 0.402950 0.000000
0.880152 0.402295 0.000000
0.897271 0.401657 0.000000
0.911573 0.401036 0.000000
0.923567 0.400433 0.000000
0.933660 0.399847 0.000000
0.942184 0.399278 0.000000
0.949408 0.398725 0.000000
0.955551 0.398190 0.000000
0.000000 0.457363 0.000000
0.016134 0.456656 0.000000
0.051451 0.455959 0.000000
0.086940 0.455260 0.000000
0.122833 0.454553 0.000000
0.159239 0.453835 0.000000
0.196221 0.453106 0.000000
0.233817 0.452365 0.000000
0.272053 0.451612 0.000000
0.310946 0.450845 0.000000
0.350509 0.450066 0.000000
0.390752 0.449272 0.000000
0.431680 0.448466 0.000000
0.473299 0.447646 0.000000
0.515579 0.446812 0.000000
0.557391 0.445988 0.000000
0.598192 0.445184 0.000000
0.637999 0.444400 0.000000
0.676831 0.443634 0.000000
0.720285 0.442888 0.000000
0.765387 0.442160 0.000000
0.802340 0.441451 0.000000
0.832740 0.440760 0.000000
0.857849 0.440087 0.000000
0.878670 0.439431 0.000000
0.896000 0.438793 0.000000
0.910479 0.438173 0.000000
0.922621 0.437570 0.000000
0.932839 0.436983 0.000000
0.941469 0.436414 0.000000
0.948782 0.435862 0.000000
0.955001 0.435326 0.000000
0.000000 0.495196 0.000000
0.013503 0.494488 0.000000
0.048820 0.493792 0.000000
0.084309 0.493093 0.000000
0.120202 0.492385 0.000000
0.156608 0.491668 0.000000
0.193590 0.490939 0.000000
0.231186 0.490198 0.000000
0.269422 0.489445 0.000000
0.308315 0.488678 0.000000
0.347879 0.487898 0.000000
0.388121 0.487105 0.000000
0.429049 0.486299 0.000000
0.470668 0.485478 0.000000
0.512948 0.484645 0.000000
0.554760 0.483821 0.000000
0.595561 0.483017 0.000000
0.635368 0.482232 0.000000
0.674200 0.481467 0.000000
0.716759 0.480721 0.000000
0.762430 0.479993 0.000000
0.799848 0.479284 0.000000
0.830631 0.478593 0.000000
0.856057 0.477919 0.000000
0.877140 0.477264 0.000000
0.894689 0.476626 0.000000
0.909351 0.476005 0.000000
0.921645 0.475402 0.000000
0.931992 0.474816 0.000000
0.940731 0.474247 0.000000
0.948136 0.473695 0.000000
0.954433 0.473159 0.000000
0.000000 0.533528 0.000000
0.010837 0.532821 0.000000
0.046154 0.532124 0.000000
0.081643 0.531425 0.000000
0.117536 0.530718 0.000000
0.153942 0.530000 0.000000
0.190924 0.529271 0.000000
0.228520 0.528530 0.000000
0.266756 0.527777 0.000000
0.305650 0.527010 0.000000
0.345213 0.526231 0.000000
0.385455 0.525437 0.000000
0.426384 0.524631 0.000000
0.468002 0.523811 0.000000
0.510283 0.522977 0.000000
0.552095 0.522153 0.000000
0.592895 0.521349 0.000000
0.632703 0.520565 0.000000
0.671535 0.519799 0.000000
0.713141 0.519053 0.000000
0.759395 0.518325 0.000000
0.797292 0.517616 0.000000
0.828468 0.516925 0.000000
0.854218 0.516252 0.000000
0.875571 0.515596 0.000000
0.893343 0.514958 0.000000
0.908193 0.514338 0.000000
0.920644 0.513735 0.000000
0.931124 0.513148 0.000000
0.939974 0.512579 0.000000
0.947474 0.512027 0.000000
0.953851 0.511491 0.000000
0.000000 0.571245 0.000000
0.008214 0.570537 0.000000
0.043532 0.569841 0.000000
0.079021 0.569141 0.000000
0.114913 0.568434 0.000000
0.151320 0.567716 0.000000
0.188301 0.566988 0.000000
0.225897 0.566247 0.000000
0.264133 0.565493 0.000000
0.303027 0.564727 0.000000
0.342590 0.563947 0.000000
0.382833 0.563154 0.000000
0.423761 0.562347 0.000000
0.465379 0.561527 0.000000
0.507660 0.560694 0.000000
0.549472 0.559870 0.000000
0.590272 0.559066 0.000000
0.630080 0.558281 0.000000
0.668912 0.557516 0.000000
0.709536 0.556769 0.000000
0.756371 0.556042 0.000000
0.794744 0.555332 0.000000
0.826312 0.554641 0.000000
0.852386 0.553968 0.000000
0.874007 0.553312 0.000000
0.892003 0.552675 0.000000
0.907039 0.552054 0.000000
0.919647 0.551451 0.000000
0.930258 0.550865 0.000000
0.939220 0.550295 0.000000
0.946814 0.549743 0.000000
0.953271 0.549207 0.000000
0.000000 0.608174 0.000000
0.005646 0.607467 0.000000
0.040964 0.606771 0.000000
0.076453 0.606071 0.000000
0.112345 0.605364 0.000000
0.148751 0.604646 0.000000
0.185733 0.603917 0.000000
0.223329 0.603177 0.000000
0.261565 0.602423 0.000000
0.300459 0.601656 0.000000
0.340022 0.600877 0.000000
0.380265 0.600084 0.000000
0.421193 0.599277 0.000000
0.462811 0.598457 0.000000
0.505092 0.597624 0.000000
0.546904 0.596799 0.000000
0.587704 0.595995 0.000000
0.627512 0.595211 0.000000
0.666344 0.594446 0.000000
0.705962 0.593699 0.000000
0.753373 0.592971 0.000000
0.792218 0.592262 0.000000
0.824175 0.591571 0.000000
0.850570 0.590898 0.000000
0.872456 0.590242 0.000000
0.890674 0.589604 0.000000
0.905895 0.588984 0.000000
0.918658 0.588381 0.000000
0.929400 0.587795 0.000000
0.938472 0.587225 0.000000
0.946159 0.586673 0.000000
0.952696 0.586137 0.000000
0.000000 0.644323 0.000000
0.003132 0.643615 0.000000
0.038450 0.642919 0.000000
0.073939 0.642220 0.000000
0.109831 0.641512 0.000000
0.146238 0.640795 0.000000
0.183220 0.640066 0.000000
0.220816 0.639325 0.000000
0.259052 0.638571 0.000000
0.297945 0.637805 0.000000
0.337508 0.637025 0.000000
0.377751 0.636232 0.000000
0.418679 0.635425 0.000000
0.460298 0.634605 0.000000
0.502578 0.633772 0.000000
0.544390 0.632948 0.000000
0.585191 0.632144 0.000000
0.624998 0.631359 0.000000
0.663830 0.630594 0.000000
0.702421 0.629847 0.000000
0.750403 0.629120 0.000000
0.789716 0.628410 0.000000
0.822058 0.627719 0.000000
0.848771 0.627046 0.000000
0.870921 0.626391 0.000000
0.889358 0.625753 0.000000
0.904762 0.625132 0.000000
0.917679 0.624529 0.000000
0.928550 0.623943 0.000000
0.937731 0.623374 0.000000
0.945511 0.622821 0.000000
0.952127 0.622286 0.000000
0.000000 0.679694 0.000000
0.000673 0.678986 0.000000
0.035990 0.678290 0.000000
0.071479 0.677591 0.000000
0.107372 0.676883 0.000000
0.143778 0.676166 0.000000
0.180760 0.675437 0.000000
0.218356 0.674696 0.000000
0.256592 0.673943 0.000000
0.295485 0.673176 0.000000
0.335049 0.672396 0.000000
0.375291 0.671603 0.000000
0.416219 0.670797 0.000000
0.457838 0.669976 0.000000
0.500118 0.669143 0.000000
0.541930 0.668319 0.000000
0.582731 0.667515 0.000000
0.622539 0.666730 0.000000
0.661370 0.665965 0.000000
0.699242 0.665219 0.000000
0.747463 0.664491 0.000000
0.787239 0.663782 0.000000
0.819961 0.663091 0.000000
0.846989 0.662417 0.000000
0.869400 0.661762 0.000000
0.888054 0.661124 0.000000
0.903640 0.660504 0.000000
0.916709 0.659900 0.000000
0.927708 0.659314 0.000000
0.936997 0.658745 0.000000
0.944869 0.658193 0.000000
0.951563 0.657657 0.000000
0.000000 0.719738 0.000000
0.000000 0.718792 0.000000
0.033584 0.717859 0.000000
0.069073 0.716917 0.000000
0.104966 0.715962 0.000000
0.141372 0.714990 0.000000
0.178354 0.713999 0.000000
0.215950 0.712988 0.000000
0.254186 0.711957 0.000000
0.293079 0.710903 0.000000
0.332643 0.709828 0.000000
0.372885 0.708730 0.000000
0.413813 0.707609 0.000000
0.455432 0.706465 0.000000
0.497712 0.705298 0.000000
0.539525 0.704139 0.000000
0.580325 0.703004 0.000000
0.620133 0.701892 0.000000
0.658964 0.700804 0.000000
0.696836 0.699817 0.000000
0.744553 0.699089 0.000000
0.784787 0.698380 0.000000
0.817887 0.697689 0.000000
0.845226 0.697016 0.000000
0.867895 0.696360 0.000000
0.886764 0.695722 0.000000
0.902529 0.695102 0.000000
0.915749 0.694499 0.000000
0.926875 0.693913 0.000000
0.936271 0.693343 0.000000
0.944234 0.692791 0.000000
0.951004 0.692255 0.000000
0.000000 0.761437 0.000000
0.000000 0.760632 0.000000
0.031232 0.759837 0.000000
0.066721 0.759036 0.000000
0.102613 0.758223 0.000000
0.139020 0.757396 0.000000
0.176001 0.756552 0.000000
0.213598 0.755692 0.000000
0.251833 0.754813 0.000000
0.290727 0.753917 0.000000
0.330290 0.753001 0.000000
0.370533 0.752067 0.000000
0.411461 0.751113 0.000000
0.453080 0.750139 0.000000
0.495360 0.749145 0.000000
0.537172 0.748159 0.000000
0.577973 0.747193 0.000000
0.617780 0.746247 0.000000
0.656612 0.745320 0.000000
0.694483 0.744413 0.000000
0.741675 0.743526 0.000000
0.782363 0.742658 0.000000
0.815835 0.741810 0.000000
0.843482 0.740981 0.000000
0.866407 0.740171 0.000000
0.885489 0.739381 0.000000
0.901431 0.738610 0.000000
0.914800 0.737858 0.000000
0.926051 0.737125 0.000000
0.935553 0.736411 0.000000
0.943606 0.735717 0.000000
0.950453 0.735042 0.000000
0.000000 0.796190 0.000000
0.000000 0.795502 0.000000
0.028933 0.794823 0.000000
0.064422 0.794139 0.000000
0.100314 0.793444 0.000000
0.136720 0.792737 0.000000
0.173702 0.792017 0.000000
0.211298 0.791282 0.000000
0.249534 0.790531 0.000000
0.288428 0.789765 0.000000
0.327991 0.788983 0.000000
0.368233 0.788185 0.000000
0.409162 0.787370 0.000000
0.450780 0.786538 0.000000
0.493061 0.785689 0.000000
0.534873 0.784846 0.000000
0.575673 0.784021 0.000000
0.615481 0.783213 0.000000
0.654313 0.782421 0.000000
0.692184 0.781646 0.000000
0.738831 0.780888 0.000000
0.779967 0.780147 0.000000
0.813808 0.779422 0.000000
0.841759 0.778714 0.000000
0.864936 0.778022 0.000000
0.884228 0.777347 0.000000
0.900346 0.776688 0.000000
0.913862 0.776046 0.000000
0.925237 0.775420 0.000000
0.934844 0.774810 0.000000
0.942985 0.774217 0.000000
0.949907 0.773640 0.000000
0.000000 0.825247 0.000000
0.000000 0.824657 0.000000
0.026686 0.824075 0.000000
0.062175 0.823488 0.000000
0.098068 0.822893 0.000000
0.134474 0.822287 0.000000
0.171456 0.821669 0.000000
0.209052 0.821039 0.000000
0.247288 0.820395 0.000000
0.286181 0.819738 0.000000
0.325745 0.819068 0.000000
0.365987 0.818383 0.000000
0.406915 0.817684 0.000000
0.448534 0.816971 0.000000
0.490814 0.816243 0.000000
0.532627 0.815521 0.000000
0.573427 0.814813 0.000000
0.613235 0.814120 0.000000
0.652067 0.813441 0.000000
0.689938 0.812777 0.000000
0.736023 0.812127 0.000000
0.777601 0.811491 0.000000
0.811806 0.810870 0.000000
0.840057 0.810263 0.000000
0.863484 0.809669 0.000000
0.882983 0.809090 0.000000
0.899274 0.808526 0.000000
0.912936 0.807975 0.000000
0.924433 0.807438 0.000000
0.934143 0.806915 0.000000
0.942372 0.806407 0.000000
0.949368 0.805912 0.000000
0.000000 0.849619 0.000000
0.000000 0.849111 0.000000
0.024493 0.848610 0.000000
0.059982 0.848105 0.000000
0.095875 0.847593 0.000000
0.132281 0.847071 0.000000
0.169263 0.846539 0.000000
0.206859 0.845997 0.000000
0.245095 0.845443 0.000000
0.283988 0.844878 0.000000
0.323551 0.844301 0.000000
0.363794 0.843712 0.000000
0.404722 0.843111 0.000000
0.446341 0.842497 0.000000
0.488621 0.841870 0.000000
0.530433 0.841249 0.000000
0.571234 0.840640 0.000000
0.611041 0.840043 0.000000
0.649873 0.839459 0.000000
0.687745 0.838888 0.000000
0.733251 0.838328 0.000000
0.775266 0.837781 0.000000
0.809830 0.837247 0.000000
0.838378 0.836724 0.000000
0.862050 0.836214 0.000000
0.881754 0.835715 0.000000
0.898217 0.835229 0.000000
0.912022 0.834755 0.000000
0.923640 0.834293 0.000000
0.933452 0.833844 0.000000
0.941767 0.833406 0.000000
0.948837 0.832980 0.000000
0.000000 0.870125 0.000000
0.000000 0.869686 0.000000
0.022352 0.869253 0.000000
0.057841 0.868817 0.000000
0.093734 0.868375 0.000000
0.130140 0.867924 0.000000
0.167122 0.867465 0.000000
0.204718 0.866996 0.000000
0.242954 0.866518 0.000000
0.281847 0.866030 0.000000
0.321411 0.865532 0.000000
0.361653 0.865023 0.000000
0.402581 0.864504 0.000000
0.444200 0.863973 0.000000
0.486480 0.863433 0.000000
0.528292 0.862896 0.000000
0.569093 0.862370 0.000000
0.608901 0.861855 0.000000
0.647732 0.861350 0.000000
0.685604 0.860856 0.000000
0.730518 0.860373 0.000000
0.772963 0.859901 0.000000
0.807881 0.859439 0.000000
0.836722 0.858988 0.000000
0.860637 0.858547 0.000000
0.880543 0.858117 0.000000
0.897174 0.857697 0.000000
0.911120 0.857288 0.000000
0.922857 0.856889 0.000000
0.932770 0.856500 0.000000
0.941170 0.856122 0.000000
0.948313 0.855755 0.000000
0.000000 0.887431 0.000000
0.000000 0.887051 0.000000
0.020264 0.886676 0.000000
0.055753 0.886298 0.000000
0.091645 0.885914 0.000000
0.128052 0.885523 0.000000
0.165033 0.885125 0.000000
0.202630 0.884719 0.000000
0.240865 0.884305 0.000000
0.279759 0.883882 0.000000
0.319322 0.883450 0.000000
0.359565 0.883009 0.000000
0.400493 0.882559 0.000000
0.442112 0.882099 0.000000
0.484392 0.881630 0.000000
0.526204 0.881165 0.000000
0.567005 0.880709 0.000000
0.606812 0.880263 0.000000
0.645644 0.879825 0.000000
0.683516 0.879398 0.000000
0.727825 0.878979 0.000000
0.770694 0.878569 0.000000
0.805961 0.878169 0.000000
0.835090 0.877778 0.000000
0.859244 0.877396 0.000000
0.879349 0.877023 0.000000
0.896146 0.876659 0.000000
0.910232 0.876304 0.000000
0.922086 0.875958 0.000000
0.932098 0.875622 0.000000
0.940582 0.875294 0.000000
0.947796 0.874976 0.000000
0.000000 0.902081 0.000000
0.000000 0.901750 0.000000
0.018228 0.901424 0.000000
0.053717 0.901095 0.000000
0.089609 0.900761 0.000000
0.126015 0.900422 0.000000
0.162997 0.900076 0.000000
0.200593 0.899722 0.000000
0.238829 0.899362 0.000000
0.277723 0.898994 0.000000
0.317286 0.898618 0.000000
0.357529 0.898235 0.000000
0.398457 0.897843 0.000000
0.440075 0.897443 0.000000
0.482356 0.897035 0.000000
0.524168 0.896631 0.000000
0.564968 0.896234 0.000000
0.604776 0.895846 0.000000
0.643608 0.895465 0.000000
