assets/luts/kodak.cube
# Beauty Camera 3D LUT
# Filter: Kodak (kodak)
# Category: Film
TITLE "Kodak"
LUT_3D_SIZE 5
DOMAIN_MIN 0.000000 0.000000 0.000000
DOMAIN_MAX 0.903226 0.903226 0.903226
0.010109 0.027616 0.025612
0.263701 0.022618 0.020615
0.545463 0.017065 0.015062
0.828559 0.011704 0.009700
0.941748 0.007236 0.005233
0.000000 0.244946 0.010499
0.248588 0.239948 0.005502
0.530350 0.234395 0.000000
0.815766 0.229033 0.000000
0.937401 0.224566 0.000000
0.000000 0.495196 0.000000
0.231186 0.490198 0.000000
0.512948 0.484645 0.000000
0.799848 0.479284 0.000000
0.931992 0.474816 0.000000
0.000000 0.761437 0.000000
0.213598 0.755692 0.000000
0.495360 0.749145 0.000000
0.782363 0.742658 0.000000
0.926051 0.737125 0.000000
0.000000 0.914520 0.000000
0.198609 0.912461 0.000000
0.480372 0.910116 0.000000
0.766262 0.907791 0.000000
0.920580 0.905809 0.000000
0.008855 0.026362 0.215383
0.262447 0.021365 0.210385
0.544210 0.015812 0.204832
0.827532 0.010450 0.199470
0.941399 0.005983 0.195003
0.000000 0.243692 0.200270
0.247334 0.238694 0.195272
0.529097 0.233141 0.189719
0.814663 0.227779 0.184357
0.937026 0.223312 0.179890
0.000000 0.493942 0.182867
0.229932 0.488944 0.177870
0.511694 0.483391 0.172317
0.801073 0.446533 0.119354
0.933157 0.410888 0.093101
0.000000 0.760009 0.165279
0.212344 0.754229 0.160281
0.494106 0.747643 0.154728
0.781060 0.741117 0.149367
0.926475 0.698610 0.073093
0.000000 0.914008 0.150291
0.197356 0.911937 0.145293
0.479118 0.909577 0.139740
0.764862 0.907239 0.134379
0.920105 0.905245 0.129911
0.007311 0.024819 0.448957
0.260904 0.019821 0.443959
0.542666 0.014268 0.438406
0.826260 0.008907 0.433045
0.940967 0.004439 0.428577
0.000000 0.242149 0.433844
0.245791 0.237151 0.428846
0.527553 0.231598 0.423293
0.813296 0.226236 0.417932
0.936562 0.221769 0.413464
0.000000 0.492399 0.416442
0.228389 0.487401 0.411444
0.510151 0.481848 0.405891
0.797165 0.476487 0.400529
0.931081 0.472019 0.396062
0.000000 0.758239 0.398853
0.210800 0.752416 0.393856
0.492563 0.745782 0.388302
0.779445 0.739208 0.382941
0.925900 0.696975 0.320619
0.000000 0.913374 0.383865
0.195812 0.911288 0.378867
0.477575 0.908910 0.373314
0.763128 0.906555 0.367953
0.919516 0.904546 0.363485
0.005589 0.023097 0.713419
0.259182 0.018099 0.706516
0.540944 0.012546 0.699059
0.824829 0.007185 0.693697
0.940481 0.002717 0.689230
0.000000 0.240426 0.694497
0.244069 0.235429 0.689499
0.525831 0.229876 0.683946
0.811758 0.224514 0.678584
0.936039 0.220047 0.674117
0.000000 0.490677 0.677094
0.226667 0.485679 0.672097
0.508429 0.480126 0.666544
0.795494 0.474765 0.661182
0.930513 0.470297 0.656715
0.000000 0.756248 0.659506
0.209078 0.750377 0.654508
0.490841 0.743688 0.648955
0.777629 0.737060 0.643594
0.924443 0.731407 0.639126
0.000000 0.912661 0.644518
0.194090 0.910557 0.639520
0.475853 0.908160 0.633967
0.761177 0.905785 0.628606
0.918853 0.903760 0.624138
0.004036 0.021544 0.906430
0.257629 0.016546 0.904177
0.539391 0.010993 0.901609
0.823529 0.005632 0.899065
0.940039 0.001164 0.896895
0.000000 0.238873 0.899448
0.242516 0.233876 0.897027
0.524278 0.228323 0.894267
0.810361 0.222961 0.891533
0.935564 0.218494 0.889201
0.000000 0.489124 0.890761
0.225114 0.484126 0.888130
0.506876 0.478573 0.885132
0.793976 0.473211 0.882162
0.929997 0.468744 0.879628
0.000000 0.754439 0.881218
0.207525 0.748524 0.878357
0.489288 0.741786 0.875097
0.775978 0.735109 0.871867
0.923882 0.729413 0.869112
0.000000 0.912012 0.872430
0.192537 0.909893 0.869357
0.474300 0.907479 0.865857
0.759405 0.905086 0.862388
0.918251 0.903045 0.859429
