assets/luts/kodak.cube
# Beauty Camera 3D LUT
# Filter: Kodak (kodak)
# Category: Film
TITLE "Kodak"
LUT_3D_SIZE 8
DOMAIN_MIN 0.000000 0.000000 0.000000
DOMAIN_MAX 0.903226 0.903226 0.903226
0.010109 0.027616 0.025612
0.152717 0.024806 0.022802
0.301937 0.021865 0.019861
0.461564 0.018719 0.016715
0.628076 0.015437 0.013433
0.796507 0.012413 0.010410
0.894763 0.009684 0.007680
0.941748 0.007236 0.005233
0.001738 0.147992 0.017242
0.144346 0.145181 0.014431
0.293566 0.142240 0.011490
0.453194 0.139094 0.008344
0.619705 0.135813 0.005063
0.788232 0.132789 0.002039
0.890484 0.130059 0.000000
0.939379 0.127612 0.000000
0.000000 0.278622 0.008158
0.135262 0.275811 0.005347
0.284482 0.272870 0.002406
0.444110 0.269724 0.000000
0.610621 0.266442 0.000000
0.778871 0.263419 0.000000
0.885643 0.260689 0.000000
0.936699 0.258242 0.000000
0.000000 0.420227 0.000000
0.125415 0.417416 0.000000
0.274635 0.414475 0.000000
0.434262 0.411329 0.000000
0.600774 0.408048 0.000000
0.768255 0.405024 0.000000
0.880152 0.402295 0.000000
0.933660 0.399847 0.000000
0.000000 0.571245 0.000000
0.114913 0.568434 0.000000
0.264133 0.565493 0.000000
0.423761 0.562347 0.000000
0.590272 0.559066 0.000000
0.756371 0.556042 0.000000
0.874007 0.553312 0.000000
0.930258 0.550865 0.000000
0.000000 0.719738 0.000000
0.104966 0.715962 0.000000
0.254186 0.711957 0.000000
0.413813 0.707609 0.000000
0.580325 0.703004 0.000000
0.744553 0.699089 0.000000
0.867895 0.696360 0.000000
0.926875 0.693913 0.000000
0.000000 0.849619 0.000000
0.095875 0.847593 0.000000
0.245095 0.845443 0.000000
0.404722 0.843111 0.000000
0.571234 0.840640 0.000000
0.733251 0.838328 0.000000
0.862050 0.836214 0.000000
0.923640 0.834293 0.000000
0.000000 0.914520 0.000000
0.087625 0.913368 0.000000
0.236845 0.912147 0.000000
0.396473 0.910821 0.000000
0.562984 0.909416 0.000000
0.722564 0.908102 0.000000
0.856523 0.906900 0.000000
0.920580 0.905809 0.000000
0.009431 0.026938 0.128200
0.152039 0.024128 0.125389
0.301259 0.021187 0.122448
0.460887 0.018041 0.119302
0.627398 0.014759 0.116021
0.795850 0.011735 0.112997
0.894423 0.009006 0.110268
0.941559 0.006559 0.107820
0.001060 0.147314 0.119829
0.143668 0.144503 0.117018
0.292888 0.141562 0.114078
0.452516 0.138416 0.110932
0.619027 0.135135 0.107650
0.787548 0.132111 0.104626
0.890130 0.129382 0.101897
0.939183 0.126934 0.099449
0.000000 0.277944 0.110745
0.134584 0.275133 0.107935
0.283804 0.272192 0.104994
0.444735 0.252969 0.076819
0.609944 0.265765 0.098566
0.778156 0.262741 0.095542
0.885273 0.260012 0.092813
0.936494 0.257564 0.090365
0.000000 0.419549 0.100898
0.124737 0.416738 0.098087
0.273957 0.413798 0.095146
0.433585 0.410652 0.092001
0.601576 0.390049 0.051038
0.770556 0.369689 0.036715
0.882064 0.349783 0.022918
0.933446 0.399169 0.080518
0.000000 0.570567 0.090396
0.114236 0.567756 0.087586
0.263456 0.564815 0.084645
0.423083 0.561669 0.081499
0.589595 0.558388 0.078217
0.757429 0.537698 0.025031
0.875355 0.516863 0.011299
0.931449 0.496125 0.000000
0.000000 0.718832 0.080449
0.104288 0.715044 0.077638
0.253508 0.711025 0.074697
0.413135 0.706664 0.071551
0.579647 0.702044 0.068270
0.743727 0.698412 0.065246
0.868454 0.679592 0.000000
0.927613 0.660535 0.000000
0.000000 0.849133 0.071357
0.095197 0.847100 0.068547
0.244417 0.844944 0.065606
0.404044 0.842603 0.062460
0.570556 0.840125 0.059178
0.732389 0.837806 0.056154
0.861604 0.835684 0.053425
0.923955 0.821835 0.000000
0.000000 0.914244 0.063108
0.086947 0.913088 0.060298
0.236168 0.911863 0.057357
0.395795 0.910532 0.054211
0.562307 0.909123 0.050929
0.721667 0.907805 0.047905
0.856060 0.906599 0.045176
0.920324 0.905504 0.042728
0.008651 0.026159 0.246202
0.151260 0.023348 0.243391
0.300480 0.020407 0.240451
0.460107 0.017261 0.237305
0.626619 0.013980 0.234023
0.795090 0.010956 0.230999
0.894030 0.008227 0.228270
0.941342 0.005779 0.225822
0.000280 0.146534 0.237831
0.142889 0.143724 0.235021
0.292109 0.140783 0.232080
0.451736 0.137637 0.228934
0.618248 0.134355 0.225652
0.786757 0.131331 0.222628
0.889721 0.128602 0.219899
0.938957 0.126154 0.217451
0.000000 0.277164 0.228747
0.133805 0.274354 0.225937
0.283025 0.271413 0.222996
0.442652 0.268267 0.219850
0.609164 0.264985 0.216568
0.777331 0.261961 0.213544
0.884846 0.259232 0.210815
0.936258 0.256784 0.208367
0.000000 0.418769 0.218900
0.123958 0.415959 0.216089
0.273178 0.413018 0.213149
0.432805 0.409872 0.210003
0.600735 0.389207 0.178340
0.766641 0.403566 0.203697
0.879318 0.400837 0.200968
0.933198 0.398389 0.198520
0.000000 0.569787 0.208398
0.113456 0.566977 0.205588
0.262676 0.564036 0.202647
0.422303 0.560890 0.199501
0.588815 0.557608 0.196219
0.756471 0.536870 0.150342
0.874871 0.516048 0.134577
0.931187 0.495324 0.119309
0.000000 0.717787 0.198451
0.103508 0.713984 0.195640
0.252728 0.709951 0.192699
0.412356 0.705573 0.189553
0.578868 0.700936 0.186272
0.742774 0.697632 0.183248
0.867943 0.678778 0.123261
0.927337 0.659734 0.107876
0.000000 0.848572 0.189360
0.094417 0.846531 0.186549
0.243637 0.844367 0.183608
0.403265 0.842018 0.180462
0.569776 0.839530 0.177181
0.731393 0.837202 0.174157
0.861090 0.835073 0.171427
0.923664 0.821154 0.097522
0.000000 0.913925 0.181110
0.086168 0.912765 0.178300
0.235388 0.911535 0.175359
0.395015 0.910199 0.172213
0.561527 0.908785 0.168931
0.720632 0.907462 0.165907
0.855524 0.906252 0.163178
0.920027 0.905153 0.160730
0.007780 0.025288 0.378002
0.150389 0.022477 0.375192
0.299609 0.019537 0.372251
0.459236 0.016391 0.369105
0.625748 0.013109 0.365823
0.794239 0.010085 0.362799
0.893590 0.007356 0.360070
0.941098 0.004908 0.357622
0.000000 0.145663 0.369631
0.142018 0.142853 0.366821
0.291238 0.139912 0.363880
0.450865 0.136766 0.360734
0.617377 0.133484 0.357452
0.785871 0.130460 0.354428
0.889263 0.127731 0.351699
0.938703 0.125283 0.349252
0.000000 0.276293 0.360547
0.132934 0.273483 0.357737
0.282154 0.270542 0.354796
0.441781 0.267396 0.351650
0.608293 0.264114 0.348368
0.776406 0.261090 0.345345
0.884368 0.258361 0.342615
0.935993 0.255913 0.340168
0.000000 0.417899 0.350700
0.123087 0.415088 0.347890
0.272307 0.412147 0.344949
0.431934 0.409001 0.341803
0.598446 0.405719 0.338521
0.765671 0.402696 0.335497
0.878816 0.399966 0.332768
0.932920 0.397519 0.330320
0.000000 0.568916 0.340199
0.112585 0.566106 0.337388
0.261805 0.563165 0.334447
0.421433 0.560019 0.331301
0.587944 0.556737 0.328020
0.755372 0.535925 0.293382
0.872602 0.550984 0.322267
0.929481 0.548536 0.319819
0.000000 0.716614 0.330251
0.102638 0.712796 0.327441
0.251858 0.708745 0.324500
0.411485 0.704349 0.321354
0.577997 0.699785 0.318072
0.741705 0.696761 0.315048
0.867355 0.677845 0.264460
0.927018 0.658814 0.247226
0.000000 0.847942 0.321160
0.093546 0.845894 0.318349
0.242766 0.843720 0.315408
0.402394 0.841362 0.312262
0.568905 0.838863 0.308981
0.730277 0.836526 0.305957
0.860512 0.834388 0.303228
0.923329 0.820368 0.236872
0.000000 0.913567 0.312911
0.085297 0.912402 0.310100
0.234517 0.911167 0.307159
0.394144 0.909826 0.304013
0.560656 0.908406 0.300732
0.719471 0.907078 0.297708
0.854924 0.905862 0.294978
0.919695 0.904758 0.292531
0.006821 0.024328 0.523262
0.149429 0.021518 0.520452
0.298649 0.018577 0.517511
0.458276 0.015431 0.514365
0.624788 0.012149 0.511083
0.793296 0.009125 0.508059
0.893103 0.006396 0.505330
0.940828 0.003948 0.502882
0.000000 0.144704 0.514891
0.141058 0.141893 0.512081
0.290278 0.138952 0.509140
0.449906 0.135806 0.505994
0.616417 0.132525 0.502712
0.784890 0.129501 0.499688
0.888756 0.126772 0.496959
0.938422 0.124324 0.494511
0.000000 0.275334 0.505807
0.131974 0.272523 0.502997
0.281194 0.269582 0.500056
0.440822 0.266436 0.496910
0.607333 0.263155 0.493628
0.775381 0.260131 0.490604
0.883838 0.257401 0.487875
0.935700 0.254954 0.485427
0.000000 0.416939 0.495960
0.122127 0.414128 0.493150
0.271347 0.411187 0.490209
0.430974 0.408041 0.487063
0.597486 0.404760 0.483781
0.764598 0.401736 0.480757
0.878261 0.399007 0.478028
0.932613 0.396559 0.475580
0.000000 0.567957 0.485458
0.111625 0.565146 0.482648
0.260845 0.562205 0.479707
0.420473 0.559059 0.476561
0.586984 0.555778 0.473279
0.752526 0.552754 0.470256
0.872019 0.550024 0.467526
0.929158 0.547577 0.465079
0.000000 0.715316 0.475511
0.101678 0.711480 0.472700
0.250898 0.707411 0.469760
0.410525 0.702995 0.466614
0.577037 0.698825 0.463332
0.740522 0.695801 0.460308
0.866693 0.676800 0.422643
0.925721 0.690625 0.455131
0.000000 0.847246 0.466420
0.092587 0.845188 0.463609
0.241807 0.843005 0.460668
0.401434 0.840635 0.457522
0.567946 0.838125 0.454241
0.729042 0.835777 0.451217
0.859873 0.833629 0.448488
0.922951 0.819483 0.393249
0.000000 0.913171 0.458170
0.084337 0.912001 0.455360
0.233557 0.910760 0.452419
0.393185 0.909413 0.449273
0.559696 0.907987 0.445991
0.718186 0.906652 0.442967
0.854259 0.905431 0.440238
0.919327 0.904322 0.437791
0.005828 0.023336 0.673486
0.148436 0.020525 0.670676
0.297657 0.017584 0.667735
0.457284 0.014438 0.664589
0.623796 0.011157 0.661307
0.792317 0.008133 0.658283
0.892596 0.005404 0.655554
0.940548 0.002956 0.653107
0.000000 0.143711 0.665116
0.140066 0.140901 0.662305
0.289286 0.137960 0.659364
0.448913 0.134814 0.656218
0.615425 0.131532 0.652937
0.783871 0.128508 0.649913
0.888229 0.125779 0.647183
0.938130 0.123331 0.644736
0.000000 0.274341 0.656032
0.130982 0.271530 0.653221
0.280202 0.268590 0.650280
0.439829 0.265444 0.647134
0.606341 0.262162 0.643853
0.774317 0.259138 0.640829
0.883288 0.256409 0.638099
0.935395 0.253961 0.635652
0.000000 0.415946 0.646184
0.121134 0.413136 0.643374
0.270355 0.410195 0.640433
0.429982 0.407049 0.637287
0.596494 0.403767 0.634005
0.763483 0.400743 0.630981
0.877685 0.398014 0.628252
0.932294 0.395566 0.625805
0.000000 0.566964 0.635683
0.110633 0.564153 0.632872
0.259853 0.561213 0.629931
0.419480 0.558067 0.626785
0.585992 0.554785 0.623504
0.751354 0.551761 0.620480
0.871412 0.549032 0.617751
0.928822 0.546584 0.615303
0.000000 0.713967 0.625735
0.100685 0.710113 0.622925
0.249905 0.706025 0.619984
0.409533 0.701588 0.616838
0.576044 0.697833 0.613556
0.739293 0.694809 0.610532
0.865175 0.692080 0.607803
0.925369 0.689632 0.605355
0.000000 0.846522 0.616644
0.091594 0.844454 0.613833
0.240814 0.842261 0.610893
0.400441 0.839880 0.607747
0.566953 0.837358 0.604465
0.727758 0.834999 0.601441
0.859210 0.832841 0.598712
0.922541 0.818521 0.562062
0.000000 0.912760 0.608395
0.083345 0.911584 0.605584
0.232565 0.910337 0.602643
0.392192 0.908984 0.599497
0.558704 0.907551 0.596216
0.716851 0.906210 0.593192
0.853569 0.904983 0.590463
0.918945 0.903869 0.588015
0.004898 0.022406 0.825871
0.147507 0.019595 0.823525
0.296727 0.016654 0.821036
0.456354 0.013508 0.818335
0.622866 0.010227 0.815474
0.791395 0.007203 0.812797
0.892120 0.004474 0.810349
0.940284 0.002026 0.808125
0.000000 0.142781 0.818790
0.139136 0.139971 0.816348
0.288356 0.137030 0.813758
0.447983 0.133884 0.810947
0.614495 0.130602 0.807970
0.782912 0.127578 0.805185
0.887733 0.124849 0.802636
0.937856 0.122401 0.800322
0.000000 0.273411 0.810779
0.130052 0.270601 0.808230
0.279272 0.267660 0.805525
0.438899 0.264514 0.802590
0.605411 0.261232 0.799481
0.773316 0.258208 0.796573
0.882770 0.255479 0.793912
0.935109 0.253031 0.791495
0.000000 0.415016 0.801695
0.120205 0.412206 0.799023
0.269425 0.409265 0.796189
0.429052 0.406119 0.793113
0.595564 0.402837 0.789854
0.762433 0.399813 0.786806
0.877142 0.397084 0.784018
0.931993 0.394636 0.781485
0.000000 0.566034 0.791526
0.109703 0.563224 0.788717
0.258923 0.560283 0.785738
0.418550 0.557137 0.782504
0.585062 0.553855 0.779078
0.750251 0.550831 0.775874
0.870842 0.548102 0.772942
0.928506 0.545654 0.770280
0.000000 0.712698 0.781413
0.099755 0.708827 0.778468
0.248975 0.704720 0.775344
0.408603 0.700264 0.771953
0.575115 0.696903 0.768361
0.738136 0.693879 0.765002
0.864576 0.691150 0.761928
0.925038 0.688702 0.759137
0.000000 0.845841 0.771742
0.090664 0.843764 0.768667
0.239884 0.841561 0.765405
0.399512 0.839169 0.761864
0.566023 0.836636 0.758113
0.726550 0.834267 0.754605
0.858585 0.832099 0.751395
0.921721 0.830130 0.748480
0.000000 0.912373 0.762598
0.082415 0.911192 0.759399
0.231635 0.909940 0.756006
0.391262 0.908580 0.752323
0.557774 0.907140 0.748422
0.715594 0.905794 0.744773
0.852919 0.904561 0.741435
0.918585 0.903442 0.738403
0.004036 0.021544 0.906430
0.146645 0.018733 0.905170
0.295865 0.015793 0.903832
0.455492 0.012647 0.902381
0.622004 0.009365 0.900843
0.790538 0.006341 0.899405
0.891676 0.003612 0.898089
0.940039 0.001164 0.896895
0.000000 0.141919 0.902625
0.138274 0.139109 0.901313
0.287494 0.136168 0.899922
0.447121 0.133022 0.898411
0.613633 0.129740 0.896811
0.782020 0.126716 0.895314
0.887271 0.123987 0.893945
0.937600 0.121540 0.892702
0.000000 0.272549 0.898321
0.129190 0.269739 0.896951
0.278410 0.266798 0.895498
0.438037 0.263652 0.893920
0.604549 0.260370 0.892250
0.772383 0.257346 0.890687
0.882288 0.254617 0.889257
0.934842 0.252169 0.887958
0.000000 0.414155 0.893439
0.119343 0.411344 0.892004
0.268563 0.408403 0.890481
0.428190 0.405257 0.888828
0.594702 0.401976 0.887077
0.761456 0.398952 0.885439
0.876636 0.396222 0.883940
0.931714 0.393775 0.882580
0.000000 0.565172 0.887975
0.108841 0.562362 0.886466
0.258061 0.559421 0.884864
0.417689 0.556275 0.883127
0.584200 0.552993 0.881286
0.749224 0.549969 0.879564
0.870310 0.547240 0.877989
0.928212 0.544792 0.876558
0.000000 0.711516 0.882541
0.098894 0.707629 0.880958
0.248114 0.703506 0.879279
0.407741 0.699323 0.877457
0.574253 0.696041 0.875527
0.737059 0.693017 0.873722
0.864019 0.690288 0.872070
0.924730 0.687840 0.870570
0.000000 0.845207 0.877344
0.089802 0.843122 0.875691
0.239022 0.840909 0.873938
0.398650 0.838508 0.872036
0.565161 0.835964 0.870020
0.725426 0.833585 0.868135
0.858003 0.831409 0.866410
0.921400 0.829432 0.864844
0.000000 0.912012 0.872430
0.081553 0.910827 0.870711
0.230773 0.909569 0.868888
0.390401 0.908204 0.866909
0.556912 0.906759 0.864813
0.714425 0.905406 0.862852
0.852314 0.904169 0.861058
0.918251 0.903045 0.859429
