assets/luts/latte.cube
# Beauty Camera 3D LUT
# Filter: Latte (latte)
# Category: Warm
TITLE "Latte"
LUT_3D_SIZE 8
DOMAIN_MIN 0.000000 0.000000 0.000000
DOMAIN_MAX 0.903226 0.903226 0.903226
0.039286 0.021156 0.003894
0.173848 0.022338 0.005075
0.302046 0.023463 0.006201
0.427052 0.024561 0.007299
0.549913 0.025640 0.008377
0.671162 0.026704 0.009442
0.791120 0.027758 0.010495
0.910004 0.028801 0.011539
0.042918 0.146650 0.007525
0.177479 0.147831 0.008707
0.305677 0.148957 0.009832
0.430684 0.150054 0.010930
0.553545 0.151133 0.012009
0.674793 0.152198 0.013073
0.794751 0.153251 0.014127
0.913635 0.154295 0.015171
0.046516 0.270991 0.011123
0.181078 0.272173 0.012305
0.309275 0.273298 0.013431
0.434282 0.274396 0.014528
0.557143 0.275475 0.015607
0.678391 0.276539 0.016672
0.798349 0.277593 0.017725
0.917234 0.278636 0.018769
0.050098 0.394764 0.014705
0.184659 0.395945 0.015887
0.312857 0.397071 0.017012
0.437863 0.398169 0.018110
0.560725 0.399247 0.019189
0.681973 0.400312 0.020253
0.801931 0.401365 0.021307
0.920815 0.402409 0.022350
0.053668 0.518153 0.018276
0.188230 0.519334 0.019457
0.316427 0.520460 0.020583
0.441434 0.521558 0.021680
0.564295 0.522636 0.022759
0.685544 0.523701 0.023824
0.805502 0.524754 0.024877
0.924386 0.525798 0.025921
0.057231 0.641251 0.021838
0.191792 0.642433 0.023019
0.319990 0.643558 0.024145
0.444996 0.644656 0.025243
0.567858 0.645735 0.026321
0.689106 0.646800 0.027386
0.809064 0.647853 0.028439
0.927948 0.648897 0.029483
0.060786 0.764116 0.025393
0.195347 0.765297 0.026575
0.323545 0.766423 0.027700
0.448552 0.767521 0.028798
0.571413 0.768599 0.029877
0.692661 0.769664 0.030941
0.812619 0.770717 0.031995
0.931503 0.771761 0.033039
0.064336 0.886785 0.028943
0.198897 0.887966 0.030125
0.327095 0.889092 0.031250
0.452101 0.890190 0.032348
0.574963 0.891268 0.033427
0.696211 0.892333 0.034491
0.816169 0.893386 0.035545
0.935053 0.894430 0.036588
0.039577 0.021447 0.100851
0.174139 0.022628 0.102032
0.302336 0.023754 0.103158
0.427343 0.024852 0.104256
0.550204 0.025930 0.105334
0.671453 0.026995 0.106399
0.791410 0.028048 0.107452
0.910295 0.029092 0.108496
0.043209 0.146940 0.104482
0.177770 0.148122 0.105664
0.305968 0.149248 0.106789
0.430974 0.150345 0.107887
0.553836 0.151424 0.108966
0.675084 0.152489 0.110030
0.795042 0.153542 0.111084
0.913926 0.154586 0.112128
0.046807 0.271282 0.108080
0.181368 0.272463 0.109262
0.309566 0.273589 0.110388
0.434573 0.274687 0.111485
0.557434 0.275765 0.112564
0.678682 0.276830 0.113629
0.798640 0.277883 0.114682
0.917524 0.278927 0.115726
0.050389 0.395055 0.111662
0.184950 0.396236 0.112844
0.313148 0.397362 0.113969
0.438154 0.398460 0.115067
0.561016 0.399538 0.116146
0.682264 0.400603 0.117210
0.802222 0.401656 0.118264
0.921106 0.402700 0.119307
0.053959 0.518444 0.115233
0.188521 0.519625 0.116414
0.316718 0.520751 0.117540
0.441725 0.521848 0.118637
0.564586 0.522927 0.119716
0.685834 0.523992 0.120781
0.805792 0.525045 0.121834
0.924677 0.526089 0.122878
0.057521 0.641542 0.118795
0.192083 0.642724 0.119976
0.320280 0.643849 0.121102
0.445287 0.644947 0.122200
0.568148 0.646026 0.123278
0.689397 0.647090 0.124343
0.809355 0.648144 0.125396
0.928239 0.649187 0.126440
0.061077 0.764407 0.122350
0.195638 0.765588 0.123532
0.323836 0.766714 0.124657
0.448842 0.767811 0.125755
0.571704 0.768890 0.126834
0.692952 0.769955 0.127898
0.812910 0.771008 0.128952
0.931794 0.772052 0.129996
0.064626 0.887076 0.125900
0.199188 0.888257 0.127081
0.327386 0.889383 0.128207
0.452392 0.890480 0.129305
0.575254 0.891559 0.130384
0.696502 0.892624 0.131448
0.816460 0.893677 0.132501
0.935344 0.894721 0.133545
0.039895 0.021765 0.206782
0.174456 0.022946 0.207963
0.302654 0.024072 0.209089
0.427661 0.025169 0.210186
0.550522 0.026248 0.211265
0.671770 0.027313 0.212330
0.791728 0.028366 0.213383
0.910612 0.029410 0.214427
0.043526 0.147258 0.210413
0.178088 0.148440 0.211595
0.306286 0.149565 0.212720
0.431292 0.150663 0.213818
0.554154 0.151742 0.214897
0.675402 0.152806 0.215961
0.795360 0.153860 0.217015
0.914244 0.154904 0.218059
0.047125 0.271600 0.214011
0.181686 0.272781 0.215193
0.309884 0.273907 0.216318
0.434890 0.275004 0.217416
0.557752 0.276083 0.218495
0.679000 0.277148 0.219559
0.798958 0.278201 0.220613
0.917842 0.279245 0.221657
0.050706 0.395372 0.217593
0.185268 0.396554 0.218774
0.313465 0.397680 0.219900
0.438472 0.398777 0.220998
0.561333 0.399856 0.222077
0.682582 0.400921 0.223141
0.802540 0.401974 0.224194
0.921424 0.403018 0.225238
0.054277 0.518761 0.221164
0.188838 0.519943 0.222345
0.317036 0.521069 0.223471
0.442043 0.522166 0.224568
0.564904 0.523245 0.225647
0.686152 0.524310 0.226712
0.806110 0.525363 0.227765
0.924994 0.526407 0.228809
0.057839 0.641860 0.224726
0.192401 0.643041 0.225907
0.320598 0.644167 0.227033
0.445605 0.645265 0.228131
0.568466 0.646343 0.229209
0.689714 0.647408 0.230274
0.809672 0.648461 0.231327
0.928557 0.649505 0.232371
0.061394 0.764724 0.228281
0.195956 0.765906 0.229463
0.324154 0.767032 0.230588
0.449160 0.768129 0.231686
0.572022 0.769208 0.232765
0.693270 0.770273 0.233829
0.813228 0.771326 0.234883
0.932112 0.772370 0.235927
0.064944 0.887393 0.231831
0.199506 0.888575 0.233012
0.327703 0.889701 0.234138
0.452710 0.890798 0.235236
0.575571 0.891877 0.236314
0.696820 0.892942 0.237379
0.816777 0.893995 0.238432
0.935662 0.895039 0.239476
0.040226 0.022096 0.317234
0.174788 0.023277 0.318416
0.302985 0.024403 0.319541
0.427992 0.025501 0.320639
0.550853 0.026579 0.321718
0.672102 0.027644 0.322783
0.792059 0.028697 0.323836
0.910944 0.029741 0.324880
0.043858 0.147589 0.320866
0.178419 0.148771 0.322047
0.306617 0.149897 0.323173
0.431623 0.150994 0.324271
0.554485 0.152073 0.325349
0.675733 0.153138 0.326414
0.795691 0.154191 0.327467
0.914575 0.155235 0.328511
0.047456 0.271931 0.324464
0.182017 0.273112 0.325645
0.310215 0.274238 0.326771
0.435222 0.275336 0.327869
0.558083 0.276414 0.328948
0.679331 0.277479 0.330012
0.799289 0.278532 0.331065
0.918173 0.279576 0.332109
0.051038 0.395704 0.328046
0.185599 0.396885 0.329227
0.313797 0.398011 0.330353
0.438803 0.399109 0.331450
0.561665 0.400187 0.332529
0.682913 0.401252 0.333594
0.802871 0.402305 0.334647
0.921755 0.403349 0.335691
0.054608 0.519093 0.331616
0.189170 0.520274 0.332798
0.317367 0.521400 0.333923
0.442374 0.522497 0.335021
0.565235 0.523576 0.336100
0.686483 0.524641 0.337164
0.806441 0.525694 0.338218
0.925326 0.526738 0.339262
0.058170 0.642191 0.335178
0.192732 0.643373 0.336360
0.320929 0.644498 0.337486
0.445936 0.645596 0.338583
0.568797 0.646675 0.339662
0.690046 0.647739 0.340727
0.810004 0.648793 0.341780
0.928888 0.649836 0.342824
0.061726 0.765056 0.338734
0.196287 0.766237 0.339915
0.324485 0.767363 0.341041
0.449491 0.768460 0.342139
0.572353 0.769539 0.343217
0.693601 0.770604 0.344282
0.813559 0.771657 0.345335
0.932443 0.772701 0.346379
0.065275 0.887725 0.342284
0.199837 0.888906 0.343465
0.328035 0.890032 0.344591
0.453041 0.891129 0.345688
0.575903 0.892208 0.346767
0.697151 0.893273 0.347832
0.817109 0.894326 0.348885
0.935993 0.895370 0.349929
0.040567 0.022437 0.430822
0.175128 0.023618 0.432004
0.303326 0.024744 0.433130
0.428333 0.025841 0.434227
0.551194 0.026920 0.435306
0.672442 0.027985 0.436371
0.792400 0.029038 0.437424
0.911284 0.030082 0.438468
0.044198 0.147930 0.434454
0.178760 0.149112 0.435635
0.306958 0.150237 0.436761
0.431964 0.151335 0.437859
0.554825 0.152414 0.438938
0.676074 0.153478 0.440002
0.796032 0.154532 0.441055
0.914916 0.155576 0.442099
0.047797 0.272271 0.438052
0.182358 0.273453 0.439234
0.310556 0.274579 0.440359
0.435562 0.275676 0.441457
0.558424 0.276755 0.442536
0.679672 0.277820 0.443600
0.799630 0.278873 0.444654
0.918514 0.279917 0.445697
0.051378 0.396044 0.441634
0.185940 0.397226 0.442815
0.314137 0.398352 0.443941
0.439144 0.399449 0.445039
0.562005 0.400528 0.446117
0.683254 0.401593 0.447182
0.803212 0.402646 0.448235
0.922096 0.403690 0.449279
0.054949 0.519433 0.445204
0.189510 0.520615 0.446386
0.317708 0.521741 0.447512
0.442714 0.522838 0.448609
0.565576 0.523917 0.449688
0.686824 0.524982 0.450753
0.806782 0.526035 0.451806
0.925666 0.527079 0.452850
0.058511 0.642532 0.448767
0.193073 0.643713 0.449948
0.321270 0.644839 0.451074
0.446277 0.645937 0.452171
0.569138 0.647015 0.453250
0.690386 0.648080 0.454315
0.810344 0.649133 0.455368
0.929228 0.650177 0.456412
0.062066 0.765396 0.452322
0.196628 0.766578 0.453503
0.324826 0.767704 0.454629
0.449832 0.768801 0.455727
0.572693 0.769880 0.456806
0.693942 0.770945 0.457870
0.813900 0.771998 0.458923
0.932784 0.773042 0.459967
0.065616 0.888065 0.455872
0.200178 0.889247 0.457053
0.328375 0.890372 0.458179
0.453382 0.891470 0.459276
0.576243 0.892549 0.460355
0.697492 0.893614 0.461420
0.817449 0.894667 0.462473
0.936334 0.895711 0.463517
0.040915 0.022785 0.546834
0.175476 0.023966 0.548015
0.303674 0.025092 0.549141
0.428681 0.026189 0.550239
0.551542 0.027268 0.551317
0.672790 0.028333 0.552382
0.792748 0.029386 0.553435
0.911632 0.030430 0.554479
0.044546 0.148278 0.550465
0.179108 0.149460 0.551647
0.307305 0.150585 0.552772
0.432312 0.151683 0.553870
0.555173 0.152762 0.554949
0.676422 0.153826 0.556014
0.796380 0.154880 0.557067
0.915264 0.155924 0.558111
0.048144 0.272619 0.554063
0.182706 0.273801 0.555245
0.310904 0.274927 0.556371
0.435910 0.276024 0.557468
0.558772 0.277103 0.558547
0.680020 0.278168 0.559612
0.799978 0.279221 0.560665
0.918862 0.280265 0.561709
0.051726 0.396392 0.557645
0.186288 0.397574 0.558827
0.314485 0.398700 0.559952
0.439492 0.399797 0.561050
0.562353 0.400876 0.562129
0.683602 0.401941 0.563193
0.803559 0.402994 0.564247
0.922444 0.404038 0.565291
0.055297 0.519781 0.561216
0.189858 0.520963 0.562397
0.318056 0.522088 0.563523
0.443062 0.523186 0.564621
0.565924 0.524265 0.565699
0.687172 0.525330 0.566764
0.807130 0.526383 0.567817
0.926014 0.527427 0.568861
0.058859 0.642880 0.564778
0.193420 0.644061 0.565959
0.321618 0.645187 0.567085
0.446625 0.646285 0.568183
0.569486 0.647363 0.569262
0.690734 0.648428 0.570326
0.810692 0.649481 0.571379
0.929576 0.650525 0.572423
0.062414 0.765744 0.568333
0.196976 0.766926 0.569515
0.325174 0.768051 0.570641
0.450180 0.769149 0.571738
0.573041 0.770228 0.572817
0.694290 0.771293 0.573882
0.814248 0.772346 0.574935
0.933132 0.773390 0.575979
0.065964 0.888413 0.571883
0.200526 0.889595 0.573065
0.328723 0.890720 0.574190
0.453730 0.891818 0.575288
0.576591 0.892897 0.576367
0.697839 0.893961 0.577431
0.817797 0.895015 0.578485
0.936682 0.896059 0.579528
0.041269 0.023138 0.664830
0.175830 0.024320 0.666011
0.304028 0.025446 0.667137
0.429034 0.026543 0.668234
0.551896 0.027622 0.669313
0.673144 0.028687 0.670378
0.793102 0.029740 0.671431
0.911986 0.030784 0.672475
0.044900 0.148632 0.668461
0.179462 0.149814 0.669643
0.307659 0.150939 0.670768
0.432666 0.152037 0.671866
0.555527 0.153116 0.672945
0.676776 0.154180 0.674009
0.796734 0.155234 0.675063
0.915618 0.156277 0.676106
0.048498 0.272973 0.672059
0.183060 0.274155 0.673241
0.311258 0.275281 0.674366
0.436264 0.276378 0.675464
0.559125 0.277457 0.676543
0.680374 0.278522 0.677607
0.800332 0.279575 0.678661
0.919216 0.280619 0.679705
0.052080 0.396746 0.675641
0.186642 0.397928 0.676822
0.314839 0.399053 0.677948
0.439846 0.400151 0.679046
0.562707 0.401230 0.680125
0.683955 0.402294 0.681189
0.803913 0.403348 0.682242
0.922798 0.404392 0.683286
0.055651 0.520135 0.679212
0.190212 0.521317 0.680393
0.318410 0.522442 0.681519
0.443416 0.523540 0.682616
0.566278 0.524619 0.683695
0.687526 0.525683 0.684760
0.807484 0.526737 0.685813
0.926368 0.527781 0.686857
0.059213 0.643234 0.682774
0.193774 0.644415 0.683955
0.321972 0.645541 0.685081
0.446979 0.646638 0.686179
0.569840 0.647717 0.687257
0.691088 0.648782 0.688322
0.811046 0.649835 0.689375
0.929930 0.650879 0.690419
0.062768 0.766098 0.686329
0.197330 0.767280 0.687511
0.325527 0.768405 0.688636
0.450534 0.769503 0.689734
0.573395 0.770582 0.690813
0.694644 0.771646 0.691877
0.814602 0.772700 0.692931
0.933486 0.773744 0.693975
0.066318 0.888767 0.689879
0.200880 0.889949 0.691060
0.329077 0.891074 0.692186
0.454084 0.892172 0.693284
0.576945 0.893251 0.694362
0.698193 0.894315 0.695427
0.818151 0.895369 0.696480
0.937036 0.896413 0.697524
0.041628 0.023497 0.784511
0.176189 0.024679 0.785692
0.304387 0.025805 0.786818
0.429393 0.026902 0.787915
0.552255 0.027981 0.788994
0.673503 0.029046 0.790059
0.793461 0.030099 0.791112
0.912345 0.031143 0.792156
0.045259 0.148991 0.788142
0.179821 0.150173 0.789324
0.308018 0.151298 0.790449
0.433025 0.152396 0.791547
0.555886 0.153475 0.792626
0.677135 0.154539 0.793690
0.797092 0.155593 0.794744
0.915977 0.156636 0.795787
0.048857 0.273332 0.791740
0.183419 0.274514 0.792922
0.311616 0.275639 0.794047
0.436623 0.276737 0.795145
0.559484 0.277816 0.796224
0.680733 0.278881 0.797288
0.800691 0.279934 0.798342
0.919575 0.280978 0.799386
0.052439 0.397105 0.795322
0.187001 0.398287 0.796503
0.315198 0.399412 0.797629
0.440205 0.400510 0.798727
0.563066 0.401589 0.799806
0.684314 0.402653 0.800870
0.804272 0.403707 0.801923
0.923157 0.404751 0.802967
0.056010 0.520494 0.798893
0.190571 0.521676 0.800074
0.318769 0.522801 0.801200
0.443775 0.523899 0.802297
0.566637 0.524978 0.803376
0.687885 0.526042 0.804441
0.807843 0.527096 0.805494
0.926727 0.528140 0.806538
0.059572 0.643593 0.802455
0.194133 0.644774 0.803636
0.322331 0.645900 0.804762
0.447337 0.646997 0.805859
0.570199 0.648076 0.806938
0.691447 0.649141 0.808003
0.811405 0.650194 0.809056
0.930289 0.651238 0.810100
0.063127 0.766457 0.806010
0.197689 0.767639 0.807192
0.325886 0.768764 0.808317
0.450893 0.769862 0.809415
0.573754 0.770941 0.810494
0.695003 0.772005 0.811558
0.814961 0.773059 0.812612
0.933845 0.774103 0.813655
0.066677 0.889126 0.809560
0.201239 0.890308 0.810741
0.329436 0.891433 0.811867
0.454443 0.892531 0.812965
0.577304 0.893610 0.814043
0.698552 0.894674 0.815108
0.818510 0.895728 0.816161
0.937394 0.896772 0.817205
