assets/luts/latte.cube
# Beauty Camera 3D LUT
# Filter: Latte (latte)
# Category: Warm
TITLE "Latte"
LUT_3D_SIZE 32
DOMAIN_MIN 0.0 0.0 0.0
DOMAIN_MAX 1.0 1.0 1.0
0.039286 0.021156 0.003894
0.073987 0.021461 0.004198
0.107811 0.021758 0.004495
0.141049 0.022050 0.004787
0.173848 0.022338 0.005075
0.206295 0.022623 0.005360
0.238451 0.022905 0.005643
0.270357 0.023185 0.005923
0.302046 0.023463 0.006201
0.333541 0.023740 0.006477
0.364864 0.024015 0.006752
0.396030 0.024288 0.007026
0.427052 0.024561 0.007299
0.457943 0.024832 0.007570
0.488711 0.025102 0.007840
0.519365 0.025371 0.008109
0.549913 0.025640 0.008377
0.580362 0.025907 0.008645
0.610716 0.026174 0.008911
0.640981 0.026439 0.009177
0.671162 0.026704 0.009442
0.701262 0.026969 0.009706
0.731287 0.027232 0.009970
0.761238 0.027495 0.010233
0.791120 0.027758 0.010495
0.820934 0.028019 0.010757
0.850685 0.028281 0.011018
0.880374 0.028541 0.011279
0.910004 0.028801 0.011539
0.939576 0.029061 0.011799
0.969094 0.029320 0.012058
0.998558 0.029579 0.012317
0.040200 0.052728 0.004807
0.074901 0.053033 0.005112
0.108725 0.053330 0.005409
0.141963 0.053622 0.005701
0.174762 0.053910 0.005989
0.207209 0.054194 0.006274
0.239365 0.054477 0.006556
0.271271 0.054757 0.006836
0.302959 0.055035 0.007115
0.334455 0.055312 0.007391
0.365777 0.055587 0.007666
0.396943 0.055860 0.007940
0.427966 0.056133 0.008212
0.458856 0.056404 0.008483
0.489624 0.056674 0.008754
0.520279 0.056943 0.009023
0.550827 0.057212 0.009291
0.581275 0.057479 0.009558
0.611629 0.057745 0.009825
0.641895 0.058011 0.010091
0.672075 0.058276 0.010356
0.702176 0.058540 0.010620
0.732200 0.058804 0.010884
0.762152 0.059067 0.011146
0.792033 0.059329 0.011409
0.821848 0.059591 0.011671
0.851599 0.059853 0.011932
0.881288 0.060113 0.012193
0.910918 0.060373 0.012453
0.940490 0.060633 0.012712
0.970007 0.060892 0.012972
0.999471 0.061151 0.013230
0.041109 0.084133 0.005716
0.075809 0.084438 0.006021
0.109634 0.084735 0.006318
0.142872 0.085026 0.006610
0.175670 0.085314 0.006898
0.208118 0.085599 0.007183
0.240273 0.085882 0.007465
0.272179 0.086162 0.007745
0.303868 0.086440 0.008023
0.335364 0.086717 0.008300
0.366686 0.086992 0.008575
0.397852 0.087265 0.008849
0.428874 0.087538 0.009121
0.459765 0.087809 0.009392
0.490533 0.088079 0.009662
0.521188 0.088348 0.009932
0.551736 0.088616 0.010200
0.582184 0.088884 0.010467
0.612538 0.089150 0.010734
0.642803 0.089416 0.010999
0.672984 0.089681 0.011264
0.703085 0.089945 0.011529
0.733109 0.090209 0.011792
0.763060 0.090472 0.012055
0.792942 0.090734 0.012318
0.822757 0.090996 0.012579
0.852508 0.091257 0.012841
0.882197 0.091518 0.013101
0.911826 0.091778 0.013362
0.941399 0.092038 0.013621
0.970916 0.092297 0.013880
1.000000 0.092556 0.014139
0.042014 0.115431 0.006622
0.076715 0.115736 0.006927
0.110539 0.116033 0.007224
0.143777 0.116324 0.007515
0.176576 0.116612 0.007803
0.209023 0.116897 0.008088
0.241179 0.117180 0.008371
0.273085 0.117460 0.008651
0.304774 0.117738 0.008929
0.336269 0.118015 0.009206
0.367592 0.118290 0.009481
0.398758 0.118563 0.009754
0.429780 0.118836 0.010027
0.460671 0.119107 0.010298
0.491439 0.119377 0.010568
0.522093 0.119646 0.010837
0.552642 0.119914 0.011105
0.583090 0.120182 0.011373
0.613444 0.120448 0.011639
0.643709 0.120714 0.011905
0.673890 0.120979 0.012170
0.703990 0.121243 0.012434
0.734015 0.121507 0.012698
0.763966 0.121770 0.012961
0.793848 0.122032 0.013223
0.823663 0.122294 0.013485
0.853413 0.122555 0.013746
0.883102 0.122816 0.014007
0.912732 0.123076 0.014267
0.942304 0.123336 0.014527
0.971822 0.123595 0.014786
1.000000 0.123854 0.015045
0.042918 0.146650 0.007525
0.077618 0.146954 0.007830
0.111443 0.147251 0.008127
0.144681 0.147543 0.008419
0.177479 0.147831 0.008707
0.209927 0.148116 0.008992
0.242082 0.148398 0.009274
0.273989 0.148679 0.009554
0.305677 0.148957 0.009832
0.337173 0.149233 0.010109
0.368495 0.149508 0.010384
0.399661 0.149782 0.010658
0.430684 0.150054 0.010930
0.461574 0.150326 0.011201
0.492342 0.150596 0.011471
0.522997 0.150865 0.011741
0.553545 0.151133 0.012009
0.583993 0.151401 0.012276
0.614347 0.151667 0.012543
0.644612 0.151933 0.012808
0.674793 0.152198 0.013073
0.704894 0.152462 0.013338
0.734918 0.152726 0.013601
0.764870 0.152989 0.013864
0.794751 0.153251 0.014127
0.824566 0.153513 0.014389
0.854317 0.153774 0.014650
0.884006 0.154035 0.014910
0.913635 0.154295 0.015171
0.943208 0.154555 0.015430
0.972725 0.154814 0.015689
1.000000 0.155073 0.015948
0.043819 0.177806 0.008427
0.078520 0.178111 0.008732
0.112344 0.178408 0.009029
0.145582 0.178699 0.009320
0.178381 0.178987 0.009608
0.210828 0.179272 0.009893
0.242984 0.179555 0.010176
0.274890 0.179835 0.010456
0.306579 0.180113 0.010734
0.338074 0.180390 0.011011
0.369397 0.180665 0.011286
0.400563 0.180938 0.011559
0.431585 0.181211 0.011832
0.462476 0.181482 0.012103
0.493244 0.181752 0.012373
0.523898 0.182021 0.012642
0.554447 0.182289 0.012910
0.584895 0.182557 0.013178
0.615249 0.182823 0.013444
0.645514 0.183089 0.013710
0.675695 0.183354 0.013975
0.705795 0.183618 0.014239
0.735820 0.183882 0.014503
0.765771 0.184145 0.014766
0.795653 0.184407 0.015028
0.825468 0.184669 0.015290
0.855218 0.184930 0.015551
0.884907 0.185191 0.015812
0.914537 0.185451 0.016072
0.944109 0.185711 0.016332
0.973627 0.185970 0.016591
1.000000 0.186229 0.016850
0.044720 0.208910 0.009327
0.079420 0.209215 0.009632
0.113244 0.209512 0.009929
0.146483 0.209804 0.010220
0.179281 0.210092 0.010508
0.211729 0.210376 0.010793
0.243884 0.210659 0.011076
0.275790 0.210939 0.011356
0.307479 0.211217 0.011634
0.338974 0.211494 0.011911
0.370297 0.211769 0.012186
0.401463 0.212042 0.012459
0.432485 0.212315 0.012732
0.463376 0.212586 0.013003
0.494144 0.212856 0.013273
0.524799 0.213125 0.013542
0.555347 0.213394 0.013810
0.585795 0.213661 0.014078
0.616149 0.213928 0.014344
0.646414 0.214193 0.014610
0.676595 0.214458 0.014875
0.706696 0.214723 0.015139
0.736720 0.214986 0.015403
0.766671 0.215249 0.015666
0.796553 0.215512 0.015928
0.826368 0.215773 0.016190
0.856118 0.216035 0.016451
0.885807 0.216295 0.016712
0.915437 0.216555 0.016972
0.945010 0.216815 0.017232
0.974527 0.217074 0.017491
1.000000 0.217333 0.017750
0.045618 0.239970 0.010226
0.080319 0.240275 0.010530
0.114143 0.240572 0.010827
0.147381 0.240863 0.011119
0.180180 0.241151 0.011407
0.212627 0.241436 0.011692
0.244783 0.241719 0.011974
0.276689 0.241999 0.012255
0.308378 0.242277 0.012533
0.339873 0.242554 0.012809
0.371196 0.242829 0.013084
0.402362 0.243102 0.013358
0.433384 0.243375 0.013630
0.464275 0.243646 0.013902
0.495043 0.243916 0.014172
0.525697 0.244185 0.014441
0.556245 0.244453 0.014709
0.586694 0.244721 0.014977
0.617048 0.244987 0.015243
0.647313 0.245253 0.015509
0.677494 0.245518 0.015774
0.707594 0.245782 0.016038
0.737619 0.246046 0.016302
0.767570 0.246309 0.016565
0.797452 0.246571 0.016827
0.827266 0.246833 0.017089
0.857017 0.247094 0.017350
0.886706 0.247355 0.017611
0.916336 0.247615 0.017871
0.945908 0.247875 0.018131
0.975426 0.248134 0.018390
1.000000 0.248393 0.018649
0.046516 0.270991 0.011123
0.081217 0.271296 0.011428
0.115041 0.271593 0.011725
0.148279 0.271885 0.012017
0.181078 0.272173 0.012305
0.213525 0.272457 0.012590
0.245681 0.272740 0.012872
0.277587 0.273020 0.013152
0.309275 0.273298 0.013431
0.340771 0.273575 0.013707
0.372093 0.273850 0.013982
0.403259 0.274123 0.014256
0.434282 0.274396 0.014528
0.465172 0.274667 0.014799
0.495940 0.274937 0.015070
0.526595 0.275206 0.015339
0.557143 0.275475 0.015607
0.587591 0.275742 0.015874
0.617945 0.276008 0.016141
0.648211 0.276274 0.016407
0.678391 0.276539 0.016672
0.708492 0.276804 0.016936
0.738516 0.277067 0.017200
0.768468 0.277330 0.017463
0.798349 0.277593 0.017725
0.828164 0.277854 0.017987
0.857915 0.278116 0.018248
0.887604 0.278376 0.018509
0.917234 0.278636 0.018769
0.946806 0.278896 0.019028
0.976323 0.279155 0.019288
1.000000 0.279414 0.019546
0.047413 0.301978 0.012020
0.082113 0.302282 0.012325
0.115938 0.302579 0.012622
0.149176 0.302871 0.012914
0.181974 0.303159 0.013202
0.214422 0.303444 0.013486
0.246577 0.303727 0.013769
0.278483 0.304007 0.014049
0.310172 0.304285 0.014327
0.341668 0.304561 0.014604
0.372990 0.304837 0.014879
0.404156 0.305110 0.015152
0.435178 0.305383 0.015425
0.466069 0.305654 0.015696
0.496837 0.305924 0.015966
0.527492 0.306193 0.016235
0.558040 0.306461 0.016504
0.588488 0.306729 0.016771
0.618842 0.306995 0.017038
0.649107 0.307261 0.017303
0.679288 0.307526 0.017568
0.709389 0.307790 0.017833
0.739413 0.308054 0.018096
0.769364 0.308317 0.018359
0.799246 0.308579 0.018622
0.829061 0.308841 0.018883
0.858812 0.309102 0.019145
0.888501 0.309363 0.019405
0.918130 0.309623 0.019665
0.947703 0.309883 0.019925
0.977220 0.310142 0.020184
1.000000 0.310401 0.020443
0.048309 0.332934 0.012916
0.083009 0.333238 0.013221
0.116833 0.333535 0.013518
0.150071 0.333827 0.013809
0.182870 0.334115 0.014097
0.215317 0.334400 0.014382
0.247473 0.334682 0.014665
0.279379 0.334963 0.014945
0.311068 0.335241 0.015223
0.342563 0.335517 0.015500
0.373886 0.335792 0.015775
0.405052 0.336066 0.016048
0.436074 0.336338 0.016321
0.466965 0.336610 0.016592
0.497733 0.336880 0.016862
0.528387 0.337149 0.017131
0.558936 0.337417 0.017399
0.589384 0.337685 0.017667
0.619738 0.337951 0.017933
0.650003 0.338217 0.018199
0.680184 0.338482 0.018464
0.710285 0.338746 0.018728
0.740309 0.339010 0.018992
0.770260 0.339273 0.019255
0.800142 0.339535 0.019517
0.829957 0.339797 0.019779
0.859707 0.340058 0.020040
0.889396 0.340319 0.020301
0.919026 0.340579 0.020561
0.948598 0.340839 0.020821
0.978116 0.341098 0.021080
1.000000 0.341357 0.021339
0.049203 0.363862 0.013811
0.083904 0.364166 0.014116
0.117728 0.364463 0.014413
0.150966 0.364755 0.014704
0.183765 0.365043 0.014992
0.216212 0.365328 0.015277
0.248368 0.365610 0.015560
0.280274 0.365891 0.015840
0.311963 0.366169 0.016118
0.343458 0.366445 0.016395
0.374781 0.366720 0.016670
0.405947 0.366994 0.016943
0.436969 0.367266 0.017216
0.467860 0.367538 0.017487
0.498628 0.367808 0.017757
0.529282 0.368077 0.018026
0.559831 0.368345 0.018294
0.590279 0.368613 0.018562
0.620633 0.368879 0.018828
0.650898 0.369145 0.019094
0.681079 0.369410 0.019359
0.711179 0.369674 0.019623
0.741204 0.369938 0.019887
0.771155 0.370201 0.020150
0.801037 0.370463 0.020412
0.830852 0.370725 0.020674
0.860602 0.370986 0.020935
0.890291 0.371247 0.021196
0.919921 0.371507 0.021456
0.949493 0.371767 0.021716
0.979011 0.372026 0.021975
1.000000 0.372285 0.022234
0.050098 0.394764 0.014705
0.084798 0.395069 0.015010
0.118623 0.395366 0.015307
0.151861 0.395657 0.015599
0.184659 0.395945 0.015887
0.217107 0.396230 0.016172
0.249262 0.396513 0.016454
0.281168 0.396793 0.016734
0.312857 0.397071 0.017012
0.344353 0.397348 0.017289
0.375675 0.397623 0.017564
0.406841 0.397896 0.017837
0.437863 0.398169 0.018110
0.468754 0.398440 0.018381
0.499522 0.398710 0.018651
0.530177 0.398979 0.018920
0.560725 0.399247 0.019189
0.591173 0.399515 0.019456
0.621527 0.399781 0.019723
0.651792 0.400047 0.019988
0.681973 0.400312 0.020253
0.712074 0.400576 0.020518
0.742098 0.400840 0.020781
0.772049 0.401103 0.021044
0.801931 0.401365 0.021307
0.831746 0.401627 0.021568
0.861497 0.401888 0.021830
0.891186 0.402149 0.022090
0.920815 0.402409 0.022350
0.950388 0.402669 0.022610
0.979905 0.402928 0.022869
1.000000 0.403187 0.023128
0.050991 0.425643 0.015599
0.085692 0.425947 0.015903
0.119516 0.426244 0.016200
0.152754 0.426536 0.016492
0.185553 0.426824 0.016780
0.218000 0.427109 0.017065
0.250156 0.427391 0.017347
0.282062 0.427672 0.017628
0.313750 0.427950 0.017906
0.345246 0.428226 0.018182
0.376569 0.428501 0.018457
0.407735 0.428775 0.018731
0.438757 0.429047 0.019003
0.469647 0.429319 0.019275
0.500416 0.429589 0.019545
0.531070 0.429858 0.019814
0.561618 0.430126 0.020082
0.592067 0.430394 0.020350
0.622421 0.430660 0.020616
0.652686 0.430926 0.020882
0.682867 0.431191 0.021147
0.712967 0.431455 0.021411
0.742992 0.431719 0.021675
0.772943 0.431982 0.021938
0.802825 0.432244 0.022200
0.832639 0.432506 0.022462
0.862390 0.432767 0.022723
0.892079 0.433028 0.022984
0.921709 0.433288 0.023244
0.951281 0.433548 0.023504
0.980798 0.433807 0.023763
1.000000 0.434066 0.024022
0.051884 0.456499 0.016492
0.086585 0.456804 0.016796
0.120409 0.457101 0.017093
0.153647 0.457393 0.017385
0.186446 0.457681 0.017673
0.218893 0.457966 0.017958
0.251049 0.458248 0.018240
0.282955 0.458528 0.018520
0.314643 0.458807 0.018799
0.346139 0.459083 0.019075
0.377462 0.459358 0.019350
0.408627 0.459632 0.019624
0.439650 0.459904 0.019896
0.470540 0.460175 0.020168
0.501309 0.460446 0.020438
0.531963 0.460715 0.020707
0.562511 0.460983 0.020975
0.592960 0.461250 0.021242
0.623314 0.461517 0.021509
0.653579 0.461783 0.021775
0.683760 0.462048 0.022040
0.713860 0.462312 0.022304
0.743884 0.462575 0.022568
0.773836 0.462838 0.022831
0.803717 0.463101 0.023093
0.833532 0.463363 0.023355
0.863283 0.463624 0.023616
0.892972 0.463885 0.023877
0.922602 0.464145 0.024137
0.952174 0.464404 0.024397
0.981691 0.464664 0.024656
1.000000 0.464922 0.024914
0.052777 0.487336 0.017384
0.087477 0.487640 0.017689
0.121301 0.487937 0.017986
0.154540 0.488229 0.018277
0.187338 0.488517 0.018565
0.219786 0.488802 0.018850
0.251941 0.489084 0.019133
0.283847 0.489365 0.019413
0.315536 0.489643 0.019691
0.347031 0.489919 0.019968
0.378354 0.490194 0.020243
0.409520 0.490468 0.020516
0.440542 0.490740 0.020789
0.471433 0.491012 0.021060
0.502201 0.491282 0.021330
0.532856 0.491551 0.021599
0.563404 0.491819 0.021867
0.593852 0.492087 0.022135
0.624206 0.492353 0.022401
0.654471 0.492619 0.022667
0.684652 0.492884 0.022932
0.714753 0.493148 0.023196
0.744777 0.493412 0.023460
0.774728 0.493675 0.023723
0.804610 0.493937 0.023985
0.834425 0.494199 0.024247
0.864175 0.494460 0.024508
0.893864 0.494721 0.024769
0.923494 0.494981 0.025029
0.953067 0.495241 0.025289
0.982584 0.495500 0.025548
1.000000 0.495759 0.025807
0.053668 0.518153 0.018276
0.088369 0.518458 0.018580
0.122193 0.518755 0.018877
0.155431 0.519046 0.019169
0.188230 0.519334 0.019457
0.220677 0.519619 0.019742
0.252833 0.519902 0.020024
0.284739 0.520182 0.020305
0.316427 0.520460 0.020583
0.347923 0.520737 0.020859
0.379246 0.521012 0.021134
0.410412 0.521285 0.021408
0.441434 0.521558 0.021680
0.472324 0.521829 0.021952
0.503093 0.522099 0.022222
0.533747 0.522368 0.022491
0.564295 0.522636 0.022759
0.594744 0.522904 0.023027
0.625098 0.523170 0.023293
0.655363 0.523436 0.023559
0.685544 0.523701 0.023824
0.715644 0.523965 0.024088
0.745669 0.524229 0.024352
0.775620 0.524492 0.024615
0.805502 0.524754 0.024877
0.835316 0.525016 0.025139
0.865067 0.525277 0.025400
0.894756 0.525538 0.025661
0.924386 0.525798 0.025921
0.953958 0.526058 0.026181
0.983476 0.526317 0.026440
1.000000 0.526576 0.026699
0.054560 0.548952 0.019167
0.089260 0.549257 0.019472
0.123084 0.549554 0.019769
0.156323 0.549846 0.020060
0.189121 0.550134 0.020348
0.221569 0.550419 0.020633
0.253724 0.550701 0.020916
0.285630 0.550981 0.021196
0.317319 0.551259 0.021474
0.348814 0.551536 0.021751
0.380137 0.551811 0.022026
0.411303 0.552084 0.022299
0.442325 0.552357 0.022572
0.473216 0.552628 0.022843
0.503984 0.552898 0.023113
0.534639 0.553167 0.023382
0.565187 0.553436 0.023651
0.595635 0.553703 0.023918
0.625989 0.553970 0.024184
0.656254 0.554235 0.024450
0.686435 0.554500 0.024715
0.716536 0.554765 0.024979
0.746560 0.555028 0.025243
0.776511 0.555291 0.025506
0.806393 0.555554 0.025768
0.836208 0.555815 0.026030
0.865958 0.556077 0.026291
0.895647 0.556337 0.026552
0.925277 0.556597 0.026812
0.954850 0.556857 0.027072
0.984367 0.557116 0.027331
1.000000 0.557375 0.027590
0.055450 0.579734 0.020058
0.090151 0.580039 0.020362
0.123975 0.580336 0.020659
0.157213 0.580628 0.020951
0.190012 0.580916 0.021239
0.222459 0.581201 0.021524
0.254615 0.581483 0.021806
0.286521 0.581763 0.022087
0.318209 0.582041 0.022365
0.349705 0.582318 0.022641
0.381028 0.582593 0.022916
0.412194 0.582867 0.023190
0.443216 0.583139 0.023462
0.474107 0.583410 0.023734
0.504875 0.583680 0.024004
0.535529 0.583950 0.024273
0.566077 0.584218 0.024541
0.596526 0.584485 0.024809
0.626880 0.584752 0.025075
0.657145 0.585018 0.025341
0.687326 0.585283 0.025606
0.717426 0.585547 0.025870
0.747451 0.585810 0.026134
0.777402 0.586073 0.026397
0.807284 0.586336 0.026659
0.837098 0.586598 0.026921
0.866849 0.586859 0.027182
0.896538 0.587120 0.027443
0.926168 0.587380 0.027703
0.955740 0.587639 0.027963
0.985258 0.587899 0.028222
1.000000 0.588157 0.028481
0.056341 0.610500 0.020948
0.091041 0.610805 0.021253
0.124865 0.611102 0.021550
0.158104 0.611394 0.021842
0.190902 0.611682 0.022130
0.223350 0.611967 0.022414
0.255505 0.612249 0.022697
0.287411 0.612529 0.022977
0.319100 0.612808 0.023255
0.350595 0.613084 0.023532
0.381918 0.613359 0.023807
0.413084 0.613633 0.024080
0.444106 0.613905 0.024353
0.474997 0.614176 0.024624
0.505765 0.614447 0.024894
0.536420 0.614716 0.025163
0.566968 0.614984 0.025432
0.597416 0.615251 0.025699
0.627770 0.615518 0.025965
0.658035 0.615784 0.026231
0.688216 0.616049 0.026496
0.718317 0.616313 0.026761
0.748341 0.616577 0.027024
0.778292 0.616840 0.027287
0.808174 0.617102 0.027549
0.837989 0.617364 0.027811
0.867739 0.617625 0.028073
0.897428 0.617886 0.028333
0.927058 0.618146 0.028593
0.956631 0.618405 0.028853
0.986148 0.618665 0.029112
1.000000 0.618923 0.029371
0.057231 0.641251 0.021838
0.091931 0.641556 0.022143
0.125755 0.641853 0.022440
0.158993 0.642145 0.022731
0.191792 0.642433 0.023019
0.224239 0.642718 0.023304
0.256395 0.643000 0.023587
0.288301 0.643280 0.023867
0.319990 0.643558 0.024145
0.351485 0.643835 0.024422
0.382808 0.644110 0.024697
0.413974 0.644384 0.024970
0.444996 0.644656 0.025243
0.475887 0.644927 0.025514
0.506655 0.645197 0.025784
0.537309 0.645467 0.026053
0.567858 0.645735 0.026321
0.598306 0.646002 0.026589
0.628660 0.646269 0.026855
0.658925 0.646535 0.027121
0.689106 0.646800 0.027386
0.719206 0.647064 0.027650
0.749231 0.647327 0.027914
0.779182 0.647590 0.028177
0.809064 0.647853 0.028439
0.838879 0.648115 0.028701
0.868629 0.648376 0.028962
0.898318 0.648637 0.029223
0.927948 0.648897 0.029483
0.957520 0.649156 0.029743
0.987038 0.649416 0.030002
1.000000 0.649674 0.030261
0.058120 0.671988 0.022727
0.092820 0.672292 0.023032
0.126645 0.672589 0.023329
0.159883 0.672881 0.023621
0.192681 0.673169 0.023909
0.225129 0.673454 0.024194
0.257284 0.673736 0.024476
0.289191 0.674017 0.024756
0.320879 0.674295 0.025034
0.352375 0.674571 0.025311
0.383697 0.674846 0.025586
0.414863 0.675120 0.025860
0.445886 0.675392 0.026132
0.476776 0.675664 0.026403
0.507544 0.675934 0.026673
0.538199 0.676203 0.026943
0.568747 0.676471 0.027211
0.599195 0.676739 0.027478
0.629549 0.677005 0.027745
0.659815 0.677271 0.028010
0.689995 0.677536 0.028275
0.720096 0.677800 0.028540
0.750120 0.678064 0.028803
0.780072 0.678327 0.029066
0.809953 0.678589 0.029329
0.839768 0.678851 0.029591
0.869519 0.679112 0.029852
0.899208 0.679373 0.030112
0.928837 0.679633 0.030373
0.958410 0.679893 0.030632
0.987927 0.680152 0.030892
1.000000 0.680411 0.031150
0.059009 0.702710 0.023616
0.093709 0.703015 0.023921
0.127534 0.703312 0.024218
0.160772 0.703604 0.024510
0.193571 0.703892 0.024798
0.226018 0.704177 0.025083
0.258174 0.704459 0.025365
0.290080 0.704739 0.025645
0.321768 0.705017 0.025923
0.353264 0.705294 0.026200
0.384586 0.705569 0.026475
0.415752 0.705843 0.026749
0.446775 0.706115 0.027021
0.477665 0.706386 0.027292
0.508433 0.706656 0.027563
0.539088 0.706925 0.027832
0.569636 0.707194 0.028100
0.600084 0.707461 0.028367
0.630438 0.707728 0.028634
0.660704 0.707993 0.028900
0.690884 0.708258 0.029165
0.720985 0.708523 0.029429
0.751009 0.708786 0.029692
0.780961 0.709049 0.029955
0.810842 0.709312 0.030218
0.840657 0.709573 0.030480
0.870408 0.709835 0.030741
0.900097 0.710095 0.031002
0.929726 0.710355 0.031262
0.959299 0.710615 0.031521
0.988816 0.710874 0.031781
1.000000 0.711133 0.032039
0.059898 0.733419 0.024505
0.094598 0.733724 0.024810
0.128422 0.734021 0.025107
0.161661 0.734313 0.025399
0.194459 0.734601 0.025686
0.226907 0.734886 0.025971
0.259062 0.735168 0.026254
0.290968 0.735448 0.026534
0.322657 0.735727 0.026812
0.354152 0.736003 0.027089
0.385475 0.736278 0.027364
0.416641 0.736552 0.027637
0.447663 0.736824 0.027910
0.478554 0.737095 0.028181
0.509322 0.737366 0.028451
0.539977 0.737635 0.028720
0.570525 0.737903 0.028989
0.600973 0.738170 0.029256
0.631327 0.738437 0.029522
0.661592 0.738703 0.029788
0.691773 0.738968 0.030053
0.721874 0.739232 0.030317
0.751898 0.739495 0.030581
0.781849 0.739758 0.030844
0.811731 0.740021 0.031106
0.841546 0.740283 0.031368
0.871296 0.740544 0.031630
0.900985 0.740805 0.031890
0.930615 0.741065 0.032150
0.960188 0.741324 0.032410
0.989705 0.741584 0.032669
1.000000 0.741842 0.032928
0.060786 0.764116 0.025393
0.095486 0.764421 0.025698
0.129311 0.764718 0.025995
0.162549 0.765009 0.026287
0.195347 0.765297 0.026575
0.227795 0.765582 0.026860
0.259950 0.765865 0.027142
0.291857 0.766145 0.027422
0.323545 0.766423 0.027700
0.355041 0.766700 0.027977
0.386363 0.766975 0.028252
0.417529 0.767248 0.028526
0.448552 0.767521 0.028798
0.479442 0.767792 0.029069
0.510210 0.768062 0.029339
0.540865 0.768331 0.029609
0.571413 0.768599 0.029877
0.601861 0.768867 0.030144
0.632215 0.769133 0.030411
0.662480 0.769399 0.030676
0.692661 0.769664 0.030941
0.722762 0.769928 0.031206
0.752786 0.770192 0.031469
0.782738 0.770455 0.031732
0.812619 0.770717 0.031995
0.842434 0.770979 0.032257
0.872185 0.771240 0.032518
0.901874 0.771501 0.032778
0.931503 0.771761 0.033039
0.961076 0.772021 0.033298
0.990593 0.772280 0.033557
1.000000 0.772539 0.033816
0.061674 0.794800 0.026281
0.096374 0.795105 0.026586
0.130199 0.795402 0.026883
0.163437 0.795694 0.027175
0.196235 0.795982 0.027463
0.228683 0.796267 0.027748
0.260838 0.796549 0.028030
0.292744 0.796829 0.028310
0.324433 0.797107 0.028588
0.355929 0.797384 0.028865
0.387251 0.797659 0.029140
0.418417 0.797933 0.029414
0.449440 0.798205 0.029686
0.480330 0.798476 0.029957
0.511098 0.798746 0.030227
0.541753 0.799016 0.030497
0.572301 0.799284 0.030765
0.602749 0.799551 0.031032
0.633103 0.799818 0.031299
0.663368 0.800083 0.031564
0.693549 0.800348 0.031829
0.723650 0.800613 0.032094
0.753674 0.800876 0.032357
0.783625 0.801139 0.032620
0.813507 0.801402 0.032883
0.843322 0.801664 0.033144
0.873073 0.801925 0.033406
0.902762 0.802185 0.033666
0.932391 0.802446 0.033927
0.961964 0.802705 0.034186
0.991481 0.802964 0.034445
1.000000 0.803223 0.034704
0.062561 0.825473 0.027169
0.097262 0.825778 0.027473
0.131086 0.826075 0.027770
0.164324 0.826366 0.028062
0.197123 0.826654 0.028350
0.229570 0.826939 0.028635
0.261726 0.827222 0.028918
0.293632 0.827502 0.029198
0.325321 0.827780 0.029476
0.356816 0.828057 0.029753
0.388139 0.828332 0.030028
0.419305 0.828605 0.030301
0.450327 0.828878 0.030574
0.481218 0.829149 0.030845
0.511986 0.829419 0.031115
0.542640 0.829688 0.031384
0.573189 0.829956 0.031652
0.603637 0.830224 0.031920
0.633991 0.830490 0.032186
0.664256 0.830756 0.032452
0.694437 0.831021 0.032717
0.724537 0.831285 0.032981
0.754562 0.831549 0.033245
0.784513 0.831812 0.033508
0.814395 0.832074 0.033770
0.844210 0.832336 0.034032
0.873960 0.832597 0.034293
0.903649 0.832858 0.034554
0.933279 0.833118 0.034814
0.962851 0.833378 0.035074
0.992369 0.833637 0.035333
1.000000 0.833896 0.035592
0.063449 0.856134 0.028056
0.098149 0.856439 0.028361
0.131973 0.856736 0.028658
0.165212 0.857028 0.028950
0.198010 0.857316 0.029238
0.230458 0.857601 0.029522
0.262613 0.857883 0.029805
0.294519 0.858163 0.030085
0.326208 0.858441 0.030363
0.357704 0.858718 0.030640
0.389026 0.858993 0.030915
0.420192 0.859267 0.031188
0.451214 0.859539 0.031461
0.482105 0.859810 0.031732
0.512873 0.860080 0.032002
0.543528 0.860350 0.032271
0.574076 0.860618 0.032540
0.604524 0.860885 0.032807
0.634878 0.861152 0.033074
