assets/luts/latte.cube
# Beauty Camera 3D LUT
# Filter: Latte (latte)
# Category: Warm
TITLE "Latte"
LUT_3D_SIZE 5
DOMAIN_MIN 0.000000 0.000000 0.000000
DOMAIN_MAX 0.903226 0.903226 0.903226
0.039286 0.021156 0.003894
0.270357 0.023185 0.005923
0.488711 0.025102 0.007840
0.701262 0.026969 0.009706
0.910004 0.028801 0.011539
0.045618 0.239970 0.010226
0.276689 0.241999 0.012255
0.495043 0.243916 0.014172
0.707594 0.245782 0.016038
0.916336 0.247615 0.017871
0.051884 0.456499 0.016492
0.282955 0.458528 0.018520
0.501309 0.460446 0.020438
0.713860 0.462312 0.022304
0.922602 0.464145 0.024137
0.058120 0.671988 0.022727
0.289191 0.674017 0.024756
0.507544 0.675934 0.026673
0.720096 0.677800 0.028540
0.928837 0.679633 0.030373
0.064336 0.886785 0.028943
0.295406 0.888814 0.030972
0.513760 0.890731 0.032889
0.726312 0.892597 0.034756
0.935053 0.894430 0.036588
0.039814 0.021684 0.179793
0.270885 0.023713 0.181822
0.489238 0.025630 0.183739
0.701790 0.027496 0.185606
0.910531 0.029329 0.187439
0.046146 0.240497 0.186125
0.277217 0.242526 0.188154
0.495570 0.244444 0.190071
0.708122 0.246310 0.191938
0.916863 0.248143 0.193771
0.052412 0.457027 0.192391
0.283482 0.459056 0.194420
0.501836 0.460973 0.196337
0.714388 0.462839 0.198204
0.923129 0.464672 0.200036
0.058648 0.672515 0.198627
0.289718 0.674544 0.200656
0.508072 0.676461 0.202573
0.720624 0.678328 0.204439
0.929365 0.680161 0.206272
0.064863 0.887312 0.204842
0.295934 0.889341 0.206871
0.514288 0.891259 0.208789
0.726839 0.893125 0.210655
0.935581 0.894958 0.212488
0.040396 0.022265 0.373690
0.271466 0.024294 0.375719
0.489820 0.026211 0.377636
0.702372 0.028078 0.379502
0.911113 0.029911 0.381335
0.046727 0.241079 0.380022
0.277798 0.243108 0.382051
0.496152 0.245025 0.383968
0.708703 0.246892 0.385834
0.917445 0.248724 0.387667
0.052993 0.457608 0.386288
0.284064 0.459637 0.388317
0.502418 0.461555 0.390234
0.714969 0.463421 0.392100
0.923711 0.465254 0.393933
0.059229 0.673097 0.392523
0.290300 0.675126 0.394552
0.508654 0.677043 0.396470
0.721205 0.678909 0.398336
0.929947 0.680742 0.400169
0.065445 0.887894 0.398739
0.296515 0.889923 0.400768
0.514869 0.891840 0.402685
0.727421 0.893706 0.404552
0.936162 0.895539 0.406384
0.041003 0.022872 0.576160
0.272073 0.024901 0.578189
0.490427 0.026819 0.580106
0.702979 0.028685 0.581973
0.911720 0.030518 0.583806
0.047335 0.241686 0.582492
0.278405 0.243715 0.584521
0.496759 0.245632 0.586438
0.709311 0.247499 0.588305
0.918052 0.249332 0.590138
0.053601 0.458216 0.588758
0.284671 0.460245 0.590787
0.503025 0.462162 0.592704
0.715577 0.464028 0.594571
0.924318 0.465861 0.596403
0.059836 0.673704 0.594994
0.290907 0.675733 0.597023
0.509261 0.677650 0.598940
0.721812 0.679517 0.600806
0.930554 0.681349 0.602639
0.066052 0.888501 0.601209
0.297123 0.890530 0.603238
0.515477 0.892447 0.605156
0.728028 0.894314 0.607022
0.936770 0.896147 0.608855
0.041628 0.023497 0.784511
0.272698 0.025526 0.786540
0.491052 0.027444 0.788457
0.703604 0.029310 0.790323
0.912345 0.031143 0.792156
0.047960 0.242311 0.790843
0.279030 0.244340 0.792871
0.497384 0.246257 0.794789
0.709936 0.248124 0.796655
0.918677 0.249957 0.798488
0.054226 0.458841 0.797108
0.285296 0.460870 0.799137
0.503650 0.462787 0.801055
0.716202 0.464653 0.802921
0.924943 0.466486 0.804754
0.060461 0.674329 0.803344
0.291532 0.676358 0.805373
0.509886 0.678275 0.807290
0.722437 0.680141 0.809157
0.931179 0.681974 0.810989
0.066677 0.889126 0.809560
0.297748 0.891155 0.811589
0.516101 0.893072 0.813506
0.728653 0.894939 0.815372
0.937394 0.896772 0.817205
