assets/luts/milk.cube
# Beauty Camera 3D LUT
# Filter: Milk (milk)
# Category: Korean
TITLE "Milk"
LUT_3D_SIZE 8
DOMAIN_MIN 0.000000 0.000000 0.000000
DOMAIN_MAX 0.903226 0.903226 0.903226
0.079487 0.075440 0.094394
0.216258 0.077272 0.096225
0.338506 0.078908 0.097862
0.453848 0.080453 0.099406
0.564676 0.081936 0.100890
0.672179 0.083376 0.102329
0.792151 0.084780 0.103734
0.872565 0.086155 0.105109
0.085473 0.212534 0.100379
0.222243 0.214365 0.102211
0.344492 0.216002 0.103847
0.459833 0.217546 0.105392
0.570662 0.219030 0.106875
0.678165 0.220469 0.108315
0.797991 0.221874 0.109719
0.876146 0.223249 0.111094
0.090932 0.337572 0.105838
0.227702 0.339403 0.107670
0.349951 0.341040 0.109306
0.465292 0.342584 0.110851
0.576120 0.344068 0.112334
0.683624 0.345507 0.113774
0.803175 0.346912 0.115178
0.879324 0.348287 0.116553
0.096136 0.456779 0.111043
0.232906 0.458611 0.112874
0.355155 0.460247 0.114511
0.470496 0.461792 0.116055
0.581325 0.463275 0.117539
0.688828 0.464715 0.118978
0.807993 0.466119 0.120382
0.882278 0.467494 0.121758
0.101172 0.572143 0.116079
0.237943 0.573974 0.117910
0.360191 0.575611 0.119547
0.475533 0.577155 0.121091
0.586361 0.578639 0.122575
0.693864 0.580078 0.124015
0.812543 0.581482 0.125419
0.885068 0.582858 0.126794
0.106085 0.684655 0.120991
0.242855 0.686486 0.122822
0.365103 0.688123 0.124459
0.480445 0.689667 0.126003
0.591273 0.691151 0.127487
0.698776 0.692590 0.128927
0.816877 0.693995 0.130331
0.887725 0.695370 0.131706
0.110898 0.809086 0.125805
0.247669 0.810743 0.127636
0.369917 0.812213 0.129273
0.485258 0.813589 0.130817
0.596087 0.814901 0.132301
0.705085 0.816165 0.133740
0.821027 0.817391 0.135144
0.890269 0.818583 0.136520
0.115630 0.886062 0.130537
0.252401 0.887051 0.132368
0.374649 0.887928 0.134005
0.489991 0.888749 0.135549
0.600819 0.889533 0.137033
0.711657 0.890287 0.138473
0.825015 0.891018 0.139877
0.892714 0.891730 0.141252
0.080112 0.076065 0.230464
0.216882 0.077896 0.232295
0.339131 0.079533 0.233932
0.454472 0.081077 0.235476
0.565300 0.082561 0.236960
0.672804 0.084000 0.238399
0.792768 0.085404 0.239804
0.872943 0.086780 0.241179
0.086097 0.213158 0.236449
0.222867 0.214990 0.238280
0.345116 0.216626 0.239917
0.460457 0.218171 0.241461
0.571286 0.219654 0.242945
0.678789 0.221094 0.244385
0.798591 0.222498 0.245789
0.876514 0.223873 0.247164
0.091556 0.338196 0.241908
0.228326 0.340028 0.243739
0.350575 0.341664 0.245376
0.465916 0.343209 0.246920
0.576745 0.344692 0.248404
0.684248 0.346132 0.249843
0.803759 0.347536 0.251248
0.879682 0.348911 0.252623
0.096760 0.457404 0.247113
0.233531 0.459235 0.248944
0.355779 0.460871 0.250580
0.471120 0.462416 0.252125
0.581949 0.463900 0.253609
0.689452 0.465339 0.255048
0.808563 0.466743 0.256452
0.882627 0.468119 0.257828
0.101797 0.572767 0.252149
0.238567 0.574598 0.253980
0.360816 0.576235 0.255617
0.476157 0.577779 0.257161
0.586986 0.579263 0.258645
0.694489 0.580702 0.260084
0.813099 0.582106 0.261489
0.885409 0.583482 0.262864
0.106709 0.685279 0.257061
0.243479 0.687110 0.258892
0.365728 0.688747 0.260529
0.481069 0.690291 0.262073
0.591898 0.691775 0.263557
0.699401 0.693215 0.264996
0.817420 0.694619 0.266401
0.888058 0.695994 0.267776
0.111522 0.809653 0.261875
0.248293 0.811305 0.263706
0.370541 0.812770 0.265343
0.485882 0.814142 0.266887
0.596711 0.815450 0.268371
0.705960 0.816711 0.269810
0.821558 0.817933 0.271214
0.890595 0.819121 0.272590
0.116255 0.886400 0.266607
0.253025 0.887386 0.268438
0.375274 0.888261 0.270075
0.490615 0.889079 0.271619
0.601444 0.889860 0.273103
0.712512 0.890613 0.274542
0.825534 0.891342 0.275947
0.893033 0.892051 0.277322
0.080671 0.076624 0.352427
0.217442 0.078455 0.354259
0.339690 0.080092 0.355895
0.455031 0.081636 0.357439
0.565860 0.083120 0.358923
0.673363 0.084559 0.360363
0.793319 0.085964 0.361767
0.873281 0.087339 0.363142
0.086656 0.213718 0.358413
0.223427 0.215549 0.360244
0.345675 0.217186 0.361880
0.461017 0.218730 0.363425
0.571845 0.220214 0.364909
0.679348 0.221653 0.366348
0.799127 0.223057 0.367752
0.876842 0.224433 0.369128
0.092115 0.338756 0.363872
0.228886 0.340587 0.365703
0.351134 0.342224 0.367339
0.466475 0.343768 0.368884
0.577304 0.345252 0.370367
0.684807 0.346691 0.371807
0.804281 0.348095 0.373211
0.880002 0.349471 0.374586
0.097320 0.457963 0.369076
0.234090 0.459794 0.370907
0.356339 0.461431 0.372544
0.471680 0.462975 0.374088
0.582508 0.464459 0.375572
0.690012 0.465898 0.377011
0.809072 0.467303 0.378415
0.882940 0.468678 0.379791
0.102356 0.573326 0.374112
0.239127 0.575158 0.375944
0.361375 0.576794 0.377580
0.476716 0.578339 0.379125
0.587545 0.579822 0.380608
0.695048 0.581262 0.382048
0.813597 0.582666 0.383452
0.885714 0.584041 0.384827
0.107268 0.685839 0.379024
0.244039 0.687670 0.380856
0.366287 0.689307 0.382492
0.481628 0.690851 0.384037
0.592457 0.692335 0.385520
0.699960 0.693774 0.386960
0.817906 0.695178 0.388364
0.888356 0.696554 0.389739
0.112082 0.810159 0.383838
0.248852 0.811807 0.385669
0.371101 0.813268 0.387306
0.486442 0.814636 0.388850
0.597271 0.815941 0.390334
0.706743 0.817199 0.391773
0.822033 0.818417 0.393178
0.890886 0.819602 0.394553
0.116814 0.886702 0.388570
0.253585 0.887686 0.390402
0.375833 0.888558 0.392038
0.491174 0.889375 0.393582
0.602003 0.890153 0.395066
0.713277 0.890904 0.396506
0.825998 0.891631 0.397910
0.893317 0.892338 0.399285
0.081198 0.077151 0.467382
0.217969 0.078983 0.469213
0.340217 0.080619 0.470850
0.455559 0.082164 0.472394
0.566387 0.083647 0.473878
0.673890 0.085087 0.475317
0.793838 0.086491 0.476721
0.873599 0.087866 0.478097
0.087184 0.214245 0.473367
0.223954 0.216076 0.475198
0.346203 0.217713 0.476835
0.461544 0.219257 0.478379
0.572373 0.220741 0.479863
0.679876 0.222181 0.481302
0.799631 0.223585 0.482706
0.877151 0.224960 0.484082
0.092643 0.339283 0.478826
0.229413 0.341114 0.480657
0.351662 0.342751 0.482294
0.467003 0.344295 0.483838
0.577831 0.345779 0.485322
0.685335 0.347219 0.486761
0.804772 0.348623 0.488165
0.880303 0.349998 0.489541
0.097847 0.458490 0.484030
0.234618 0.460322 0.485861
0.356866 0.461958 0.487498
0.472207 0.463503 0.489042
0.583036 0.464986 0.490526
0.690539 0.466426 0.491965
0.809551 0.467830 0.493370
0.883233 0.469205 0.494745
0.102883 0.573854 0.489067
0.239654 0.575685 0.490898
0.361902 0.577322 0.492535
0.477244 0.578866 0.494079
0.588072 0.580350 0.495563
0.695575 0.581789 0.497002
0.814064 0.583193 0.498406
0.886000 0.584569 0.499782
0.107796 0.686366 0.493979
0.244566 0.688197 0.495810
0.366814 0.689834 0.497447
0.482156 0.691378 0.498991
0.592984 0.692862 0.500475
0.700696 0.694301 0.501914
0.818363 0.695706 0.503318
0.888636 0.697081 0.504694
0.112609 0.810635 0.498792
0.249380 0.812279 0.500624
0.371628 0.813737 0.502260
0.486969 0.815101 0.503804
0.597798 0.816403 0.505288
0.707478 0.817657 0.506728
0.822479 0.818872 0.508132
0.891160 0.820055 0.509507
0.117341 0.886987 0.503525
0.254112 0.887968 0.505356
0.376360 0.888838 0.506993
0.491702 0.889652 0.508537
0.602530 0.890429 0.510021
0.713996 0.891177 0.511460
0.826435 0.891903 0.512864
0.893585 0.892608 0.514240
0.081705 0.077658 0.577705
0.218475 0.079489 0.579536
0.340723 0.081125 0.581173
0.456065 0.082670 0.582717
0.566893 0.084154 0.584201
0.674396 0.085593 0.585640
0.794334 0.086997 0.587045
0.873903 0.088373 0.588420
0.087690 0.214751 0.583690
0.224460 0.216582 0.585522
0.346709 0.218219 0.587158
0.462050 0.219763 0.588702
0.572879 0.221247 0.590186
0.680382 0.222687 0.591626
0.800113 0.224091 0.593030
0.877447 0.225466 0.594405
0.093149 0.339789 0.589149
0.229919 0.341620 0.590980
0.352168 0.343257 0.592617
0.467509 0.344801 0.594161
0.578338 0.346285 0.595645
0.685841 0.347725 0.597085
0.805242 0.349129 0.598489
0.880591 0.350504 0.599864
0.098353 0.458997 0.594354
0.235124 0.460828 0.596185
0.357372 0.462464 0.597822
0.472713 0.464009 0.599366
0.583542 0.465492 0.600850
0.691045 0.466932 0.602289
0.810009 0.468336 0.603693
0.883514 0.469711 0.605069
0.103390 0.574360 0.599390
0.240160 0.576191 0.601221
0.362409 0.577828 0.602858
0.477750 0.579372 0.604402
0.588578 0.580856 0.605886
0.696082 0.582295 0.607325
0.814512 0.583699 0.608730
0.886275 0.585075 0.610105
0.108302 0.686872 0.604302
0.245072 0.688703 0.606133
0.367321 0.690340 0.607770
0.482662 0.691884 0.609314
0.593491 0.693368 0.610798
0.701416 0.694807 0.612237
0.818800 0.696212 0.613642
0.888904 0.697587 0.615017
0.113115 0.811091 0.609116
0.249886 0.812731 0.610947
0.372134 0.814185 0.612584
0.487475 0.815546 0.614128
0.598304 0.816845 0.615612
0.708182 0.818096 0.617051
0.822906 0.819308 0.618455
0.891422 0.820488 0.619831
0.117848 0.887259 0.613848
0.254618 0.888237 0.615679
0.376866 0.889105 0.617316
0.492208 0.889918 0.618860
0.603036 0.890693 0.620344
0.714685 0.891439 0.621783
0.826852 0.892163 0.623188
0.893841 0.892867 0.624563
0.082195 0.078148 0.684598
0.218965 0.079979 0.686430
0.341214 0.081616 0.688066
0.456555 0.083160 0.689611
0.567384 0.084644 0.691094
0.674887 0.086083 0.692534
0.794814 0.087487 0.693938
0.874198 0.088863 0.695313
0.088180 0.215242 0.690584
0.224951 0.217073 0.692415
0.347199 0.218710 0.694052
0.462540 0.220254 0.695596
0.573369 0.221738 0.697080
0.680872 0.223177 0.698519
0.800579 0.224581 0.699923
0.877732 0.225957 0.701849
0.093639 0.340280 0.696043
0.230410 0.342111 0.697874
0.352658 0.343748 0.699510
0.467999 0.345292 0.701503
0.578828 0.346776 0.703605
0.686331 0.348215 0.705629
0.805696 0.349619 0.707591
0.880870 0.350995 0.709500
0.098843 0.459487 0.701776
0.235614 0.461318 0.704365
0.357862 0.462955 0.706660
0.473204 0.464499 0.708810
0.584032 0.465983 0.710860
0.691535 0.467422 0.712835
0.810452 0.468826 0.714749
0.883786 0.470202 0.716611
0.103880 0.574850 0.708843
0.240650 0.576681 0.711371
0.362899 0.578318 0.713612
0.478240 0.579862 0.715710
0.589069 0.581346 0.717712
0.696572 0.582785 0.719640
0.814944 0.584190 0.721509
0.886540 0.585565 0.723327
0.108792 0.687363 0.715575
0.245563 0.689194 0.718044
0.367811 0.690830 0.720233
0.483152 0.692375 0.722283
0.593981 0.693858 0.724238
0.702112 0.695298 0.726122
0.819223 0.696702 0.727947
0.889163 0.698077 0.729723
0.113606 0.811532 0.722020
0.250376 0.813168 0.724434
0.372625 0.814618 0.726573
0.487966 0.815976 0.728576
0.598794 0.817272 0.730487
0.708863 0.818520 0.732328
0.823319 0.819730 0.734112
0.891675 0.820907 0.735848
0.118338 0.887522 0.728214
0.255108 0.888498 0.730574
0.377357 0.889364 0.732666
0.492698 0.890174 0.734624
0.603527 0.890948 0.736493
0.715350 0.891693 0.738293
0.827256 0.892414 0.740037
0.894089 0.893117 0.741734
0.082673 0.078626 0.803433
0.219443 0.080457 0.805139
0.341692 0.082094 0.806652
0.457033 0.083638 0.808069
0.567862 0.085122 0.809420
0.675365 0.086561 0.810722
0.795280 0.087965 0.811983
0.874484 0.089341 0.813211
0.088658 0.215720 0.808956
0.225429 0.217551 0.810615
0.347677 0.219188 0.812085
0.463018 0.220732 0.813462
0.573847 0.222216 0.814775
0.681350 0.223655 0.816040
0.801032 0.225059 0.817266
0.878010 0.226435 0.818459
0.094117 0.340758 0.813858
0.230888 0.342589 0.815474
0.353136 0.344226 0.816907
0.468477 0.345770 0.818248
0.579306 0.347254 0.819528
0.686809 0.348693 0.820761
0.806138 0.350097 0.821955
0.881141 0.351473 0.823118
0.099321 0.459965 0.818415
0.236092 0.461796 0.819991
0.358340 0.463433 0.821389
0.473682 0.464977 0.822697
0.584510 0.466461 0.823946
0.692013 0.467900 0.825148
0.810883 0.469304 0.826314
0.884050 0.470680 0.827447
0.104358 0.575328 0.822718
0.241128 0.577159 0.824257
0.363377 0.578796 0.825621
0.478718 0.580340 0.826899
0.589547 0.581824 0.828118
0.697050 0.583263 0.829292
0.815365 0.584668 0.830430
0.886798 0.586043 0.831537
0.109270 0.687840 0.826817
0.246040 0.689672 0.828320
0.368289 0.691308 0.829653
0.483630 0.692853 0.830901
0.594459 0.694336 0.832092
0.702790 0.695776 0.833239
0.819634 0.697180 0.834350
0.889415 0.698555 0.835431
0.114084 0.811960 0.830741
0.250854 0.813592 0.832211
0.373102 0.815040 0.833513
0.488444 0.816395 0.834733
0.599272 0.817688 0.835897
0.709525 0.818933 0.837018
0.823721 0.820140 0.838104
0.891921 0.821314 0.839161
0.118816 0.887777 0.834513
0.255586 0.888752 0.835949
0.377835 0.889615 0.837223
0.493176 0.890424 0.838416
0.604005 0.891196 0.839553
0.715997 0.891939 0.840649
0.827649 0.892659 0.841711
0.894329 0.893360 0.842745
0.083141 0.079094 0.879036
0.219911 0.080925 0.880086
0.342159 0.082561 0.881017
0.457501 0.084106 0.881889
0.568329 0.085590 0.882720
0.675832 0.087029 0.883521
0.795735 0.088433 0.884298
0.874763 0.089809 0.885053
0.089126 0.216187 0.882435
0.225896 0.218018 0.883455
0.348145 0.219655 0.884360
0.463486 0.221199 0.885207
0.574315 0.222683 0.886016
0.681818 0.224123 0.886794
0.801475 0.225527 0.887549
0.878282 0.226902 0.888283
0.094585 0.341225 0.885451
0.231355 0.343057 0.886446
0.353604 0.344693 0.887327
0.468945 0.346237 0.888153
0.579774 0.347721 0.888940
0.687277 0.349161 0.889699
0.806569 0.350565 0.890434
0.881405 0.351940 0.891149
0.099789 0.460433 0.888255
0.236560 0.462264 0.889225
0.358808 0.463900 0.890085
0.474149 0.465445 0.890891
0.584978 0.466928 0.891659
0.692481 0.468368 0.892399
0.811304 0.469772 0.893116
0.884308 0.471147 0.893814
0.104826 0.575796 0.890903
0.241596 0.577627 0.891851
0.363845 0.579264 0.892690
0.479186 0.580808 0.893476
0.590014 0.582292 0.894226
0.697518 0.583731 0.894949
0.815776 0.585135 0.895649
0.887050 0.586511 0.896330
0.109738 0.688308 0.893426
0.246508 0.690139 0.894351
0.368757 0.691776 0.895171
0.484098 0.693320 0.895939
0.594927 0.694804 0.896672
0.703451 0.696243 0.897378
0.820035 0.697648 0.898062
0.889661 0.699023 0.898727
0.114551 0.812378 0.895841
0.251322 0.814007 0.896745
0.373570 0.815451 0.897547
0.488911 0.816803 0.898297
0.599740 0.818093 0.899013
0.710171 0.819336 0.899703
0.824113 0.820540 0.900372
0.892162 0.821711 0.901022
0.119284 0.888027 0.898162
0.256054 0.888999 0.899046
0.378303 0.889861 0.899830
0.493644 0.890668 0.900564
0.604472 0.891438 0.901264
0.716629 0.892179 0.901938
0.828032 0.892898 0.902592
0.894564 0.893597 0.903228
