assets/luts/milk.cube
# Beauty Camera 3D LUT
# Filter: Milk (milk)
# Category: Korean
TITLE "Milk"
LUT_3D_SIZE 32
DOMAIN_MIN 0.0 0.0 0.0
DOMAIN_MAX 1.0 1.0 1.0
0.079487 0.075440 0.094394
0.116192 0.075932 0.094886
0.150793 0.076395 0.095349
0.184028 0.076840 0.095794
0.216258 0.077272 0.096225
0.247698 0.077693 0.096646
0.278491 0.078105 0.097059
0.308735 0.078510 0.097464
0.338506 0.078908 0.097862
0.367862 0.079301 0.098255
0.396847 0.079689 0.098643
0.425499 0.080073 0.099027
0.453848 0.080453 0.099406
0.481919 0.080828 0.099782
0.509736 0.081201 0.100155
0.537316 0.081570 0.100524
0.564676 0.081936 0.100890
0.591831 0.082300 0.101254
0.618792 0.082661 0.101615
0.645571 0.083019 0.101973
0.672179 0.083376 0.102329
0.698625 0.083730 0.102684
0.733563 0.084082 0.103036
0.764752 0.084432 0.103386
0.792151 0.084780 0.103734
0.816242 0.085126 0.104080
0.837441 0.085471 0.104425
0.856111 0.085814 0.104768
0.872565 0.086155 0.105109
0.887077 0.086495 0.105449
0.899884 0.086834 0.105788
0.911194 0.087171 0.106125
0.081074 0.111775 0.095981
0.117778 0.112266 0.096472
0.152380 0.112729 0.096935
0.185614 0.113174 0.097380
0.217844 0.113606 0.097812
0.249285 0.114027 0.098233
0.280077 0.114439 0.098645
0.310321 0.114844 0.099050
0.340093 0.115243 0.099448
0.369448 0.115636 0.099841
0.398433 0.116024 0.100229
0.427085 0.116407 0.100613
0.455434 0.116787 0.100993
0.483506 0.117163 0.101368
0.511322 0.117535 0.101741
0.538902 0.117904 0.102110
0.566263 0.118271 0.102476
0.593417 0.118634 0.102840
0.620378 0.118995 0.103201
0.647158 0.119354 0.103560
0.673766 0.119710 0.103916
0.700301 0.120064 0.104270
0.735568 0.120416 0.104622
0.766522 0.120766 0.104972
0.793715 0.121114 0.105320
0.817625 0.121461 0.105666
0.838665 0.121805 0.106011
0.857194 0.122148 0.106354
0.873524 0.122490 0.106695
0.887926 0.122830 0.107035
0.900637 0.123168 0.107374
0.911862 0.123505 0.107711
0.082585 0.146390 0.097492
0.119290 0.146882 0.097983
0.153891 0.147345 0.098446
0.187126 0.147790 0.098891
0.219356 0.148222 0.099323
0.250796 0.148643 0.099744
0.281588 0.149055 0.100156
0.311833 0.149460 0.100561
0.341604 0.149858 0.100960
0.370959 0.150251 0.101353
0.399944 0.150639 0.101741
0.428596 0.151023 0.102124
0.456945 0.151403 0.102504
0.485017 0.151778 0.102880
0.512834 0.152151 0.103252
0.540414 0.152520 0.103621
0.567774 0.152886 0.103988
0.594928 0.153250 0.104351
0.621889 0.153611 0.104712
0.648669 0.153969 0.105071
0.675277 0.154326 0.105427
0.702450 0.154680 0.105781
0.737464 0.155032 0.106133
0.768196 0.155382 0.106483
0.795194 0.155730 0.106831
0.818932 0.156076 0.107178
0.839822 0.156421 0.107522
0.858218 0.156764 0.107865
0.874431 0.157105 0.108207
0.888730 0.157445 0.108547
0.901350 0.157784 0.108885
0.912494 0.158121 0.109222
0.084047 0.179879 0.098954
0.120752 0.180371 0.099445
0.155353 0.180834 0.099908
0.188588 0.181279 0.100353
0.220818 0.181710 0.100785
0.252258 0.182131 0.101206
0.283050 0.182544 0.101618
0.313295 0.182948 0.102023
0.343066 0.183347 0.102422
0.372421 0.183740 0.102815
0.401406 0.184128 0.103203
0.430058 0.184512 0.103586
0.458407 0.184891 0.103966
0.486479 0.185267 0.104342
0.514296 0.185640 0.104714
0.541876 0.186009 0.105083
0.569236 0.186375 0.105450
0.596390 0.186739 0.105813
0.623352 0.187100 0.106174
0.650131 0.187458 0.106533
0.676739 0.187814 0.106889
0.704515 0.188168 0.107243
0.739286 0.188520 0.107595
0.769805 0.188871 0.107945
0.796615 0.189219 0.108293
0.820189 0.189565 0.108640
0.840933 0.189910 0.108984
0.859202 0.190253 0.109327
0.875302 0.190594 0.109669
0.889502 0.190934 0.110009
0.902034 0.191272 0.110347
0.913101 0.191610 0.110684
0.085473 0.212534 0.100379
0.122177 0.213026 0.100871
0.156779 0.213489 0.101334
0.190013 0.213934 0.101779
0.222243 0.214365 0.102211
0.253683 0.214786 0.102632
0.284476 0.215199 0.103044
0.314720 0.215603 0.103449
0.344492 0.216002 0.103847
0.373847 0.216395 0.104240
0.402832 0.216783 0.104628
0.431484 0.217167 0.105012
0.459833 0.217546 0.105392
0.487905 0.217922 0.105767
0.515721 0.218295 0.106140
0.543301 0.218664 0.106509
0.570662 0.219030 0.106875
0.597816 0.219394 0.107239
0.624777 0.219755 0.107600
0.651557 0.220113 0.107958
0.678165 0.220469 0.108315
0.706514 0.220824 0.108669
0.741050 0.221176 0.109021
0.771362 0.221526 0.109371
0.797991 0.221874 0.109719
0.821405 0.222220 0.110065
0.842009 0.222565 0.110410
0.860154 0.222908 0.110753
0.876146 0.223249 0.111094
0.890250 0.223589 0.111434
0.902697 0.223928 0.111773
0.913689 0.224265 0.112110
0.086870 0.244531 0.101776
0.123574 0.245022 0.102268
0.158176 0.245485 0.102731
0.191410 0.245930 0.103176
0.223640 0.246362 0.103608
0.255080 0.246783 0.104028
0.285873 0.247195 0.104441
0.316117 0.247600 0.104846
0.345888 0.247998 0.105244
0.375244 0.248391 0.105637
0.404229 0.248780 0.106025
0.432881 0.249163 0.106409
0.461230 0.249543 0.106788
0.489302 0.249919 0.107164
0.517118 0.250291 0.107537
0.544698 0.250660 0.107906
0.572058 0.251027 0.108272
0.599213 0.251390 0.108636
0.626174 0.251751 0.108997
0.652954 0.252110 0.109355
0.679561 0.252466 0.109712
0.708460 0.252820 0.110066
0.742767 0.253172 0.110418
0.772878 0.253522 0.110768
0.799331 0.253870 0.111116
0.822589 0.254216 0.111462
0.843057 0.254561 0.111807
0.861081 0.254904 0.112150
0.876967 0.255246 0.112491
0.890977 0.255585 0.112831
0.903342 0.255924 0.113170
0.914261 0.256261 0.113507
0.088243 0.275984 0.103150
0.124947 0.276476 0.103641
0.159549 0.276939 0.104104
0.192783 0.277384 0.104549
0.225013 0.277815 0.104981
0.256454 0.278236 0.105402
0.287246 0.278649 0.105814
0.317490 0.279054 0.106219
0.347262 0.279452 0.106617
0.376617 0.279845 0.107010
0.405602 0.280233 0.107399
0.434254 0.280617 0.107782
0.462603 0.280996 0.108162
0.490675 0.281372 0.108538
0.518491 0.281745 0.108910
0.546072 0.282114 0.109279
0.573432 0.282480 0.109646
0.600586 0.282844 0.110009
0.627547 0.283205 0.110370
0.654327 0.283563 0.110729
0.680935 0.283920 0.111085
0.710360 0.284274 0.111439
0.744443 0.284626 0.111791
0.774358 0.284976 0.112141
0.800638 0.285324 0.112489
0.823746 0.285670 0.112835
0.844079 0.286015 0.113180
0.861987 0.286358 0.113523
0.877769 0.286699 0.113865
0.891688 0.287039 0.114204
0.903972 0.287378 0.114543
0.914820 0.287715 0.114880
0.089596 0.306978 0.104503
0.126301 0.307469 0.104994
0.160902 0.307932 0.105457
0.194136 0.308377 0.105902
0.226366 0.308809 0.106334
0.257807 0.309230 0.106755
0.288599 0.309642 0.107167
0.318844 0.310047 0.107572
0.348615 0.310446 0.107971
0.377970 0.310839 0.108364
0.406955 0.311227 0.108752
0.435607 0.311610 0.109135
0.463956 0.311990 0.109515
0.492028 0.312366 0.109891
0.519845 0.312738 0.110263
0.547425 0.313107 0.110632
0.574785 0.313474 0.110999
0.601939 0.313837 0.111362
0.628900 0.314198 0.111723
0.655680 0.314557 0.112082
0.682288 0.314913 0.112438
0.712220 0.315267 0.112792
0.746085 0.315619 0.113144
0.775807 0.315969 0.113494
0.801919 0.316317 0.113842
0.824878 0.316664 0.114189
0.845081 0.317008 0.114533
0.862873 0.317351 0.114876
0.878554 0.317693 0.115218
0.892384 0.318033 0.115558
0.904589 0.318371 0.115896
0.915367 0.318708 0.116233
0.090932 0.337572 0.105838
0.127636 0.338064 0.106330
0.162238 0.338527 0.106793
0.195472 0.338972 0.107238
0.227702 0.339403 0.107670
0.259142 0.339824 0.108090
0.289935 0.340237 0.108503
0.320179 0.340642 0.108908
0.349951 0.341040 0.109306
0.379306 0.341433 0.109699
0.408291 0.341821 0.110087
0.436943 0.342205 0.110471
0.465292 0.342584 0.110851
0.493364 0.342960 0.111226
0.521180 0.343333 0.111599
0.548760 0.343702 0.111968
0.576120 0.344068 0.112334
0.603275 0.344432 0.112698
0.630236 0.344793 0.113059
0.657016 0.345151 0.113417
0.683624 0.345507 0.113774
0.714045 0.345862 0.114128
0.747695 0.346214 0.114480
0.777229 0.346564 0.114830
0.803175 0.346912 0.115178
0.825988 0.347258 0.115524
0.846063 0.347603 0.115869
0.863743 0.347946 0.116212
0.879324 0.348287 0.116553
0.893066 0.348627 0.116893
0.905194 0.348966 0.117232
0.915904 0.349303 0.117569
0.092252 0.367815 0.107159
0.128957 0.368307 0.107650
0.163558 0.368770 0.108113
0.196792 0.369215 0.108558
0.229022 0.369646 0.108990
0.260463 0.370067 0.109411
0.291255 0.370480 0.109823
0.321500 0.370885 0.110228
0.351271 0.371283 0.110627
0.380626 0.371676 0.111020
0.409611 0.372064 0.111408
0.438263 0.372448 0.111791
0.466612 0.372827 0.112171
0.494684 0.373203 0.112547
0.522501 0.373576 0.112919
0.550081 0.373945 0.113288
0.577441 0.374311 0.113655
0.604595 0.374675 0.114018
0.631556 0.375036 0.114379
0.658336 0.375394 0.114738
0.684944 0.375750 0.115094
0.715837 0.376105 0.115448
0.749276 0.376457 0.115800
0.778625 0.376807 0.116150
0.804408 0.377155 0.116498
0.827079 0.377501 0.116845
0.847028 0.377846 0.117189
0.864597 0.378189 0.117532
0.880080 0.378530 0.117874
0.893736 0.378870 0.118214
0.905788 0.379209 0.118552
0.916431 0.379546 0.118889
0.093559 0.397745 0.108465
0.130263 0.398236 0.108957
0.164865 0.398699 0.109420
0.198099 0.399144 0.109865
0.230329 0.399576 0.110297
0.261769 0.399997 0.110717
0.292562 0.400409 0.111130
0.322806 0.400814 0.111535
0.352578 0.401212 0.111933
0.381933 0.401605 0.112326
0.410918 0.401993 0.112714
0.439570 0.402377 0.113098
0.467919 0.402757 0.113478
0.495991 0.403132 0.113853
0.523807 0.403505 0.114226
0.551387 0.403874 0.114595
0.578747 0.404240 0.114961
0.605902 0.404604 0.115325
0.632863 0.404965 0.115686
0.659643 0.405324 0.116044
0.686251 0.405680 0.116401
0.717600 0.406034 0.116755
0.750831 0.406386 0.117107
0.779998 0.406736 0.117457
0.805622 0.407084 0.117805
0.828151 0.407430 0.118151
0.847977 0.407775 0.118496
0.865437 0.408118 0.118839
0.880824 0.408459 0.119180
0.894395 0.408799 0.119520
0.906372 0.409138 0.119859
0.916949 0.409475 0.120196
0.094853 0.427391 0.109760
0.131558 0.427882 0.110251
0.166159 0.428345 0.110714
0.199393 0.428790 0.111159
0.231623 0.429222 0.111591
0.263064 0.429643 0.112012
0.293856 0.430055 0.112424
0.324101 0.430460 0.112829
0.353872 0.430859 0.113228
0.383227 0.431252 0.113621
0.412212 0.431640 0.114009
0.440864 0.432023 0.114392
0.469213 0.432403 0.114772
0.497285 0.432779 0.115148
0.525102 0.433151 0.115520
0.552682 0.433520 0.115889
0.580042 0.433887 0.116256
0.607196 0.434250 0.116619
0.634157 0.434611 0.116980
0.660937 0.434970 0.117339
0.687545 0.435326 0.117695
0.719335 0.435680 0.118049
0.752362 0.436032 0.118401
0.781350 0.436382 0.118751
0.806816 0.436730 0.119099
0.829207 0.437077 0.119446
0.848911 0.437421 0.119790
0.866263 0.437764 0.120133
0.881556 0.438106 0.120475
0.895044 0.438446 0.120815
0.906948 0.438784 0.121153
0.917460 0.439121 0.121490
0.096136 0.456779 0.111043
0.132841 0.457271 0.111534
0.167442 0.457734 0.111997
0.200676 0.458179 0.112442
0.232906 0.458611 0.112874
0.264347 0.459031 0.113295
0.295139 0.459444 0.113707
0.325384 0.459849 0.114112
0.355155 0.460247 0.114511
0.384510 0.460640 0.114904
0.413495 0.461028 0.115292
0.442147 0.461412 0.115675
0.470496 0.461792 0.116055
0.498568 0.462167 0.116431
0.526385 0.462540 0.116803
0.553965 0.462909 0.117172
0.581325 0.463275 0.117539
0.608479 0.463639 0.117902
0.635440 0.464000 0.118263
0.662220 0.464358 0.118622
0.688828 0.464715 0.118978
0.721044 0.465069 0.119332
0.753870 0.465421 0.119684
0.782682 0.465771 0.120034
0.807993 0.466119 0.120382
0.830247 0.466465 0.120729
0.849831 0.466810 0.121073
0.867078 0.467153 0.121416
0.882278 0.467494 0.121758
0.895683 0.467834 0.122098
0.907514 0.468173 0.122436
0.917962 0.468510 0.122773
0.097409 0.485932 0.112315
0.134113 0.486423 0.112807
0.168715 0.486887 0.113270
0.201949 0.487332 0.113715
0.234179 0.487763 0.114147
0.265619 0.488184 0.114568
0.296412 0.488596 0.114980
0.326656 0.489001 0.115385
0.356428 0.489400 0.115783
0.385783 0.489793 0.116176
0.414768 0.490181 0.116564
0.443420 0.490564 0.116948
0.471769 0.490944 0.117328
0.499841 0.491320 0.117703
0.527657 0.491692 0.118076
0.555237 0.492062 0.118445
0.582598 0.492428 0.118811
0.609752 0.492791 0.119175
0.636713 0.493152 0.119536
0.663493 0.493511 0.119894
0.690101 0.493867 0.120251
0.722730 0.494221 0.120605
0.755358 0.494573 0.120957
0.783995 0.494923 0.121307
0.809153 0.495271 0.121655
0.831273 0.495618 0.122001
0.850739 0.495962 0.122346
0.867881 0.496305 0.122689
0.882989 0.496647 0.123030
0.896314 0.496987 0.123370
0.908073 0.497325 0.123709
0.918458 0.497662 0.124046
0.098672 0.514866 0.113579
0.135377 0.515358 0.114070
0.169978 0.515821 0.114533
0.203212 0.516266 0.114978
0.235442 0.516698 0.115410
0.266883 0.517118 0.115831
0.297675 0.517531 0.116243
0.327920 0.517936 0.116648
0.357691 0.518334 0.117047
0.387046 0.518727 0.117440
0.416031 0.519115 0.117828
0.444683 0.519499 0.118211
0.473032 0.519879 0.118591
0.501104 0.520254 0.118967
0.528921 0.520627 0.119339
0.556501 0.520996 0.119708
0.583861 0.521362 0.120075
0.611015 0.521726 0.120438
0.637976 0.522087 0.120799
0.664756 0.522445 0.121158
0.691364 0.522802 0.121514
0.724393 0.523156 0.121868
0.756825 0.523508 0.122220
0.785290 0.523858 0.122570
0.810297 0.524206 0.122918
0.832285 0.524552 0.123265
0.851634 0.524897 0.123609
0.868673 0.525240 0.123952
0.883691 0.525581 0.124294
0.896936 0.525921 0.124634
0.908624 0.526260 0.124972
0.918947 0.526597 0.125309
0.099926 0.543599 0.114833
0.136631 0.544090 0.115325
0.171232 0.544553 0.115788
0.204467 0.544998 0.116233
0.236697 0.545430 0.116664
0.268137 0.545851 0.117085
0.298929 0.546263 0.117497
0.329174 0.546668 0.117902
0.358945 0.547067 0.118301
0.388301 0.547460 0.118694
0.417286 0.547848 0.119082
0.445938 0.548231 0.119466
0.474286 0.548611 0.119845
0.502358 0.548987 0.120221
0.530175 0.549359 0.120593
0.557755 0.549728 0.120963
0.585115 0.550095 0.121329
0.612269 0.550458 0.121693
0.639231 0.550819 0.122054
0.666010 0.551178 0.122412
0.692618 0.551534 0.122768
0.726034 0.551888 0.123122
0.758273 0.552240 0.123474
0.786569 0.552590 0.123824
0.811427 0.552938 0.124173
0.833284 0.553285 0.124519
0.852517 0.553629 0.124864
0.869456 0.553972 0.125207
0.884384 0.554314 0.125548
0.897549 0.554654 0.125888
0.909169 0.554992 0.126226
0.919430 0.555329 0.126563
0.101172 0.572143 0.116079
0.137877 0.572634 0.116571
0.172478 0.573097 0.117034
0.205713 0.573542 0.117479
0.237943 0.573974 0.117910
0.269383 0.574395 0.118331
0.300176 0.574807 0.118744
0.330420 0.575212 0.119149
0.360191 0.575611 0.119547
0.389547 0.576004 0.119940
0.418532 0.576392 0.120328
0.447184 0.576775 0.120712
0.475533 0.577155 0.121091
0.503604 0.577531 0.121467
0.531421 0.577903 0.121840
0.559001 0.578272 0.122209
0.586361 0.578639 0.122575
0.613516 0.579002 0.122939
0.640477 0.579363 0.123300
0.667257 0.579722 0.123658
0.693864 0.580078 0.124015
0.727655 0.580432 0.124369
0.759703 0.580784 0.124721
0.787832 0.581134 0.125071
0.812543 0.581482 0.125419
0.834270 0.581829 0.125765
0.853390 0.582173 0.126110
0.870228 0.582516 0.126453
0.885068 0.582858 0.126794
0.898156 0.583198 0.127134
0.909706 0.583536 0.127473
0.919907 0.583873 0.127810
0.102411 0.600510 0.117318
0.139116 0.601002 0.117809
0.173717 0.601465 0.118272
0.206951 0.601910 0.118717
0.239181 0.602341 0.119149
0.270622 0.602762 0.119570
0.301414 0.603175 0.119982
0.331659 0.603579 0.120387
0.361430 0.603978 0.120786
0.390785 0.604371 0.121179
0.419770 0.604759 0.121567
0.448422 0.605143 0.121950
0.476771 0.605522 0.122330
0.504843 0.605898 0.122706
0.532660 0.606271 0.123078
0.560240 0.606640 0.123447
0.587600 0.607006 0.123814
0.614754 0.607370 0.124177
0.641715 0.607731 0.124538
0.668495 0.608089 0.124897
0.695103 0.608445 0.125253
0.729256 0.608799 0.125607
0.761116 0.609151 0.125959
0.789079 0.609502 0.126309
0.813645 0.609850 0.126657
0.835245 0.610196 0.127004
0.854252 0.610541 0.127348
0.870991 0.610884 0.127691
0.885744 0.611225 0.128033
0.898754 0.611565 0.128373
0.910237 0.611903 0.128711
0.920378 0.612241 0.129048
0.103642 0.628712 0.118549
0.140347 0.629203 0.119040
0.174948 0.629667 0.119504
0.208183 0.630112 0.119949
0.240413 0.630543 0.120380
0.271853 0.630964 0.120801
0.302645 0.631376 0.121213
0.332890 0.631781 0.121618
0.362661 0.632180 0.122017
0.392017 0.632573 0.122410
0.421002 0.632961 0.122798
0.449653 0.633344 0.123182
0.478002 0.633724 0.123561
0.506074 0.634100 0.123937
0.533891 0.634472 0.124309
0.561471 0.634842 0.124679
0.588831 0.635208 0.125045
0.615985 0.635571 0.125408
0.642947 0.635932 0.125769
0.669726 0.636291 0.126128
0.696334 0.636647 0.126484
0.730839 0.637001 0.126838
0.762513 0.637353 0.127190
0.790312 0.637703 0.127540
0.814735 0.638051 0.127888
0.836208 0.638398 0.128235
0.855104 0.638742 0.128579
0.871745 0.639085 0.128923
0.886411 0.639427 0.129264
0.899346 0.639767 0.129604
0.910762 0.640105 0.129942
0.920843 0.640442 0.130279
0.104867 0.656757 0.119773
0.141571 0.657249 0.120265
0.176173 0.657712 0.120728
0.209407 0.658157 0.121173
0.241637 0.658588 0.121605
0.273077 0.659009 0.122025
0.303870 0.659422 0.122438
0.334114 0.659827 0.122843
0.363886 0.660225 0.123241
0.393241 0.660618 0.123634
0.422226 0.661006 0.124022
0.450878 0.661390 0.124406
0.479227 0.661769 0.124786
0.507299 0.662145 0.125161
0.535115 0.662518 0.125534
0.562695 0.662887 0.125903
0.590055 0.663253 0.126269
0.617210 0.663617 0.126633
0.644171 0.663978 0.126994
0.670951 0.664336 0.127352
0.697558 0.664693 0.127709
0.732404 0.665047 0.128063
0.763893 0.665399 0.128415
0.791532 0.665749 0.128765
0.815812 0.666097 0.129113
0.837160 0.666443 0.129459
0.855946 0.666788 0.129804
0.872491 0.667131 0.130147
0.887072 0.667472 0.130488
0.899931 0.667812 0.130828
0.911281 0.668151 0.131167
0.921303 0.668488 0.131504
0.106085 0.684655 0.120991
0.142789 0.685146 0.121483
0.177391 0.685610 0.121946
0.210625 0.686055 0.122391
0.242855 0.686486 0.122822
0.274295 0.686907 0.123243
0.305088 0.687319 0.123656
0.335332 0.687724 0.124061
0.365103 0.688123 0.124459
0.394459 0.688516 0.124852
0.423444 0.688904 0.125240
0.452096 0.689288 0.125624
0.480445 0.689667 0.126003
0.508517 0.690043 0.126379
0.536333 0.690415 0.126752
0.563913 0.690785 0.127121
0.591273 0.691151 0.127487
0.618428 0.691515 0.127851
0.645389 0.691876 0.128212
0.672169 0.692234 0.128570
0.698776 0.692590 0.128927
0.733951 0.692944 0.129281
0.765259 0.693296 0.129633
0.792737 0.693646 0.129983
0.816877 0.693995 0.130331
0.838102 0.694341 0.130677
0.856779 0.694686 0.131022
0.873228 0.695029 0.131365
0.887725 0.695370 0.131706
0.900510 0.695710 0.132046
0.911794 0.696048 0.132385
0.921758 0.696385 0.132722
0.107296 0.717218 0.122203
0.144001 0.717879 0.122695
0.178602 0.718501 0.123158
0.211837 0.719097 0.123603
0.244067 0.719674 0.124034
0.275507 0.720235 0.124455
0.306299 0.720784 0.124868
0.336544 0.721321 0.125272
0.366315 0.721850 0.125671
0.395671 0.722370 0.126064
0.424656 0.722883 0.126452
0.453308 0.723388 0.126836
0.481657 0.723888 0.127215
0.509728 0.724382 0.127591
0.537545 0.724870 0.127964
0.565125 0.725353 0.128333
0.592485 0.725832 0.128699
0.619640 0.726306 0.129063
0.646601 0.726776 0.129424
0.673380 0.727242 0.129782
0.699988 0.727705 0.130138
0.735482 0.728163 0.130493
0.766609 0.728619 0.130845
0.793930 0.729071 0.131195
0.817930 0.729519 0.131543
0.839033 0.729965 0.131889
0.857604 0.730408 0.132234
0.873958 0.730848 0.132577
0.888371 0.731285 0.132918
0.901083 0.731720 0.133258
0.912301 0.732152 0.133597
0.922208 0.732581 0.133934
0.108502 0.752074 0.123409
0.145207 0.752654 0.123901
0.179808 0.753199 0.124364
0.213043 0.753721 0.124809
0.245273 0.754227 0.125240
0.276713 0.754719 0.125661
0.307506 0.755200 0.126074
0.337750 0.755671 0.126478
0.367521 0.756135 0.126877
0.396877 0.756591 0.127270
0.425862 0.757040 0.127658
0.454514 0.757484 0.128042
0.482863 0.757921 0.128421
0.510934 0.758354 0.128797
0.538751 0.758782 0.129170
0.566331 0.759206 0.129539
0.593691 0.759626 0.129905
0.620846 0.760042 0.130269
0.647807 0.760454 0.130630
0.674586 0.760862 0.130988
0.701701 0.761268 0.131344
0.736997 0.761670 0.131699
0.767946 0.762069 0.132051
0.795110 0.762465 0.132401
0.818973 0.762859 0.132749
0.839955 0.763250 0.133095
0.858419 0.763638 0.133440
0.874679 0.764024 0.133783
0.889010 0.764407 0.134124
0.901649 0.764788 0.134464
0.912803 0.765167 0.134803
0.922654 0.765543 0.135140
0.109703 0.782502 0.124610
0.146408 0.783011 0.125101
0.181009 0.783489 0.125564
0.214243 0.783947 0.126009
0.246473 0.784391 0.126441
0.277914 0.784822 0.126862
0.308706 0.785244 0.127274
0.338951 0.785658 0.127679
0.368722 0.786064 0.128078
0.398077 0.786465 0.128471
0.427062 0.786859 0.128859
0.455714 0.787248 0.129242
0.484063 0.787632 0.129622
0.512135 0.788012 0.129998
0.539952 0.788387 0.130370
0.567532 0.788759 0.130739
0.594892 0.789127 0.131106
0.622046 0.789492 0.131469
0.649007 0.789853 0.131830
0.675787 0.790212 0.132189
0.703402 0.790568 0.132545
0.738496 0.790920 0.132899
0.769269 0.791270 0.133251
0.796278 0.791618 0.133601
0.820005 0.791963 0.133949
0.840868 0.792306 0.134296
0.859226 0.792647 0.134640
0.875394 0.792985 0.134983
0.889643 0.793321 0.135325
0.902210 0.793656 0.135665
0.913300 0.793988 0.136003
0.923095 0.794318 0.136340
0.110898 0.809086 0.125805
0.147603 0.809532 0.126296
0.182204 0.809952 0.126760
0.215439 0.810354 0.127205
0.247669 0.810743 0.127636
0.279109 0.811122 0.128057
0.309901 0.811493 0.128469
0.340146 0.811856 0.128874
0.369917 0.812213 0.129273
0.399272 0.812564 0.129666
0.428258 0.812910 0.130054
0.456909 0.813251 0.130437
0.485258 0.813589 0.130817
0.513330 0.813922 0.131193
0.541147 0.814252 0.131565
0.568727 0.814578 0.131935
0.596087 0.814901 0.132301
0.623241 0.815221 0.132664
0.650203 0.815539 0.133025
0.676982 0.815853 0.133384
0.705085 0.816165 0.133740
0.739980 0.816475 0.134094
0.770578 0.816782 0.134446
0.797434 0.817088 0.134796
0.821027 0.817391 0.135144
0.841771 0.817691 0.135491
0.860025 0.817990 0.135835
0.876101 0.818287 0.136178
0.890269 0.818583 0.136520
0.902765 0.818876 0.136860
0.913792 0.819168 0.137198
0.923531 0.819458 0.137535
0.112088 0.832328 0.126995
0.148793 0.832720 0.127486
0.183394 0.833088 0.127950
0.216629 0.833442 0.128395
0.248859 0.833784 0.128826
0.280299 0.834116 0.129247
0.311091 0.834442 0.129659
0.341336 0.834761 0.130064
0.371107 0.835074 0.130463
0.400463 0.835382 0.130856
0.429448 0.835686 0.131244
0.458099 0.835986 0.131628
0.486448 0.836282 0.132007
0.514520 0.836575 0.132383
0.542337 0.836865 0.132755
0.569917 0.837151 0.133125
0.597277 0.837435 0.133491
0.624431 0.837716 0.133855
0.651393 0.837995 0.134216
0.678172 0.838271 0.134574
0.706752 0.838546 0.134930
0.741450 0.838818 0.135284
0.771875 0.839087 0.135636
0.798579 0.839355 0.135986
0.822038 0.839622 0.136335
0.842665 0.839886 0.136681
0.860816 0.840148 0.137026
0.876801 0.840409 0.137369
0.890889 0.840669 0.137710
0.903314 0.840926 0.138050
0.914280 0.841182 0.138388
0.923963 0.841437 0.138725
0.113274 0.852663 0.128180
0.149978 0.853007 0.128672
0.184580 0.853331 0.129135
0.217814 0.853641 0.129580
0.250044 0.853942 0.130012
0.281484 0.854234 0.130432
0.312277 0.854520 0.130845
0.342521 0.854800 0.131250
0.372293 0.855076 0.131648
0.401648 0.855347 0.132041
0.430633 0.855614 0.132429
0.459285 0.855877 0.132813
0.487634 0.856138 0.133193
0.515706 0.856395 0.133568
0.543522 0.856649 0.133941
0.571102 0.856901 0.134310
0.598462 0.857151 0.134676
0.625617 0.857398 0.135040
0.652578 0.857643 0.135401
0.679358 0.857885 0.135759
0.708402 0.858126 0.136116
0.742905 0.858365 0.136470
0.773159 0.858602 0.136822
0.799712 0.858838 0.137172
0.823040 0.859072 0.137520
0.843550 0.859304 0.137866
0.861599 0.859535 0.138211
0.877495 0.859764 0.138554
0.891503 0.859992 0.138895
0.903858 0.860218 0.139235
0.914762 0.860443 0.139574
0.924391 0.860667 0.139911
0.114454 0.870466 0.129361
0.151159 0.870768 0.129852
0.185760 0.871053 0.130316
0.218995 0.871326 0.130761
0.251225 0.871590 0.131192
0.282665 0.871847 0.131613
0.313457 0.872099 0.132025
0.343702 0.872345 0.132430
0.373473 0.872587 0.132829
0.402829 0.872825 0.133222
0.431814 0.873060 0.133610
0.460465 0.873292 0.133994
0.488814 0.873521 0.134373
0.516886 0.873747 0.134749
0.544703 0.873971 0.135121
0.572283 0.874192 0.135491
0.599643 0.874411 0.135857
0.626797 0.874628 0.136221
0.653759 0.874844 0.136582
