assets/luts/milk.cube
# Beauty Camera 3D LUT
# Filter: Milk (milk)
# Category: Korean
TITLE "Milk"
LUT_3D_SIZE 5
DOMAIN_MIN 0.000000 0.000000 0.000000
DOMAIN_MAX 0.903226 0.903226 0.903226
0.079487 0.075440 0.094394
0.308735 0.078510 0.097464
0.509736 0.081201 0.100155
0.698625 0.083730 0.102684
0.872565 0.086155 0.105109
0.089596 0.306978 0.104503
0.318844 0.310047 0.107572
0.519845 0.312738 0.110263
0.712220 0.315267 0.112792
0.878554 0.317693 0.115218
0.098672 0.514866 0.113579
0.327920 0.517936 0.116648
0.528921 0.520627 0.119339
0.724393 0.523156 0.121868
0.883691 0.525581 0.124294
0.107296 0.717218 0.122203
0.336544 0.721321 0.125272
0.537545 0.724870 0.127964
0.735482 0.728163 0.130493
0.888371 0.731285 0.132918
0.115630 0.886062 0.130537
0.344878 0.887715 0.133607
0.545879 0.889145 0.136298
0.745774 0.890472 0.138827
0.892714 0.891730 0.141252
0.080535 0.076488 0.322734
0.309783 0.079557 0.325804
0.510784 0.082248 0.328495
0.699672 0.084777 0.331024
0.873199 0.087203 0.333449
0.090643 0.308025 0.332843
0.319891 0.311095 0.335912
0.520892 0.313786 0.338603
0.713652 0.316315 0.341132
0.879158 0.318740 0.343558
0.099719 0.515914 0.341919
0.328967 0.518983 0.344988
0.529968 0.521674 0.347679
0.725764 0.524203 0.350208
0.884270 0.526629 0.352634
0.108344 0.718625 0.350543
0.337592 0.722708 0.353612
0.538592 0.726239 0.356304
0.736798 0.729516 0.358833
0.888926 0.732622 0.361258
0.116678 0.886629 0.358877
0.345926 0.888274 0.361947
0.546927 0.889696 0.364638
0.747039 0.891017 0.367167
0.893248 0.892268 0.369592
0.081454 0.077407 0.523032
0.310701 0.080476 0.526101
0.511702 0.083167 0.528792
0.700843 0.085696 0.531321
0.873753 0.088122 0.533747
0.091562 0.308944 0.533140
0.320810 0.312013 0.536209
0.521811 0.314704 0.538900
0.714902 0.317233 0.541429
0.879686 0.319659 0.543855
0.100638 0.516833 0.542216
0.329886 0.519902 0.545285
0.530887 0.522593 0.547976
0.726961 0.525122 0.550505
0.884775 0.527548 0.552931
0.109263 0.719854 0.550841
0.338510 0.723919 0.553910
0.539511 0.727434 0.556601
0.737948 0.730697 0.559130
0.889411 0.733789 0.561555
0.117597 0.887124 0.559175
0.346844 0.888762 0.562244
0.547845 0.890178 0.564935
0.748144 0.891493 0.567464
0.893714 0.892739 0.569890
0.082315 0.078268 0.715143
0.311563 0.081338 0.719276
0.512564 0.084029 0.722850
0.702068 0.086558 0.726168
0.874270 0.088983 0.729313
0.092424 0.309806 0.728530
0.321672 0.312875 0.732469
0.522673 0.315566 0.735875
0.716070 0.318095 0.739037
0.880179 0.320521 0.742034
0.101500 0.517694 0.740012
0.330748 0.520764 0.743785
0.531749 0.523455 0.747047
0.728079 0.525984 0.750075
0.885247 0.528409 0.752945
0.110124 0.721001 0.750474
0.339372 0.725049 0.754094
0.540373 0.728550 0.757225
0.739021 0.731800 0.760131
0.889864 0.734880 0.762886
0.118458 0.887586 0.760182
0.347706 0.889217 0.763662
0.548707 0.890628 0.766671
0.749175 0.891937 0.769464
0.894149 0.893178 0.772112
0.083141 0.079094 0.879036
0.312388 0.082163 0.880791
0.513389 0.084854 0.882309
0.703236 0.087383 0.883717
0.874763 0.089809 0.885053
0.093249 0.310631 0.884720
0.322497 0.313700 0.886393
0.523498 0.316391 0.887840
0.717183 0.318920 0.889182
0.880648 0.321346 0.890455
0.102325 0.518520 0.889597
0.331573 0.521589 0.891198
0.532574 0.524280 0.892584
0.729146 0.526809 0.893870
0.885697 0.529235 0.895088
0.110949 0.722095 0.894039
0.340197 0.726127 0.895576
0.541198 0.729615 0.896906
0.740044 0.732851 0.898140
0.890296 0.735919 0.899310
0.119284 0.888027 0.898162
0.348531 0.889652 0.899639
0.549532 0.891057 0.900917
0.750159 0.892361 0.902103
0.894564 0.893597 0.903228
