assets/luts/noir.cube
# Beauty Camera 3D LUT
# Filter: Noir (noir)
# Category: B&W
TITLE "Noir"
LUT_3D_SIZE 8
DOMAIN_MIN 0.000000 0.000000 0.000000
DOMAIN_MAX 0.903226 0.903226 0.903226
0.000000 0.000000 0.000000
0.000000 0.000000 0.000000
0.000000 0.000000 0.000000
0.000000 0.000000 0.000000
0.020097 0.020097 0.020097
0.068871 0.068871 0.068871
0.117645 0.117645 0.117645
0.166419 0.166419 0.166419
0.000000 0.000000 0.000000
0.000000 0.000000 0.000000
0.030548 0.030548 0.030548
0.079323 0.079323 0.079323
0.128097 0.128097 0.128097
0.176871 0.176871 0.176871
0.225645 0.225645 0.225645
0.274419 0.274419 0.274419
0.041000 0.041000 0.041000
0.089774 0.089774 0.089774
0.138548 0.138548 0.138548
0.187323 0.187323 0.187323
0.236097 0.236097 0.236097
0.284871 0.284871 0.284871
0.333645 0.333645 0.333645
0.382419 0.382419 0.382419
0.149000 0.149000 0.149000
0.197774 0.197774 0.197774
0.246548 0.246548 0.246548
0.295323 0.295323 0.295323
0.344097 0.344097 0.344097
0.392871 0.392871 0.392871
0.441645 0.441645 0.441645
0.490419 0.490419 0.490419
0.257000 0.257000 0.257000
0.305774 0.305774 0.305774
0.354548 0.354548 0.354548
0.403323 0.403323 0.403323
0.452097 0.452097 0.452097
0.500871 0.500871 0.500871
0.549645 0.549645 0.549645
0.598419 0.598419 0.598419
0.365000 0.365000 0.365000
0.413774 0.413774 0.413774
0.462548 0.462548 0.462548
0.511323 0.511323 0.511323
0.560097 0.560097 0.560097
0.608871 0.608871 0.608871
0.657645 0.657645 0.657645
0.706419 0.706419 0.706419
0.473000 0.473000 0.473000
0.521774 0.521774 0.521774
0.570548 0.570548 0.570548
0.619323 0.619323 0.619323
0.668097 0.668097 0.668097
0.716871 0.716871 0.716871
0.765645 0.765645 0.765645
0.814419 0.814419 0.814419
0.581000 0.581000 0.581000
0.629774 0.629774 0.629774
0.678548 0.678548 0.678548
0.727323 0.727323 0.727323
0.776097 0.776097 0.776097
0.824871 0.824871 0.824871
0.873645 0.873645 0.873645
0.922419 0.922419 0.922419
0.000000 0.000000 0.000000
0.000000 0.000000 0.000000
0.000000 0.000000 0.000000
0.000000 0.000000 0.000000
0.037516 0.037516 0.037516
0.086290 0.086290 0.086290
0.135065 0.135065 0.135065
0.183839 0.183839 0.183839
0.000000 0.000000 0.000000
0.000000 0.000000 0.000000
0.047968 0.047968 0.047968
0.096742 0.096742 0.096742
0.145516 0.145516 0.145516
0.194290 0.194290 0.194290
0.243065 0.243065 0.243065
0.291839 0.291839 0.291839
0.058419 0.058419 0.058419
0.107194 0.107194 0.107194
0.155968 0.155968 0.155968
0.204742 0.204742 0.204742
0.253516 0.253516 0.253516
0.302290 0.302290 0.302290
0.351065 0.351065 0.351065
0.399839 0.399839 0.399839
0.166419 0.166419 0.166419
0.215194 0.215194 0.215194
0.263968 0.263968 0.263968
0.312742 0.312742 0.312742
0.361516 0.361516 0.361516
0.410290 0.410290 0.410290
0.459065 0.459065 0.459065
0.507839 0.507839 0.507839
0.274419 0.274419 0.274419
0.323194 0.323194 0.323194
0.371968 0.371968 0.371968
0.420742 0.420742 0.420742
0.469516 0.469516 0.469516
0.518290 0.518290 0.518290
0.567065 0.567065 0.567065
0.615839 0.615839 0.615839
0.382419 0.382419 0.382419
0.431194 0.431194 0.431194
0.479968 0.479968 0.479968
0.528742 0.528742 0.528742
0.577516 0.577516 0.577516
0.626290 0.626290 0.626290
0.675065 0.675065 0.675065
0.723839 0.723839 0.723839
0.490419 0.490419 0.490419
0.539194 0.539194 0.539194
0.587968 0.587968 0.587968
0.636742 0.636742 0.636742
0.685516 0.685516 0.685516
0.734290 0.734290 0.734290
0.783065 0.783065 0.783065
0.831839 0.831839 0.831839
0.598419 0.598419 0.598419
0.647194 0.647194 0.647194
0.695968 0.695968 0.695968
0.744742 0.744742 0.744742
0.793516 0.793516 0.793516
0.842290 0.842290 0.842290
0.891065 0.891065 0.891065
0.939839 0.939839 0.939839
0.000000 0.000000 0.000000
0.000000 0.000000 0.000000
0.000000 0.000000 0.000000
0.006161 0.006161 0.006161
0.054935 0.054935 0.054935
0.103710 0.103710 0.103710
0.152484 0.152484 0.152484
0.201258 0.201258 0.201258
0.000000 0.000000 0.000000
0.016613 0.016613 0.016613
0.065387 0.065387 0.065387
0.114161 0.114161 0.114161
0.162935 0.162935 0.162935
0.211710 0.211710 0.211710
0.260484 0.260484 0.260484
0.309258 0.309258 0.309258
0.075839 0.075839 0.075839
0.124613 0.124613 0.124613
0.173387 0.173387 0.173387
0.222161 0.222161 0.222161
0.270935 0.270935 0.270935
0.319710 0.319710 0.319710
0.368484 0.368484 0.368484
0.417258 0.417258 0.417258
0.183839 0.183839 0.183839
0.232613 0.232613 0.232613
0.281387 0.281387 0.281387
0.330161 0.330161 0.330161
0.378935 0.378935 0.378935
0.427710 0.427710 0.427710
0.476484 0.476484 0.476484
0.525258 0.525258 0.525258
0.291839 0.291839 0.291839
0.340613 0.340613 0.340613
0.389387 0.389387 0.389387
0.438161 0.438161 0.438161
0.486935 0.486935 0.486935
0.535710 0.535710 0.535710
0.584484 0.584484 0.584484
0.633258 0.633258 0.633258
0.399839 0.399839 0.399839
0.448613 0.448613 0.448613
0.497387 0.497387 0.497387
0.546161 0.546161 0.546161
0.594935 0.594935 0.594935
0.643710 0.643710 0.643710
0.692484 0.692484 0.692484
0.741258 0.741258 0.741258
0.507839 0.507839 0.507839
0.556613 0.556613 0.556613
0.605387 0.605387 0.605387
0.654161 0.654161 0.654161
0.702935 0.702935 0.702935
0.751710 0.751710 0.751710
0.800484 0.800484 0.800484
0.849258 0.849258 0.849258
0.615839 0.615839 0.615839
0.664613 0.664613 0.664613
0.713387 0.713387 0.713387
0.762161 0.762161 0.762161
0.810935 0.810935 0.810935
0.859710 0.859710 0.859710
0.908484 0.908484 0.908484
0.957258 0.957258 0.957258
0.000000 0.000000 0.000000
0.000000 0.000000 0.000000
0.000000 0.000000 0.000000
0.023581 0.023581 0.023581
0.072355 0.072355 0.072355
0.121129 0.121129 0.121129
0.169903 0.169903 0.169903
0.218677 0.218677 0.218677
0.000000 0.000000 0.000000
0.034032 0.034032 0.034032
0.082806 0.082806 0.082806
0.131581 0.131581 0.131581
0.180355 0.180355 0.180355
0.229129 0.229129 0.229129
0.277903 0.277903 0.277903
0.326677 0.326677 0.326677
0.093258 0.093258 0.093258
0.142032 0.142032 0.142032
0.190806 0.190806 0.190806
0.239581 0.239581 0.239581
0.288355 0.288355 0.288355
0.337129 0.337129 0.337129
0.385903 0.385903 0.385903
0.434677 0.434677 0.434677
0.201258 0.201258 0.201258
0.250032 0.250032 0.250032
0.298806 0.298806 0.298806
0.347581 0.347581 0.347581
0.396355 0.396355 0.396355
0.445129 0.445129 0.445129
0.493903 0.493903 0.493903
0.542677 0.542677 0.542677
0.309258 0.309258 0.309258
0.358032 0.358032 0.358032
0.406806 0.406806 0.406806
0.455581 0.455581 0.455581
0.504355 0.504355 0.504355
0.553129 0.553129 0.553129
0.601903 0.601903 0.601903
0.650677 0.650677 0.650677
0.417258 0.417258 0.417258
0.466032 0.466032 0.466032
0.514806 0.514806 0.514806
0.563581 0.563581 0.563581
0.612355 0.612355 0.612355
0.661129 0.661129 0.661129
0.709903 0.709903 0.709903
0.758677 0.758677 0.758677
0.525258 0.525258 0.525258
0.574032 0.574032 0.574032
0.622806 0.622806 0.622806
0.671581 0.671581 0.671581
0.720355 0.720355 0.720355
0.769129 0.769129 0.769129
0.817903 0.817903 0.817903
0.866677 0.866677 0.866677
0.633258 0.633258 0.633258
0.682032 0.682032 0.682032
0.730806 0.730806 0.730806
0.779581 0.779581 0.779581
0.828355 0.828355 0.828355
0.877129 0.877129 0.877129
0.925903 0.925903 0.925903
0.974677 0.974677 0.974677
0.000000 0.000000 0.000000
0.000000 0.000000 0.000000
0.000000 0.000000 0.000000
0.041000 0.041000 0.041000
0.089774 0.089774 0.089774
0.138548 0.138548 0.138548
0.187323 0.187323 0.187323
0.236097 0.236097 0.236097
0.002677 0.002677 0.002677
0.051452 0.051452 0.051452
0.100226 0.100226 0.100226
0.149000 0.149000 0.149000
0.197774 0.197774 0.197774
0.246548 0.246548 0.246548
0.295323 0.295323 0.295323
0.344097 0.344097 0.344097
0.110677 0.110677 0.110677
0.159452 0.159452 0.159452
0.208226 0.208226 0.208226
0.257000 0.257000 0.257000
0.305774 0.305774 0.305774
0.354548 0.354548 0.354548
0.403323 0.403323 0.403323
0.452097 0.452097 0.452097
0.218677 0.218677 0.218677
0.267452 0.267452 0.267452
0.316226 0.316226 0.316226
0.365000 0.365000 0.365000
0.413774 0.413774 0.413774
0.462548 0.462548 0.462548
0.511323 0.511323 0.511323
0.560097 0.560097 0.560097
0.326677 0.326677 0.326677
0.375452 0.375452 0.375452
0.424226 0.424226 0.424226
0.473000 0.473000 0.473000
0.521774 0.521774 0.521774
0.570548 0.570548 0.570548
0.619323 0.619323 0.619323
0.668097 0.668097 0.668097
0.434677 0.434677 0.434677
0.483452 0.483452 0.483452
0.532226 0.532226 0.532226
0.581000 0.581000 0.581000
0.629774 0.629774 0.629774
0.678548 0.678548 0.678548
0.727323 0.727323 0.727323
0.776097 0.776097 0.776097
0.542677 0.542677 0.542677
0.591452 0.591452 0.591452
0.640226 0.640226 0.640226
0.689000 0.689000 0.689000
0.737774 0.737774 0.737774
0.786548 0.786548 0.786548
0.835323 0.835323 0.835323
0.884097 0.884097 0.884097
0.650677 0.650677 0.650677
0.699452 0.699452 0.699452
0.748226 0.748226 0.748226
0.797000 0.797000 0.797000
0.845774 0.845774 0.845774
0.894548 0.894548 0.894548
0.943323 0.943323 0.943323
0.992097 0.992097 0.992097
0.000000 0.000000 0.000000
0.000000 0.000000 0.000000
0.009645 0.009645 0.009645
0.058419 0.058419 0.058419
0.107194 0.107194 0.107194
0.155968 0.155968 0.155968
0.204742 0.204742 0.204742
0.253516 0.253516 0.253516
0.020097 0.020097 0.020097
0.068871 0.068871 0.068871
0.117645 0.117645 0.117645
0.166419 0.166419 0.166419
0.215194 0.215194 0.215194
0.263968 0.263968 0.263968
0.312742 0.312742 0.312742
0.361516 0.361516 0.361516
0.128097 0.128097 0.128097
0.176871 0.176871 0.176871
0.225645 0.225645 0.225645
0.274419 0.274419 0.274419
0.323194 0.323194 0.323194
0.371968 0.371968 0.371968
0.420742 0.420742 0.420742
0.469516 0.469516 0.469516
0.236097 0.236097 0.236097
0.284871 0.284871 0.284871
0.333645 0.333645 0.333645
0.382419 0.382419 0.382419
0.431194 0.431194 0.431194
0.479968 0.479968 0.479968
0.528742 0.528742 0.528742
0.577516 0.577516 0.577516
0.344097 0.344097 0.344097
0.392871 0.392871 0.392871
0.441645 0.441645 0.441645
0.490419 0.490419 0.490419
0.539194 0.539194 0.539194
0.587968 0.587968 0.587968
0.636742 0.636742 0.636742
0.685516 0.685516 0.685516
0.452097 0.452097 0.452097
0.500871 0.500871 0.500871
0.549645 0.549645 0.549645
0.598419 0.598419 0.598419
0.647194 0.647194 0.647194
0.695968 0.695968 0.695968
0.744742 0.744742 0.744742
0.793516 0.793516 0.793516
0.560097 0.560097 0.560097
0.608871 0.608871 0.608871
0.657645 0.657645 0.657645
0.706419 0.706419 0.706419
0.755194 0.755194 0.755194
0.803968 0.803968 0.803968
0.852742 0.852742 0.852742
0.901516 0.901516 0.901516
0.668097 0.668097 0.668097
0.716871 0.716871 0.716871
0.765645 0.765645 0.765645
0.814419 0.814419 0.814419
0.863194 0.863194 0.863194
0.911968 0.911968 0.911968
0.960742 0.960742 0.960742
1.000000 1.000000 1.000000
0.000000 0.000000 0.000000
0.000000 0.000000 0.000000
0.027065 0.027065 0.027065
0.075839 0.075839 0.075839
0.124613 0.124613 0.124613
0.173387 0.173387 0.173387
0.222161 0.222161 0.222161
0.270935 0.270935 0.270935
0.037516 0.037516 0.037516
0.086290 0.086290 0.086290
0.135065 0.135065 0.135065
0.183839 0.183839 0.183839
0.232613 0.232613 0.232613
0.281387 0.281387 0.281387
0.330161 0.330161 0.330161
0.378935 0.378935 0.378935
0.145516 0.145516 0.145516
0.194290 0.194290 0.194290
0.243065 0.243065 0.243065
0.291839 0.291839 0.291839
0.340613 0.340613 0.340613
0.389387 0.389387 0.389387
0.438161 0.438161 0.438161
0.486935 0.486935 0.486935
0.253516 0.253516 0.253516
0.302290 0.302290 0.302290
0.351065 0.351065 0.351065
0.399839 0.399839 0.399839
0.448613 0.448613 0.448613
0.497387 0.497387 0.497387
0.546161 0.546161 0.546161
0.594935 0.594935 0.594935
0.361516 0.361516 0.361516
0.410290 0.410290 0.410290
0.459065 0.459065 0.459065
0.507839 0.507839 0.507839
0.556613 0.556613 0.556613
0.605387 0.605387 0.605387
0.654161 0.654161 0.654161
0.702935 0.702935 0.702935
0.469516 0.469516 0.469516
0.518290 0.518290 0.518290
0.567065 0.567065 0.567065
0.615839 0.615839 0.615839
0.664613 0.664613 0.664613
0.713387 0.713387 0.713387
0.762161 0.762161 0.762161
0.810935 0.810935 0.810935
0.577516 0.577516 0.577516
0.626290 0.626290 0.626290
0.675065 0.675065 0.675065
0.723839 0.723839 0.723839
0.772613 0.772613 0.772613
0.821387 0.821387 0.821387
0.870161 0.870161 0.870161
0.918935 0.918935 0.918935
0.685516 0.685516 0.685516
0.734290 0.734290 0.734290
0.783065 0.783065 0.783065
0.831839 0.831839 0.831839
0.880613 0.880613 0.880613
0.929387 0.929387 0.929387
0.978161 0.978161 0.978161
1.000000 1.000000 1.000000
0.000000 0.000000 0.000000
0.000000 0.000000 0.000000
0.044484 0.044484 0.044484
0.093258 0.093258 0.093258
0.142032 0.142032 0.142032
0.190806 0.190806 0.190806
0.239581 0.239581 0.239581
0.288355 0.288355 0.288355
0.054935 0.054935 0.054935
0.103710 0.103710 0.103710
0.152484 0.152484 0.152484
0.201258 0.201258 0.201258
0.250032 0.250032 0.250032
0.298806 0.298806 0.298806
0.347581 0.347581 0.347581
0.396355 0.396355 0.396355
0.162935 0.162935 0.162935
0.211710 0.211710 0.211710
0.260484 0.260484 0.260484
0.309258 0.309258 0.309258
0.358032 0.358032 0.358032
0.406806 0.406806 0.406806
0.455581 0.455581 0.455581
0.504355 0.504355 0.504355
0.270935 0.270935 0.270935
0.319710 0.319710 0.319710
0.368484 0.368484 0.368484
0.417258 0.417258 0.417258
0.466032 0.466032 0.466032
0.514806 0.514806 0.514806
0.563581 0.563581 0.563581
0.612355 0.612355 0.612355
0.378935 0.378935 0.378935
0.427710 0.427710 0.427710
0.476484 0.476484 0.476484
0.525258 0.525258 0.525258
0.574032 0.574032 0.574032
0.622806 0.622806 0.622806
0.671581 0.671581 0.671581
0.720355 0.720355 0.720355
0.486935 0.486935 0.486935
0.535710 0.535710 0.535710
0.584484 0.584484 0.584484
0.633258 0.633258 0.633258
0.682032 0.682032 0.682032
0.730806 0.730806 0.730806
0.779581 0.779581 0.779581
0.828355 0.828355 0.828355
0.594935 0.594935 0.594935
0.643710 0.643710 0.643710
0.692484 0.692484 0.692484
0.741258 0.741258 0.741258
0.790032 0.790032 0.790032
0.838806 0.838806 0.838806
0.887581 0.887581 0.887581
0.936355 0.936355 0.936355
0.702935 0.702935 0.702935
0.751710 0.751710 0.751710
0.800484 0.800484 0.800484
0.849258 0.849258 0.849258
0.898032 0.898032 0.898032
0.946806 0.946806 0.946806
0.995581 0.995581 0.995581
1.000000 1.000000 1.000000
