assets/luts/noir.cube
# Beauty Camera 3D LUT
# Filter: Noir (noir)
# Category: B&W
TITLE "Noir"
LUT_3D_SIZE 5
DOMAIN_MIN 0.000000 0.000000 0.000000
DOMAIN_MAX 0.903226 0.903226 0.903226
0.000000 0.000000 0.000000
0.000000 0.000000 0.000000
0.000000 0.000000 0.000000
0.081065 0.081065 0.081065
0.166419 0.166419 0.166419
0.014000 0.014000 0.014000
0.099355 0.099355 0.099355
0.184710 0.184710 0.184710
0.270065 0.270065 0.270065
0.355419 0.355419 0.355419
0.203000 0.203000 0.203000
0.288355 0.288355 0.288355
0.373710 0.373710 0.373710
0.459065 0.459065 0.459065
0.544419 0.544419 0.544419
0.392000 0.392000 0.392000
0.477355 0.477355 0.477355
0.562710 0.562710 0.562710
0.648065 0.648065 0.648065
0.733419 0.733419 0.733419
0.581000 0.581000 0.581000
0.666355 0.666355 0.666355
0.751710 0.751710 0.751710
0.837065 0.837065 0.837065
0.922419 0.922419 0.922419
0.000000 0.000000 0.000000
0.000000 0.000000 0.000000
0.026194 0.026194 0.026194
0.111548 0.111548 0.111548
0.196903 0.196903 0.196903
0.044484 0.044484 0.044484
0.129839 0.129839 0.129839
0.215194 0.215194 0.215194
0.300548 0.300548 0.300548
0.385903 0.385903 0.385903
0.233484 0.233484 0.233484
0.318839 0.318839 0.318839
0.404194 0.404194 0.404194
0.489548 0.489548 0.489548
0.574903 0.574903 0.574903
0.422484 0.422484 0.422484
0.507839 0.507839 0.507839
0.593194 0.593194 0.593194
0.678548 0.678548 0.678548
0.763903 0.763903 0.763903
0.611484 0.611484 0.611484
0.696839 0.696839 0.696839
0.782194 0.782194 0.782194
0.867548 0.867548 0.867548
0.952903 0.952903 0.952903
0.000000 0.000000 0.000000
0.000000 0.000000 0.000000
0.056677 0.056677 0.056677
0.142032 0.142032 0.142032
0.227387 0.227387 0.227387
0.074968 0.074968 0.074968
0.160323 0.160323 0.160323
0.245677 0.245677 0.245677
0.331032 0.331032 0.331032
0.416387 0.416387 0.416387
0.263968 0.263968 0.263968
0.349323 0.349323 0.349323
0.434677 0.434677 0.434677
0.520032 0.520032 0.520032
0.605387 0.605387 0.605387
0.452968 0.452968 0.452968
0.538323 0.538323 0.538323
0.623677 0.623677 0.623677
0.709032 0.709032 0.709032
0.794387 0.794387 0.794387
0.641968 0.641968 0.641968
0.727323 0.727323 0.727323
0.812677 0.812677 0.812677
0.898032 0.898032 0.898032
0.983387 0.983387 0.983387
0.000000 0.000000 0.000000
0.001806 0.001806 0.001806
0.087161 0.087161 0.087161
0.172516 0.172516 0.172516
0.257871 0.257871 0.257871
0.105452 0.105452 0.105452
0.190806 0.190806 0.190806
0.276161 0.276161 0.276161
0.361516 0.361516 0.361516
0.446871 0.446871 0.446871
0.294452 0.294452 0.294452
0.379806 0.379806 0.379806
0.465161 0.465161 0.465161
0.550516 0.550516 0.550516
0.635871 0.635871 0.635871
0.483452 0.483452 0.483452
0.568806 0.568806 0.568806
0.654161 0.654161 0.654161
0.739516 0.739516 0.739516
0.824871 0.824871 0.824871
0.672452 0.672452 0.672452
0.757806 0.757806 0.757806
0.843161 0.843161 0.843161
0.928516 0.928516 0.928516
1.000000 1.000000 1.000000
0.000000 0.000000 0.000000
0.032290 0.032290 0.032290
0.117645 0.117645 0.117645
0.203000 0.203000 0.203000
0.288355 0.288355 0.288355
0.135935 0.135935 0.135935
0.221290 0.221290 0.221290
0.306645 0.306645 0.306645
0.392000 0.392000 0.392000
0.477355 0.477355 0.477355
0.324935 0.324935 0.324935
0.410290 0.410290 0.410290
0.495645 0.495645 0.495645
0.581000 0.581000 0.581000
0.666355 0.666355 0.666355
0.513935 0.513935 0.513935
0.599290 0.599290 0.599290
0.684645 0.684645 0.684645
0.770000 0.770000 0.770000
0.855355 0.855355 0.855355
0.702935 0.702935 0.702935
0.788290 0.788290 0.788290
0.873645 0.873645 0.873645
0.959000 0.959000 0.959000
1.000000 1.000000 1.000000
