assets/luts/noir.cube
# Beauty Camera 3D LUT
# Filter: Noir (noir)
# Category: B&W
TITLE "Noir"
LUT_3D_SIZE 32
DOMAIN_MIN 0.0 0.0 0.0
DOMAIN_MAX 1.0 1.0 1.0
0.000000 0.000000 0.000000
0.000000 0.000000 0.000000
0.000000 0.000000 0.000000
0.000000 0.000000 0.000000
0.000000 0.000000 0.000000
0.000000 0.000000 0.000000
0.000000 0.000000 0.000000
0.000000 0.000000 0.000000
0.000000 0.000000 0.000000
0.000000 0.000000 0.000000
0.000000 0.000000 0.000000
0.000000 0.000000 0.000000
0.000000 0.000000 0.000000
0.000000 0.000000 0.000000
0.000000 0.000000 0.000000
0.007903 0.007903 0.007903
0.020097 0.020097 0.020097
0.032290 0.032290 0.032290
0.044484 0.044484 0.044484
0.056677 0.056677 0.056677
0.068871 0.068871 0.068871
0.081065 0.081065 0.081065
0.093258 0.093258 0.093258
0.105452 0.105452 0.105452
0.117645 0.117645 0.117645
0.129839 0.129839 0.129839
0.142032 0.142032 0.142032
0.154226 0.154226 0.154226
0.166419 0.166419 0.166419
0.178613 0.178613 0.178613
0.190806 0.190806 0.190806
0.203000 0.203000 0.203000
0.000000 0.000000 0.000000
0.000000 0.000000 0.000000
0.000000 0.000000 0.000000
0.000000 0.000000 0.000000
0.000000 0.000000 0.000000
0.000000 0.000000 0.000000
0.000000 0.000000 0.000000
0.000000 0.000000 0.000000
0.000000 0.000000 0.000000
0.000000 0.000000 0.000000
0.000000 0.000000 0.000000
0.000000 0.000000 0.000000
0.000000 0.000000 0.000000
0.010516 0.010516 0.010516
0.022710 0.022710 0.022710
0.034903 0.034903 0.034903
0.047097 0.047097 0.047097
0.059290 0.059290 0.059290
0.071484 0.071484 0.071484
0.083677 0.083677 0.083677
0.095871 0.095871 0.095871
0.108065 0.108065 0.108065
0.120258 0.120258 0.120258
0.132452 0.132452 0.132452
0.144645 0.144645 0.144645
0.156839 0.156839 0.156839
0.169032 0.169032 0.169032
0.181226 0.181226 0.181226
0.193419 0.193419 0.193419
0.205613 0.205613 0.205613
0.217806 0.217806 0.217806
0.230000 0.230000 0.230000
0.000000 0.000000 0.000000
0.000000 0.000000 0.000000
0.000000 0.000000 0.000000
0.000000 0.000000 0.000000
0.000000 0.000000 0.000000
0.000000 0.000000 0.000000
0.000000 0.000000 0.000000
0.000000 0.000000 0.000000
0.000000 0.000000 0.000000
0.000000 0.000000 0.000000
0.000935 0.000935 0.000935
0.013129 0.013129 0.013129
0.025323 0.025323 0.025323
0.037516 0.037516 0.037516
0.049710 0.049710 0.049710
0.061903 0.061903 0.061903
0.074097 0.074097 0.074097
0.086290 0.086290 0.086290
0.098484 0.098484 0.098484
0.110677 0.110677 0.110677
0.122871 0.122871 0.122871
0.135065 0.135065 0.135065
0.147258 0.147258 0.147258
0.159452 0.159452 0.159452
0.171645 0.171645 0.171645
0.183839 0.183839 0.183839
0.196032 0.196032 0.196032
0.208226 0.208226 0.208226
0.220419 0.220419 0.220419
0.232613 0.232613 0.232613
0.244806 0.244806 0.244806
0.257000 0.257000 0.257000
0.000000 0.000000 0.000000
0.000000 0.000000 0.000000
0.000000 0.000000 0.000000
0.000000 0.000000 0.000000
0.000000 0.000000 0.000000
0.000000 0.000000 0.000000
0.000000 0.000000 0.000000
0.000000 0.000000 0.000000
0.003548 0.003548 0.003548
0.015742 0.015742 0.015742
0.027935 0.027935 0.027935
0.040129 0.040129 0.040129
0.052323 0.052323 0.052323
0.064516 0.064516 0.064516
0.076710 0.076710 0.076710
0.088903 0.088903 0.088903
0.101097 0.101097 0.101097
0.113290 0.113290 0.113290
0.125484 0.125484 0.125484
0.137677 0.137677 0.137677
0.149871 0.149871 0.149871
0.162065 0.162065 0.162065
0.174258 0.174258 0.174258
0.186452 0.186452 0.186452
0.198645 0.198645 0.198645
0.210839 0.210839 0.210839
0.223032 0.223032 0.223032
0.235226 0.235226 0.235226
0.247419 0.247419 0.247419
0.259613 0.259613 0.259613
0.271806 0.271806 0.271806
0.284000 0.284000 0.284000
0.000000 0.000000 0.000000
0.000000 0.000000 0.000000
0.000000 0.000000 0.000000
0.000000 0.000000 0.000000
0.000000 0.000000 0.000000
0.000000 0.000000 0.000000
0.006161 0.006161 0.006161
0.018355 0.018355 0.018355
0.030548 0.030548 0.030548
0.042742 0.042742 0.042742
0.054935 0.054935 0.054935
0.067129 0.067129 0.067129
0.079323 0.079323 0.079323
0.091516 0.091516 0.091516
0.103710 0.103710 0.103710
0.115903 0.115903 0.115903
0.128097 0.128097 0.128097
0.140290 0.140290 0.140290
0.152484 0.152484 0.152484
0.164677 0.164677 0.164677
0.176871 0.176871 0.176871
0.189065 0.189065 0.189065
0.201258 0.201258 0.201258
0.213452 0.213452 0.213452
0.225645 0.225645 0.225645
0.237839 0.237839 0.237839
0.250032 0.250032 0.250032
0.262226 0.262226 0.262226
0.274419 0.274419 0.274419
0.286613 0.286613 0.286613
0.298806 0.298806 0.298806
0.311000 0.311000 0.311000
0.000000 0.000000 0.000000
0.000000 0.000000 0.000000
0.000000 0.000000 0.000000
0.000000 0.000000 0.000000
0.008774 0.008774 0.008774
0.020968 0.020968 0.020968
0.033161 0.033161 0.033161
0.045355 0.045355 0.045355
0.057548 0.057548 0.057548
0.069742 0.069742 0.069742
0.081935 0.081935 0.081935
0.094129 0.094129 0.094129
0.106323 0.106323 0.106323
0.118516 0.118516 0.118516
0.130710 0.130710 0.130710
0.142903 0.142903 0.142903
0.155097 0.155097 0.155097
0.167290 0.167290 0.167290
0.179484 0.179484 0.179484
0.191677 0.191677 0.191677
0.203871 0.203871 0.203871
0.216065 0.216065 0.216065
0.228258 0.228258 0.228258
0.240452 0.240452 0.240452
0.252645 0.252645 0.252645
0.264839 0.264839 0.264839
0.277032 0.277032 0.277032
0.289226 0.289226 0.289226
0.301419 0.301419 0.301419
0.313613 0.313613 0.313613
0.325806 0.325806 0.325806
0.338000 0.338000 0.338000
0.000000 0.000000 0.000000
0.000000 0.000000 0.000000
0.011387 0.011387 0.011387
0.023581 0.023581 0.023581
0.035774 0.035774 0.035774
0.047968 0.047968 0.047968
0.060161 0.060161 0.060161
0.072355 0.072355 0.072355
0.084548 0.084548 0.084548
0.096742 0.096742 0.096742
0.108935 0.108935 0.108935
0.121129 0.121129 0.121129
0.133323 0.133323 0.133323
0.145516 0.145516 0.145516
0.157710 0.157710 0.157710
0.169903 0.169903 0.169903
0.182097 0.182097 0.182097
0.194290 0.194290 0.194290
0.206484 0.206484 0.206484
0.218677 0.218677 0.218677
0.230871 0.230871 0.230871
0.243065 0.243065 0.243065
0.255258 0.255258 0.255258
0.267452 0.267452 0.267452
0.279645 0.279645 0.279645
0.291839 0.291839 0.291839
0.304032 0.304032 0.304032
0.316226 0.316226 0.316226
0.328419 0.328419 0.328419
0.340613 0.340613 0.340613
0.352806 0.352806 0.352806
0.365000 0.365000 0.365000
0.014000 0.014000 0.014000
0.026194 0.026194 0.026194
0.038387 0.038387 0.038387
0.050581 0.050581 0.050581
0.062774 0.062774 0.062774
0.074968 0.074968 0.074968
0.087161 0.087161 0.087161
0.099355 0.099355 0.099355
0.111548 0.111548 0.111548
0.123742 0.123742 0.123742
0.135935 0.135935 0.135935
0.148129 0.148129 0.148129
0.160323 0.160323 0.160323
0.172516 0.172516 0.172516
0.184710 0.184710 0.184710
0.196903 0.196903 0.196903
0.209097 0.209097 0.209097
0.221290 0.221290 0.221290
0.233484 0.233484 0.233484
0.245677 0.245677 0.245677
0.257871 0.257871 0.257871
0.270065 0.270065 0.270065
0.282258 0.282258 0.282258
0.294452 0.294452 0.294452
0.306645 0.306645 0.306645
0.318839 0.318839 0.318839
0.331032 0.331032 0.331032
0.343226 0.343226 0.343226
0.355419 0.355419 0.355419
0.367613 0.367613 0.367613
0.379806 0.379806 0.379806
0.392000 0.392000 0.392000
0.041000 0.041000 0.041000
0.053194 0.053194 0.053194
0.065387 0.065387 0.065387
0.077581 0.077581 0.077581
0.089774 0.089774 0.089774
0.101968 0.101968 0.101968
0.114161 0.114161 0.114161
0.126355 0.126355 0.126355
0.138548 0.138548 0.138548
0.150742 0.150742 0.150742
0.162935 0.162935 0.162935
0.175129 0.175129 0.175129
0.187323 0.187323 0.187323
0.199516 0.199516 0.199516
0.211710 0.211710 0.211710
0.223903 0.223903 0.223903
0.236097 0.236097 0.236097
0.248290 0.248290 0.248290
0.260484 0.260484 0.260484
0.272677 0.272677 0.272677
0.284871 0.284871 0.284871
0.297065 0.297065 0.297065
0.309258 0.309258 0.309258
0.321452 0.321452 0.321452
0.333645 0.333645 0.333645
0.345839 0.345839 0.345839
0.358032 0.358032 0.358032
0.370226 0.370226 0.370226
0.382419 0.382419 0.382419
0.394613 0.394613 0.394613
0.406806 0.406806 0.406806
0.419000 0.419000 0.419000
0.068000 0.068000 0.068000
0.080194 0.080194 0.080194
0.092387 0.092387 0.092387
0.104581 0.104581 0.104581
0.116774 0.116774 0.116774
0.128968 0.128968 0.128968
0.141161 0.141161 0.141161
0.153355 0.153355 0.153355
0.165548 0.165548 0.165548
0.177742 0.177742 0.177742
0.189935 0.189935 0.189935
0.202129 0.202129 0.202129
0.214323 0.214323 0.214323
0.226516 0.226516 0.226516
0.238710 0.238710 0.238710
0.250903 0.250903 0.250903
0.263097 0.263097 0.263097
0.275290 0.275290 0.275290
0.287484 0.287484 0.287484
0.299677 0.299677 0.299677
0.311871 0.311871 0.311871
0.324065 0.324065 0.324065
0.336258 0.336258 0.336258
0.348452 0.348452 0.348452
0.360645 0.360645 0.360645
0.372839 0.372839 0.372839
0.385032 0.385032 0.385032
0.397226 0.397226 0.397226
0.409419 0.409419 0.409419
0.421613 0.421613 0.421613
0.433806 0.433806 0.433806
0.446000 0.446000 0.446000
0.095000 0.095000 0.095000
0.107194 0.107194 0.107194
0.119387 0.119387 0.119387
0.131581 0.131581 0.131581
0.143774 0.143774 0.143774
0.155968 0.155968 0.155968
0.168161 0.168161 0.168161
0.180355 0.180355 0.180355
0.192548 0.192548 0.192548
0.204742 0.204742 0.204742
0.216935 0.216935 0.216935
0.229129 0.229129 0.229129
0.241323 0.241323 0.241323
0.253516 0.253516 0.253516
0.265710 0.265710 0.265710
0.277903 0.277903 0.277903
0.290097 0.290097 0.290097
0.302290 0.302290 0.302290
0.314484 0.314484 0.314484
0.326677 0.326677 0.326677
0.338871 0.338871 0.338871
0.351065 0.351065 0.351065
0.363258 0.363258 0.363258
0.375452 0.375452 0.375452
0.387645 0.387645 0.387645
0.399839 0.399839 0.399839
0.412032 0.412032 0.412032
0.424226 0.424226 0.424226
0.436419 0.436419 0.436419
0.448613 0.448613 0.448613
0.460806 0.460806 0.460806
0.473000 0.473000 0.473000
0.122000 0.122000 0.122000
0.134194 0.134194 0.134194
0.146387 0.146387 0.146387
0.158581 0.158581 0.158581
0.170774 0.170774 0.170774
0.182968 0.182968 0.182968
0.195161 0.195161 0.195161
0.207355 0.207355 0.207355
0.219548 0.219548 0.219548
0.231742 0.231742 0.231742
0.243935 0.243935 0.243935
0.256129 0.256129 0.256129
0.268323 0.268323 0.268323
0.280516 0.280516 0.280516
0.292710 0.292710 0.292710
0.304903 0.304903 0.304903
0.317097 0.317097 0.317097
0.329290 0.329290 0.329290
0.341484 0.341484 0.341484
0.353677 0.353677 0.353677
0.365871 0.365871 0.365871
0.378065 0.378065 0.378065
0.390258 0.390258 0.390258
0.402452 0.402452 0.402452
0.414645 0.414645 0.414645
0.426839 0.426839 0.426839
0.439032 0.439032 0.439032
0.451226 0.451226 0.451226
0.463419 0.463419 0.463419
0.475613 0.475613 0.475613
0.487806 0.487806 0.487806
0.500000 0.500000 0.500000
0.149000 0.149000 0.149000
0.161194 0.161194 0.161194
0.173387 0.173387 0.173387
0.185581 0.185581 0.185581
0.197774 0.197774 0.197774
0.209968 0.209968 0.209968
0.222161 0.222161 0.222161
0.234355 0.234355 0.234355
0.246548 0.246548 0.246548
0.258742 0.258742 0.258742
0.270935 0.270935 0.270935
0.283129 0.283129 0.283129
0.295323 0.295323 0.295323
0.307516 0.307516 0.307516
0.319710 0.319710 0.319710
0.331903 0.331903 0.331903
0.344097 0.344097 0.344097
0.356290 0.356290 0.356290
0.368484 0.368484 0.368484
0.380677 0.380677 0.380677
0.392871 0.392871 0.392871
0.405065 0.405065 0.405065
0.417258 0.417258 0.417258
0.429452 0.429452 0.429452
0.441645 0.441645 0.441645
0.453839 0.453839 0.453839
0.466032 0.466032 0.466032
0.478226 0.478226 0.478226
0.490419 0.490419 0.490419
0.502613 0.502613 0.502613
0.514806 0.514806 0.514806
0.527000 0.527000 0.527000
0.176000 0.176000 0.176000
0.188194 0.188194 0.188194
0.200387 0.200387 0.200387
0.212581 0.212581 0.212581
0.224774 0.224774 0.224774
0.236968 0.236968 0.236968
0.249161 0.249161 0.249161
0.261355 0.261355 0.261355
0.273548 0.273548 0.273548
0.285742 0.285742 0.285742
0.297935 0.297935 0.297935
0.310129 0.310129 0.310129
0.322323 0.322323 0.322323
0.334516 0.334516 0.334516
0.346710 0.346710 0.346710
0.358903 0.358903 0.358903
0.371097 0.371097 0.371097
0.383290 0.383290 0.383290
0.395484 0.395484 0.395484
0.407677 0.407677 0.407677
0.419871 0.419871 0.419871
0.432065 0.432065 0.432065
0.444258 0.444258 0.444258
0.456452 0.456452 0.456452
0.468645 0.468645 0.468645
0.480839 0.480839 0.480839
0.493032 0.493032 0.493032
0.505226 0.505226 0.505226
0.517419 0.517419 0.517419
0.529613 0.529613 0.529613
0.541806 0.541806 0.541806
0.554000 0.554000 0.554000
0.203000 0.203000 0.203000
0.215194 0.215194 0.215194
0.227387 0.227387 0.227387
0.239581 0.239581 0.239581
0.251774 0.251774 0.251774
0.263968 0.263968 0.263968
0.276161 0.276161 0.276161
0.288355 0.288355 0.288355
0.300548 0.300548 0.300548
0.312742 0.312742 0.312742
0.324935 0.324935 0.324935
0.337129 0.337129 0.337129
0.349323 0.349323 0.349323
0.361516 0.361516 0.361516
0.373710 0.373710 0.373710
0.385903 0.385903 0.385903
0.398097 0.398097 0.398097
0.410290 0.410290 0.410290
0.422484 0.422484 0.422484
0.434677 0.434677 0.434677
0.446871 0.446871 0.446871
0.459065 0.459065 0.459065
0.471258 0.471258 0.471258
0.483452 0.483452 0.483452
0.495645 0.495645 0.495645
0.507839 0.507839 0.507839
0.520032 0.520032 0.520032
0.532226 0.532226 0.532226
0.544419 0.544419 0.544419
0.556613 0.556613 0.556613
0.568806 0.568806 0.568806
0.581000 0.581000 0.581000
0.230000 0.230000 0.230000
0.242194 0.242194 0.242194
0.254387 0.254387 0.254387
0.266581 0.266581 0.266581
0.278774 0.278774 0.278774
0.290968 0.290968 0.290968
0.303161 0.303161 0.303161
0.315355 0.315355 0.315355
0.327548 0.327548 0.327548
0.339742 0.339742 0.339742
0.351935 0.351935 0.351935
0.364129 0.364129 0.364129
0.376323 0.376323 0.376323
0.388516 0.388516 0.388516
0.400710 0.400710 0.400710
0.412903 0.412903 0.412903
0.425097 0.425097 0.425097
0.437290 0.437290 0.437290
0.449484 0.449484 0.449484
0.461677 0.461677 0.461677
0.473871 0.473871 0.473871
0.486065 0.486065 0.486065
0.498258 0.498258 0.498258
0.510452 0.510452 0.510452
0.522645 0.522645 0.522645
0.534839 0.534839 0.534839
0.547032 0.547032 0.547032
0.559226 0.559226 0.559226
0.571419 0.571419 0.571419
0.583613 0.583613 0.583613
0.595806 0.595806 0.595806
0.608000 0.608000 0.608000
0.257000 0.257000 0.257000
0.269194 0.269194 0.269194
0.281387 0.281387 0.281387
0.293581 0.293581 0.293581
0.305774 0.305774 0.305774
0.317968 0.317968 0.317968
0.330161 0.330161 0.330161
0.342355 0.342355 0.342355
0.354548 0.354548 0.354548
0.366742 0.366742 0.366742
0.378935 0.378935 0.378935
0.391129 0.391129 0.391129
0.403323 0.403323 0.403323
0.415516 0.415516 0.415516
0.427710 0.427710 0.427710
0.439903 0.439903 0.439903
0.452097 0.452097 0.452097
0.464290 0.464290 0.464290
0.476484 0.476484 0.476484
0.488677 0.488677 0.488677
0.500871 0.500871 0.500871
0.513065 0.513065 0.513065
0.525258 0.525258 0.525258
0.537452 0.537452 0.537452
0.549645 0.549645 0.549645
0.561839 0.561839 0.561839
0.574032 0.574032 0.574032
0.586226 0.586226 0.586226
0.598419 0.598419 0.598419
0.610613 0.610613 0.610613
0.622806 0.622806 0.622806
0.635000 0.635000 0.635000
0.284000 0.284000 0.284000
0.296194 0.296194 0.296194
0.308387 0.308387 0.308387
0.320581 0.320581 0.320581
0.332774 0.332774 0.332774
0.344968 0.344968 0.344968
0.357161 0.357161 0.357161
0.369355 0.369355 0.369355
0.381548 0.381548 0.381548
0.393742 0.393742 0.393742
0.405935 0.405935 0.405935
0.418129 0.418129 0.418129
0.430323 0.430323 0.430323
0.442516 0.442516 0.442516
0.454710 0.454710 0.454710
0.466903 0.466903 0.466903
0.479097 0.479097 0.479097
0.491290 0.491290 0.491290
0.503484 0.503484 0.503484
0.515677 0.515677 0.515677
0.527871 0.527871 0.527871
0.540065 0.540065 0.540065
0.552258 0.552258 0.552258
0.564452 0.564452 0.564452
0.576645 0.576645 0.576645
0.588839 0.588839 0.588839
0.601032 0.601032 0.601032
0.613226 0.613226 0.613226
0.625419 0.625419 0.625419
0.637613 0.637613 0.637613
0.649806 0.649806 0.649806
0.662000 0.662000 0.662000
0.311000 0.311000 0.311000
0.323194 0.323194 0.323194
0.335387 0.335387 0.335387
0.347581 0.347581 0.347581
0.359774 0.359774 0.359774
0.371968 0.371968 0.371968
0.384161 0.384161 0.384161
0.396355 0.396355 0.396355
0.408548 0.408548 0.408548
0.420742 0.420742 0.420742
0.432935 0.432935 0.432935
0.445129 0.445129 0.445129
0.457323 0.457323 0.457323
0.469516 0.469516 0.469516
0.481710 0.481710 0.481710
0.493903 0.493903 0.493903
0.506097 0.506097 0.506097
0.518290 0.518290 0.518290
0.530484 0.530484 0.530484
0.542677 0.542677 0.542677
0.554871 0.554871 0.554871
0.567065 0.567065 0.567065
0.579258 0.579258 0.579258
0.591452 0.591452 0.591452
0.603645 0.603645 0.603645
0.615839 0.615839 0.615839
0.628032 0.628032 0.628032
0.640226 0.640226 0.640226
0.652419 0.652419 0.652419
0.664613 0.664613 0.664613
0.676806 0.676806 0.676806
0.689000 0.689000 0.689000
0.338000 0.338000 0.338000
0.350194 0.350194 0.350194
0.362387 0.362387 0.362387
0.374581 0.374581 0.374581
0.386774 0.386774 0.386774
0.398968 0.398968 0.398968
0.411161 0.411161 0.411161
0.423355 0.423355 0.423355
0.435548 0.435548 0.435548
0.447742 0.447742 0.447742
0.459935 0.459935 0.459935
0.472129 0.472129 0.472129
0.484323 0.484323 0.484323
0.496516 0.496516 0.496516
0.508710 0.508710 0.508710
0.520903 0.520903 0.520903
0.533097 0.533097 0.533097
0.545290 0.545290 0.545290
0.557484 0.557484 0.557484
0.569677 0.569677 0.569677
0.581871 0.581871 0.581871
0.594065 0.594065 0.594065
0.606258 0.606258 0.606258
0.618452 0.618452 0.618452
0.630645 0.630645 0.630645
0.642839 0.642839 0.642839
0.655032 0.655032 0.655032
0.667226 0.667226 0.667226
0.679419 0.679419 0.679419
0.691613 0.691613 0.691613
0.703806 0.703806 0.703806
0.716000 0.716000 0.716000
0.365000 0.365000 0.365000
0.377194 0.377194 0.377194
0.389387 0.389387 0.389387
0.401581 0.401581 0.401581
0.413774 0.413774 0.413774
0.425968 0.425968 0.425968
0.438161 0.438161 0.438161
0.450355 0.450355 0.450355
0.462548 0.462548 0.462548
0.474742 0.474742 0.474742
0.486935 0.486935 0.486935
0.499129 0.499129 0.499129
0.511323 0.511323 0.511323
0.523516 0.523516 0.523516
0.535710 0.535710 0.535710
0.547903 0.547903 0.547903
0.560097 0.560097 0.560097
0.572290 0.572290 0.572290
0.584484 0.584484 0.584484
0.596677 0.596677 0.596677
0.608871 0.608871 0.608871
0.621065 0.621065 0.621065
0.633258 0.633258 0.633258
0.645452 0.645452 0.645452
0.657645 0.657645 0.657645
0.669839 0.669839 0.669839
0.682032 0.682032 0.682032
0.694226 0.694226 0.694226
0.706419 0.706419 0.706419
0.718613 0.718613 0.718613
0.730806 0.730806 0.730806
0.743000 0.743000 0.743000
0.392000 0.392000 0.392000
0.404194 0.404194 0.404194
0.416387 0.416387 0.416387
0.428581 0.428581 0.428581
0.440774 0.440774 0.440774
0.452968 0.452968 0.452968
0.465161 0.465161 0.465161
0.477355 0.477355 0.477355
0.489548 0.489548 0.489548
0.501742 0.501742 0.501742
0.513935 0.513935 0.513935
0.526129 0.526129 0.526129
0.538323 0.538323 0.538323
0.550516 0.550516 0.550516
0.562710 0.562710 0.562710
0.574903 0.574903 0.574903
0.587097 0.587097 0.587097
0.599290 0.599290 0.599290
0.611484 0.611484 0.611484
0.623677 0.623677 0.623677
0.635871 0.635871 0.635871
0.648065 0.648065 0.648065
0.660258 0.660258 0.660258
0.672452 0.672452 0.672452
0.684645 0.684645 0.684645
0.696839 0.696839 0.696839
0.709032 0.709032 0.709032
0.721226 0.721226 0.721226
0.733419 0.733419 0.733419
0.745613 0.745613 0.745613
0.757806 0.757806 0.757806
0.770000 0.770000 0.770000
0.419000 0.419000 0.419000
0.431194 0.431194 0.431194
0.443387 0.443387 0.443387
0.455581 0.455581 0.455581
0.467774 0.467774 0.467774
0.479968 0.479968 0.479968
0.492161 0.492161 0.492161
0.504355 0.504355 0.504355
0.516548 0.516548 0.516548
0.528742 0.528742 0.528742
0.540935 0.540935 0.540935
0.553129 0.553129 0.553129
0.565323 0.565323 0.565323
0.577516 0.577516 0.577516
0.589710 0.589710 0.589710
0.601903 0.601903 0.601903
0.614097 0.614097 0.614097
0.626290 0.626290 0.626290
0.638484 0.638484 0.638484
0.650677 0.650677 0.650677
0.662871 0.662871 0.662871
0.675065 0.675065 0.675065
0.687258 0.687258 0.687258
0.699452 0.699452 0.699452
0.711645 0.711645 0.711645
0.723839 0.723839 0.723839
0.736032 0.736032 0.736032
0.748226 0.748226 0.748226
0.760419 0.760419 0.760419
0.772613 0.772613 0.772613
0.784806 0.784806 0.784806
0.797000 0.797000 0.797000
0.446000 0.446000 0.446000
0.458194 0.458194 0.458194
0.470387 0.470387 0.470387
0.482581 0.482581 0.482581
0.494774 0.494774 0.494774
0.506968 0.506968 0.506968
0.519161 0.519161 0.519161
0.531355 0.531355 0.531355
0.543548 0.543548 0.543548
0.555742 0.555742 0.555742
0.567935 0.567935 0.567935
0.580129 0.580129 0.580129
0.592323 0.592323 0.592323
0.604516 0.604516 0.604516
0.616710 0.616710 0.616710
0.628903 0.628903 0.628903
0.641097 0.641097 0.641097
0.653290 0.653290 0.653290
0.665484 0.665484 0.665484
0.677677 0.677677 0.677677
0.689871 0.689871 0.689871
0.702065 0.702065 0.702065
0.714258 0.714258 0.714258
0.726452 0.726452 0.726452
0.738645 0.738645 0.738645
0.750839 0.750839 0.750839
0.763032 0.763032 0.763032
0.775226 0.775226 0.775226
0.787419 0.787419 0.787419
0.799613 0.799613 0.799613
0.811806 0.811806 0.811806
0.824000 0.824000 0.824000
0.473000 0.473000 0.473000
0.485194 0.485194 0.485194
0.497387 0.497387 0.497387
0.509581 0.509581 0.509581
0.521774 0.521774 0.521774
0.533968 0.533968 0.533968
0.546161 0.546161 0.546161
0.558355 0.558355 0.558355
0.570548 0.570548 0.570548
0.582742 0.582742 0.582742
0.594935 0.594935 0.594935
0.607129 0.607129 0.607129
0.619323 0.619323 0.619323
0.631516 0.631516 0.631516
0.643710 0.643710 0.643710
0.655903 0.655903 0.655903
0.668097 0.668097 0.668097
0.680290 0.680290 0.680290
0.692484 0.692484 0.692484
0.704677 0.704677 0.704677
0.716871 0.716871 0.716871
0.729065 0.729065 0.729065
0.741258 0.741258 0.741258
0.753452 0.753452 0.753452
0.765645 0.765645 0.765645
0.777839 0.777839 0.777839
0.790032 0.790032 0.790032
0.802226 0.802226 0.802226
0.814419 0.814419 0.814419
0.826613 0.826613 0.826613
0.838806 0.838806 0.838806
0.851000 0.851000 0.851000
0.500000 0.500000 0.500000
0.512194 0.512194 0.512194
0.524387 0.524387 0.524387
0.536581 0.536581 0.536581
0.548774 0.548774 0.548774
0.560968 0.560968 0.560968
0.573161 0.573161 0.573161
0.585355 0.585355 0.585355
0.597548 0.597548 0.597548
0.609742 0.609742 0.609742
0.621935 0.621935 0.621935
0.634129 0.634129 0.634129
0.646323 0.646323 0.646323
0.658516 0.658516 0.658516
0.670710 0.670710 0.670710
0.682903 0.682903 0.682903
0.695097 0.695097 0.695097
0.707290 0.707290 0.707290
0.719484 0.719484 0.719484
0.731677 0.731677 0.731677
0.743871 0.743871 0.743871
0.756065 0.756065 0.756065
0.768258 0.768258 0.768258
0.780452 0.780452 0.780452
0.792645 0.792645 0.792645
0.804839 0.804839 0.804839
0.817032 0.817032 0.817032
0.829226 0.829226 0.829226
0.841419 0.841419 0.841419
0.853613 0.853613 0.853613
0.865806 0.865806 0.865806
0.878000 0.878000 0.878000
0.527000 0.527000 0.527000
0.539194 0.539194 0.539194
0.551387 0.551387 0.551387
0.563581 0.563581 0.563581
0.575774 0.575774 0.575774
0.587968 0.587968 0.587968
0.600161 0.600161 0.600161
0.612355 0.612355 0.612355
0.624548 0.624548 0.624548
0.636742 0.636742 0.636742
0.648935 0.648935 0.648935
0.661129 0.661129 0.661129
0.673323 0.673323 0.673323
0.685516 0.685516 0.685516
0.697710 0.697710 0.697710
0.709903 0.709903 0.709903
0.722097 0.722097 0.722097
0.734290 0.734290 0.734290
0.746484 0.746484 0.746484
0.758677 0.758677 0.758677
0.770871 0.770871 0.770871
0.783065 0.783065 0.783065
0.795258 0.795258 0.795258
0.807452 0.807452 0.807452
0.819645 0.819645 0.819645
0.831839 0.831839 0.831839
0.844032 0.844032 0.844032
0.856226 0.856226 0.856226
0.868419 0.868419 0.868419
0.880613 0.880613 0.880613
0.892806 0.892806 0.892806
0.905000 0.905000 0.905000
0.554000 0.554000 0.554000
0.566194 0.566194 0.566194
0.578387 0.578387 0.578387
0.590581 0.590581 0.590581
0.602774 0.602774 0.602774
0.614968 0.614968 0.614968
0.627161 0.627161 0.627161
0.639355 0.639355 0.639355
0.651548 0.651548 0.651548
0.663742 0.663742 0.663742
0.675935 0.675935 0.675935
0.688129 0.688129 0.688129
0.700323 0.700323 0.700323
0.712516 0.712516 0.712516
0.724710 0.724710 0.724710
0.736903 0.736903 0.736903
0.749097 0.749097 0.749097
0.761290 0.761290 0.761290
0.773484 0.773484 0.773484
