assets/luts/nordic.cube
# Beauty Camera 3D LUT
# Filter: Nordic (nordic)
# Category: Cool
TITLE "Nordic"
LUT_3D_SIZE 8
DOMAIN_MIN 0.000000 0.000000 0.000000
DOMAIN_MAX 0.903226 0.903226 0.903226
0.000000 0.011131 0.040060
0.107996 0.014204 0.043133
0.221829 0.017411 0.046340
0.337967 0.020683 0.049612
0.455674 0.023999 0.052928
0.574577 0.027349 0.056278
0.694452 0.030727 0.059656
0.815143 0.034127 0.063056
0.010086 0.136850 0.051231
0.119167 0.139923 0.054304
0.233000 0.143130 0.057511
0.349138 0.146402 0.060784
0.466845 0.149719 0.064100
0.585749 0.153069 0.067450
0.705623 0.156446 0.070827
0.826315 0.159846 0.074228
0.021258 0.262569 0.062403
0.130339 0.265642 0.065476
0.244172 0.268849 0.068683
0.360310 0.272121 0.071955
0.478017 0.275438 0.075271
0.596920 0.278788 0.078621
0.716795 0.282165 0.081999
0.837486 0.285565 0.085399
0.032429 0.388288 0.073574
0.141510 0.391361 0.076647
0.255343 0.394568 0.079854
0.371481 0.397841 0.083127
0.489188 0.401157 0.086443
0.608092 0.404507 0.089793
0.727966 0.407884 0.093170
0.848658 0.411285 0.096571
0.043601 0.514007 0.084746
0.152682 0.517080 0.087819
0.266515 0.520288 0.091026
0.382653 0.523560 0.094298
0.500360 0.526876 0.097614
0.619263 0.530226 0.100964
0.739138 0.533603 0.104342
0.859829 0.537004 0.107742
0.054772 0.639726 0.095917
0.163853 0.642800 0.098990
0.277686 0.646007 0.102198
0.393824 0.649279 0.105470
0.511531 0.652595 0.108786
0.630435 0.655945 0.112136
0.750309 0.659322 0.115513
0.871001 0.662723 0.118914
0.065944 0.765445 0.107089
0.175025 0.768519 0.110162
0.288858 0.771726 0.113369
0.404996 0.774998 0.116641
0.522703 0.778314 0.119957
0.641606 0.781664 0.123307
0.761481 0.785042 0.126685
0.882172 0.788442 0.130085
0.077115 0.891165 0.118260
0.186196 0.894238 0.121333
0.300029 0.897445 0.124541
0.416167 0.900717 0.127813
0.533874 0.904033 0.131129
0.652778 0.907383 0.134479
0.772652 0.910761 0.137856
0.893344 0.914161 0.141257
0.000146 0.012362 0.166345
0.109227 0.015435 0.169418
0.223060 0.018642 0.172625
0.339198 0.021914 0.175897
0.456905 0.025231 0.179214
0.575809 0.028581 0.182564
0.695683 0.031958 0.185941
0.816374 0.035358 0.189341
0.011317 0.138081 0.177516
0.120398 0.141154 0.180590
0.234231 0.144361 0.183797
0.350369 0.147633 0.187069
0.468076 0.150950 0.190385
0.586980 0.154300 0.193735
0.706854 0.157677 0.197113
0.827546 0.161078 0.200513
0.022489 0.263800 0.188688
0.131570 0.266873 0.191761
0.245403 0.270081 0.194968
0.361541 0.273353 0.198240
0.479248 0.276669 0.201557
0.598152 0.280019 0.204907
0.718026 0.283396 0.208284
0.838717 0.286797 0.211684
0.033660 0.389519 0.199859
0.142741 0.392593 0.202933
0.256574 0.395800 0.206140
0.372712 0.399072 0.209412
0.490419 0.402388 0.212728
0.609323 0.405738 0.216078
0.729197 0.409115 0.219456
0.849889 0.412516 0.222856
0.044832 0.515238 0.211031
0.153913 0.518312 0.214104
0.267746 0.521519 0.217311
0.383884 0.524791 0.220583
0.501591 0.528107 0.223900
0.620495 0.531457 0.227250
0.740369 0.534835 0.230627
0.861060 0.538235 0.234027
0.056003 0.640958 0.222202
0.165084 0.644031 0.225276
0.278917 0.647238 0.228483
0.395055 0.650510 0.231755
0.512762 0.653826 0.235071
0.631666 0.657176 0.238421
0.751540 0.660554 0.241799
0.872232 0.663954 0.245199
0.067175 0.766677 0.233374
0.176256 0.769750 0.236447
0.290089 0.772957 0.239654
0.406227 0.776229 0.242926
0.523934 0.779545 0.246243
0.642838 0.782895 0.249593
0.762712 0.786273 0.252970
0.883403 0.789673 0.256370
0.078346 0.892396 0.244545
0.187427 0.895469 0.247619
0.301260 0.898676 0.250826
0.417398 0.901948 0.254098
0.535105 0.905265 0.257414
0.654009 0.908615 0.260764
0.773883 0.911992 0.264142
0.894575 0.915392 0.267542
0.001323 0.013539 0.287110
0.110404 0.016613 0.290183
0.224237 0.019820 0.293391
0.340375 0.023092 0.296663
0.458082 0.026408 0.299979
0.576986 0.029758 0.303329
0.696860 0.033135 0.306706
0.817552 0.036536 0.310107
0.012495 0.139258 0.298282
0.121576 0.142332 0.301355
0.235409 0.145539 0.304562
0.351547 0.148811 0.307834
0.469254 0.152127 0.311151
0.588157 0.155477 0.314501
0.708032 0.158855 0.317878
0.828723 0.162255 0.321278
0.023666 0.264978 0.309453
0.132747 0.268051 0.312527
0.246580 0.271258 0.315734
0.362718 0.274530 0.319006
0.480425 0.277846 0.322322
0.599329 0.281196 0.325672
0.719203 0.284574 0.329049
0.839895 0.287974 0.332450
0.034838 0.390697 0.320625
0.143919 0.393770 0.323698
0.257752 0.396977 0.326905
0.373890 0.400249 0.330177
0.491597 0.403565 0.333494
0.610501 0.406915 0.336844
0.730375 0.410293 0.340221
0.851066 0.413693 0.343621
0.046009 0.516416 0.331796
0.155090 0.519489 0.334870
0.268923 0.522696 0.338077
0.385061 0.525968 0.341349
0.502768 0.529285 0.344665
0.621672 0.532635 0.348015
0.741546 0.536012 0.351392
0.862238 0.539412 0.354793
0.057181 0.642135 0.342968
0.166262 0.645208 0.346041
0.280095 0.648415 0.349248
0.396233 0.651687 0.352520
0.513940 0.655004 0.355837
0.632844 0.658354 0.359187
0.752718 0.661731 0.362564
0.873409 0.665131 0.365964
0.068352 0.767854 0.354139
0.177433 0.770927 0.357213
0.291266 0.774134 0.360420
0.407404 0.777407 0.363692
0.525111 0.780723 0.367008
0.644015 0.784073 0.370358
0.763889 0.787450 0.373735
0.884581 0.790851 0.377136
0.079524 0.893573 0.365311
0.188605 0.896646 0.368384
0.302438 0.899854 0.371591
0.418576 0.903126 0.374863
0.536283 0.906442 0.378180
0.655187 0.909792 0.381530
0.775061 0.913169 0.384907
0.895752 0.916570 0.388307
0.002472 0.014688 0.404981
0.111553 0.017762 0.408055
0.225386 0.020969 0.411262
0.341524 0.024241 0.414534
0.459231 0.027557 0.417850
0.578135 0.030907 0.421200
0.698009 0.034285 0.424578
0.818701 0.037685 0.427978
0.013644 0.140408 0.416153
0.122725 0.143481 0.419226
0.236558 0.146688 0.422433
0.352696 0.149960 0.425706
0.470403 0.153276 0.429022
0.589307 0.156626 0.432372
0.709181 0.160004 0.435749
0.829872 0.163404 0.439150
0.024815 0.266127 0.427325
0.133896 0.269200 0.430398
0.247729 0.272407 0.433605
0.363867 0.275679 0.436877
0.481574 0.278995 0.440193
0.600478 0.282346 0.443543
0.720352 0.285723 0.446921
0.841044 0.289123 0.450321
0.035987 0.391846 0.438496
0.145068 0.394919 0.441569
0.258901 0.398126 0.444776
0.375039 0.401398 0.448049
0.492746 0.404715 0.451365
0.611650 0.408065 0.454715
0.731524 0.411442 0.458092
0.852216 0.414842 0.461493
0.047158 0.517565 0.449668
0.156239 0.520638 0.452741
0.270072 0.523845 0.455948
0.386210 0.527117 0.459220
0.503917 0.530434 0.462536
0.622821 0.533784 0.465886
0.742695 0.537161 0.469264
0.863387 0.540561 0.472664
0.058330 0.643284 0.460839
0.167411 0.646357 0.463912
0.281244 0.649565 0.467119
0.397382 0.652837 0.470392
0.515089 0.656153 0.473708
0.633993 0.659503 0.477058
0.753867 0.662880 0.480435
0.874559 0.666281 0.483836
0.069501 0.769003 0.472011
0.178583 0.772076 0.475084
0.292415 0.775284 0.478291
0.408554 0.778556 0.481563
0.526260 0.781872 0.484879
0.645164 0.785222 0.488229
0.765038 0.788599 0.491607
0.885730 0.792000 0.495007
0.080673 0.894722 0.483182
0.189754 0.897796 0.486255
0.303587 0.901003 0.489463
0.419725 0.904275 0.492735
0.537432 0.907591 0.496051
0.656336 0.910941 0.499401
0.776210 0.914319 0.502778
0.896902 0.917719 0.506179
0.003602 0.015818 0.520882
0.112683 0.018892 0.523955
0.226516 0.022099 0.527162
0.342654 0.025371 0.530434
0.460361 0.028687 0.533750
0.579265 0.032037 0.537100
0.699139 0.035415 0.540478
0.819831 0.038815 0.543878
0.014774 0.141538 0.532053
0.123855 0.144611 0.535126
0.237688 0.147818 0.538334
0.353826 0.151090 0.541606
0.471533 0.154406 0.544922
0.590437 0.157756 0.548272
0.710311 0.161134 0.551649
0.831002 0.164534 0.555050
0.025945 0.267257 0.543225
0.135026 0.270330 0.546298
0.248859 0.273537 0.549505
0.364997 0.276809 0.552777
0.482704 0.280125 0.556093
0.601608 0.283475 0.559443
0.721482 0.286853 0.562821
0.842174 0.290253 0.566221
0.037117 0.392976 0.554396
0.146198 0.396049 0.557469
0.260031 0.399256 0.560677
0.376169 0.402528 0.563949
0.493876 0.405845 0.567265
0.612780 0.409195 0.570615
0.732654 0.412572 0.573992
0.853345 0.415972 0.577393
0.048288 0.518695 0.565568
0.157369 0.521768 0.568641
0.271202 0.524975 0.571848
0.387340 0.528247 0.575120
0.505047 0.531564 0.578437
0.623951 0.534914 0.581787
0.743825 0.538291 0.585164
0.864517 0.541691 0.588564
0.059460 0.644414 0.576739
0.168541 0.647487 0.579813
0.282374 0.650694 0.583020
0.398512 0.653967 0.586292
0.516219 0.657283 0.589608
0.635123 0.660633 0.592958
0.754997 0.664010 0.596335
0.875689 0.667411 0.599736
0.070631 0.770133 0.587911
0.179712 0.773206 0.590984
0.293545 0.776414 0.594191
0.409683 0.779686 0.597463
0.527390 0.783002 0.600780
0.646294 0.786352 0.604130
0.766168 0.789729 0.607507
0.886860 0.793130 0.610907
0.081803 0.895852 0.599082
0.190884 0.898926 0.602156
0.304717 0.902133 0.605363
0.420855 0.905405 0.608635
0.538562 0.908721 0.611951
0.657466 0.912071 0.615301
0.777340 0.915448 0.618678
0.898032 0.918849 0.622079
0.004718 0.016934 0.635290
0.113799 0.020007 0.638363
0.227632 0.023214 0.641570
0.343770 0.026486 0.644842
0.461477 0.029803 0.648159
0.580381 0.033153 0.651509
0.700255 0.036530 0.654886
0.820946 0.039930 0.658286
0.015889 0.142653 0.646461
0.124970 0.145726 0.649535
0.238803 0.148933 0.652742
0.354941 0.152205 0.656014
0.472648 0.155522 0.659330
0.591552 0.158872 0.662680
0.711426 0.162249 0.666057
0.832118 0.165649 0.669458
0.027061 0.268372 0.657633
0.136142 0.271445 0.660706
0.249975 0.274653 0.663913
0.366113 0.277925 0.667185
0.483820 0.281241 0.670502
0.602724 0.284591 0.673852
0.722598 0.287968 0.677229
0.843289 0.291369 0.680629
0.038232 0.394091 0.668804
0.147313 0.397164 0.671878
0.261146 0.400372 0.675085
0.377284 0.403644 0.678357
0.494991 0.406960 0.681673
0.613895 0.410310 0.685023
0.733769 0.413687 0.688400
0.854461 0.417088 0.691801
0.049404 0.519810 0.679976
0.158485 0.522884 0.683049
0.272318 0.526091 0.686256
0.388456 0.529363 0.689528
0.506163 0.532679 0.692845
0.625067 0.536029 0.696195
0.744941 0.539406 0.699572
0.865632 0.542807 0.702972
0.060575 0.645529 0.691147
0.169656 0.648603 0.694221
0.283489 0.651810 0.697428
0.399627 0.655082 0.700700
0.517334 0.658398 0.704016
0.636238 0.661748 0.707366
0.756112 0.665126 0.710744
0.876804 0.668526 0.714144
0.071747 0.771249 0.702319
0.180828 0.774322 0.705392
0.294661 0.777529 0.708599
0.410799 0.780801 0.711871
0.528506 0.784117 0.715188
0.647410 0.787467 0.718538
0.767284 0.790845 0.721915
0.887975 0.794245 0.725315
0.082918 0.896968 0.713490
0.191999 0.900041 0.716564
0.305832 0.903248 0.719771
0.421970 0.906520 0.723043
0.539677 0.909837 0.726359
0.658581 0.913187 0.729709
0.778455 0.916564 0.733087
0.899147 0.919964 0.736487
0.005821 0.018038 0.748500
0.114903 0.021111 0.751573
0.228735 0.024318 0.754780
0.344874 0.027590 0.758052
0.462580 0.030906 0.761368
0.581484 0.034256 0.764718
0.701358 0.037634 0.768096
0.822050 0.041034 0.771496
0.016993 0.143757 0.759671
0.126074 0.146830 0.762744
0.239907 0.150037 0.765952
0.356045 0.153309 0.769224
0.473752 0.156625 0.772540
0.592656 0.159975 0.775890
0.712530 0.163353 0.779267
0.833222 0.166753 0.782668
0.028164 0.269476 0.770843
0.137246 0.272549 0.773916
0.251079 0.275756 0.777123
0.367217 0.279028 0.780395
0.484923 0.282345 0.783711
0.603827 0.285695 0.787061
0.723702 0.289072 0.790439
0.844393 0.292472 0.793839
0.039336 0.395195 0.782014
0.148417 0.398268 0.785087
0.262250 0.401475 0.788295
0.378388 0.404747 0.791567
0.496095 0.408064 0.794883
0.614999 0.411414 0.798233
0.734873 0.414791 0.801610
0.855565 0.418191 0.805011
0.050508 0.520914 0.793186
0.159589 0.523987 0.796259
0.273422 0.527194 0.799466
0.389560 0.530467 0.802738
0.507266 0.533783 0.806054
0.626170 0.537133 0.809404
0.746045 0.540510 0.812782
0.866736 0.543911 0.816182
0.061679 0.646633 0.804357
0.170760 0.649706 0.807430
0.284593 0.652914 0.810638
0.400731 0.656186 0.813910
0.518438 0.659502 0.817226
0.637342 0.662852 0.820576
0.757216 0.666229 0.823953
0.877908 0.669630 0.827354
0.072851 0.772352 0.815529
0.181932 0.775426 0.818602
0.295765 0.778633 0.821809
0.411903 0.781905 0.825081
0.529610 0.785221 0.828398
0.648513 0.788571 0.831748
0.768388 0.791948 0.835125
0.889079 0.795349 0.838525
0.084022 0.898071 0.826700
0.193103 0.901145 0.829773
0.306936 0.904352 0.832981
0.423074 0.907624 0.836253
0.540781 0.910940 0.839569
0.659685 0.914290 0.842919
0.779559 0.917668 0.846296
0.900251 0.921068 0.849697
0.006915 0.019132 0.860710
0.115997 0.022205 0.863783
0.229829 0.025412 0.866990
0.345968 0.028684 0.870262
0.463674 0.032000 0.873578
0.582578 0.035350 0.876928
0.702452 0.038728 0.880306
0.823144 0.042128 0.883706
0.018087 0.144851 0.871881
0.127168 0.147924 0.874954
0.241001 0.151131 0.878162
0.357139 0.154403 0.881434
0.474846 0.157719 0.884750
0.593750 0.161069 0.888100
0.713624 0.164447 0.891477
0.834316 0.167847 0.894878
0.029258 0.270570 0.883053
0.138340 0.273643 0.886126
0.252173 0.276850 0.889333
0.368311 0.280122 0.892605
0.486017 0.283439 0.895921
0.604921 0.286789 0.899271
0.724795 0.290166 0.902649
0.845487 0.293566 0.906049
0.040430 0.396289 0.894224
0.149511 0.399362 0.897297
0.263344 0.402569 0.900505
0.379482 0.405841 0.903777
0.497189 0.409158 0.907093
0.616093 0.412508 0.910443
0.735967 0.415885 0.913820
0.856659 0.419285 0.917221
0.051602 0.522008 0.905396
0.160683 0.525081 0.908469
0.274516 0.528288 0.911676
0.390654 0.531561 0.914948
0.508360 0.534877 0.918264
0.627264 0.538227 0.921614
0.747139 0.541604 0.924992
0.867830 0.545005 0.928392
0.062773 0.647727 0.916567
0.171854 0.650800 0.919640
0.285687 0.654008 0.922848
0.401825 0.657280 0.926120
0.519532 0.660596 0.929436
0.638436 0.663946 0.932786
0.758310 0.667323 0.936163
0.879002 0.670724 0.939564
0.073945 0.773446 0.927739
0.183026 0.776520 0.930812
0.296859 0.779727 0.934019
0.412997 0.782999 0.937291
0.530704 0.786315 0.940608
0.649607 0.789665 0.943958
0.769482 0.793042 0.947335
0.890173 0.796443 0.950735
0.085116 0.899165 0.938910
0.194197 0.902239 0.941984
0.308030 0.905446 0.945191
0.424168 0.908718 0.948463
0.541875 0.912034 0.951779
0.660779 0.915384 0.955129
0.780653 0.918762 0.958506
0.901345 0.922162 0.961907
