assets/luts/nordic.cube
# Beauty Camera 3D LUT
# Filter: Nordic (nordic)
# Category: Cool
TITLE "Nordic"
LUT_3D_SIZE 5
DOMAIN_MIN 0.000000 0.000000 0.000000
DOMAIN_MAX 0.903226 0.903226 0.903226
0.000000 0.011131 0.040060
0.193110 0.016602 0.045531
0.396652 0.022337 0.051265
0.604462 0.028191 0.057120
0.815143 0.034127 0.063056
0.018465 0.231139 0.059610
0.212661 0.236610 0.065081
0.416202 0.242345 0.070816
0.624012 0.248200 0.076670
0.834693 0.254136 0.082606
0.038015 0.451148 0.079160
0.232211 0.456619 0.084631
0.435752 0.462354 0.090366
0.643562 0.468208 0.096221
0.854243 0.474144 0.102156
0.057565 0.671156 0.098710
0.251761 0.676627 0.104181
0.455302 0.682362 0.109916
0.663112 0.688217 0.115771
0.873794 0.694153 0.121707
0.077115 0.891165 0.118260
0.271311 0.896636 0.123731
0.474853 0.902370 0.129466
0.682662 0.908225 0.135321
0.893344 0.914161 0.141257
0.001032 0.013248 0.257244
0.195228 0.018719 0.262715
0.398769 0.024454 0.268450
0.606579 0.030309 0.274305
0.817261 0.036245 0.280241
0.020582 0.233257 0.276794
0.214778 0.238728 0.282265
0.418320 0.244462 0.288000
0.626129 0.250317 0.293855
0.836811 0.256253 0.299791
0.040132 0.453265 0.296344
0.234328 0.458736 0.301816
0.437870 0.464471 0.307550
0.645680 0.470326 0.313405
0.856361 0.476262 0.319341
0.059682 0.673274 0.315894
0.253878 0.678745 0.321366
0.457420 0.684479 0.327100
0.665230 0.690334 0.332955
0.875911 0.696270 0.338891
0.079233 0.893282 0.335445
0.273428 0.898753 0.340916
0.476970 0.904488 0.346651
0.684780 0.910343 0.352505
0.895461 0.916279 0.358441
0.003039 0.015255 0.463142
0.197235 0.020727 0.468613
0.400777 0.026461 0.474348
0.608587 0.032316 0.480203
0.819268 0.038252 0.486139
0.022590 0.235264 0.482692
0.216785 0.240735 0.488163
0.420327 0.246470 0.493898
0.628137 0.252325 0.499753
0.838818 0.258260 0.505689
0.042140 0.455272 0.502242
0.236336 0.460744 0.507714
0.439877 0.466478 0.513448
0.647687 0.472333 0.519303
0.858368 0.478269 0.525239
0.061690 0.675281 0.521792
0.255886 0.680752 0.527264
0.459427 0.686487 0.532998
0.667237 0.692342 0.538853
0.877918 0.698277 0.544789
0.081240 0.895289 0.541343
0.275436 0.900761 0.546814
0.478977 0.906495 0.552549
0.686787 0.912350 0.558403
0.897469 0.918286 0.564339
0.004995 0.017211 0.663696
0.199191 0.022682 0.669167
0.402732 0.028417 0.674902
0.610542 0.034272 0.680756
0.821223 0.040207 0.686692
0.024545 0.237219 0.683246
0.218741 0.242691 0.688717
0.422282 0.248425 0.694452
0.630092 0.254280 0.700307
0.840773 0.260216 0.706242
0.044095 0.457228 0.702796
0.238291 0.462699 0.708267
0.441832 0.468434 0.714002
0.649642 0.474288 0.719857
0.860324 0.480224 0.725792
0.063645 0.677236 0.722346
0.257841 0.682708 0.727817
0.461383 0.688442 0.733552
0.669192 0.694297 0.739407
0.879874 0.700233 0.745343
0.083195 0.897245 0.741896
0.277391 0.902716 0.747368
0.480933 0.908451 0.753102
0.688743 0.914305 0.758957
0.899424 0.920241 0.764893
0.006915 0.019132 0.860710
0.201111 0.024603 0.866181
0.404653 0.030337 0.871916
0.612463 0.036192 0.877770
0.823144 0.042128 0.883706
0.026466 0.239140 0.880260
0.220661 0.244611 0.885731
0.424203 0.250346 0.891466
0.632013 0.256201 0.897321
0.842694 0.262137 0.903256
0.046016 0.459149 0.899810
0.240212 0.464620 0.905281
0.443753 0.470354 0.911016
0.651563 0.476209 0.916871
0.862244 0.482145 0.922806
0.065566 0.679157 0.919360
0.259762 0.684628 0.924831
0.463303 0.690363 0.930566
0.671113 0.696218 0.936421
0.881795 0.702154 0.942357
0.085116 0.899165 0.938910
0.279312 0.904637 0.944382
0.482853 0.910371 0.950116
0.690663 0.916226 0.955971
0.901345 0.922162 0.961907
