assets/luts/nordic.cube
# Beauty Camera 3D LUT
# Filter: Nordic (nordic)
# Category: Cool
TITLE "Nordic"
LUT_3D_SIZE 32
DOMAIN_MIN 0.0 0.0 0.0
DOMAIN_MAX 1.0 1.0 1.0
0.000000 0.011131 0.040060
0.025332 0.011875 0.040804
0.052483 0.012640 0.041569
0.080078 0.013417 0.042346
0.107996 0.014204 0.043133
0.136167 0.014998 0.043927
0.164549 0.015797 0.044726
0.193110 0.016602 0.045531
0.221829 0.017411 0.046340
0.250686 0.018224 0.047153
0.279669 0.019041 0.047970
0.308765 0.019860 0.048789
0.337967 0.020683 0.049612
0.367264 0.021509 0.050437
0.396652 0.022337 0.051265
0.426123 0.023167 0.052096
0.455674 0.023999 0.052928
0.485298 0.024834 0.053763
0.514992 0.025671 0.054600
0.544753 0.026509 0.055438
0.574577 0.027349 0.056278
0.604462 0.028191 0.057120
0.634404 0.029035 0.057964
0.664401 0.029880 0.058809
0.694452 0.030727 0.059656
0.724553 0.031575 0.060504
0.754703 0.032424 0.061353
0.784900 0.033275 0.062204
0.815143 0.034127 0.063056
0.845430 0.034980 0.063909
0.875760 0.035835 0.064764
0.906131 0.036691 0.065620
0.001707 0.042560 0.042852
0.028125 0.043305 0.043597
0.055276 0.044070 0.044362
0.082871 0.044847 0.045139
0.110789 0.045634 0.045926
0.138960 0.046427 0.046719
0.167342 0.047227 0.047519
0.195903 0.048032 0.048324
0.224621 0.048841 0.049133
0.253479 0.049654 0.049946
0.282462 0.050470 0.050762
0.311558 0.051290 0.051582
0.340759 0.052113 0.052405
0.370057 0.052938 0.053230
0.399445 0.053766 0.054058
0.428916 0.054597 0.054889
0.458466 0.055429 0.055721
0.488091 0.056264 0.056556
0.517785 0.057100 0.057392
0.547546 0.057939 0.058231
0.577370 0.058779 0.059071
0.607255 0.059621 0.059913
0.637197 0.060465 0.060757
0.667194 0.061310 0.061602
0.697244 0.062157 0.062449
0.727346 0.063005 0.063297
0.757496 0.063854 0.064146
0.787693 0.064705 0.064997
0.817936 0.065557 0.065849
0.848223 0.066410 0.066702
0.878553 0.067265 0.067557
0.908924 0.068120 0.068412
0.004500 0.073990 0.045645
0.030918 0.074735 0.046390
0.058069 0.075499 0.047155
0.085664 0.076277 0.047932
0.113581 0.077063 0.048719
0.141753 0.077857 0.049512
0.170135 0.078657 0.050312
0.198696 0.079462 0.051117
0.227414 0.080271 0.051926
0.256272 0.081084 0.052739
0.285254 0.081900 0.053555
0.314351 0.082720 0.054375
0.343552 0.083543 0.055198
0.372850 0.084368 0.056023
0.402238 0.085196 0.056851
0.431709 0.086026 0.057682
0.461259 0.086859 0.058514
0.490884 0.087694 0.059349
0.520578 0.088530 0.060185
0.550339 0.089369 0.061024
0.580163 0.090209 0.061864
0.610048 0.091051 0.062706
0.639990 0.091895 0.063550
0.669987 0.092740 0.064395
0.700037 0.093586 0.065241
0.730138 0.094434 0.066090
0.760289 0.095284 0.066939
0.790486 0.096135 0.067790
0.820729 0.096987 0.068642
0.851016 0.097840 0.069495
0.881346 0.098695 0.070350
0.911716 0.099550 0.071205
0.007293 0.105420 0.048438
0.033711 0.106164 0.049182
0.060862 0.106929 0.049947
0.088457 0.107707 0.050725
0.116374 0.108493 0.051511
0.144546 0.109287 0.052305
0.172928 0.110087 0.053105
0.201489 0.110891 0.053909
0.230207 0.111700 0.054719
0.259065 0.112513 0.055532
0.288047 0.113330 0.056348
0.317144 0.114150 0.057168
0.346345 0.114973 0.057991
0.375643 0.115798 0.058816
0.405031 0.116626 0.059644
0.434502 0.117456 0.060474
0.464052 0.118289 0.061307
0.493676 0.119123 0.062142
0.523371 0.119960 0.062978
0.553132 0.120799 0.063817
0.582956 0.121639 0.064657
0.612840 0.122481 0.065499
0.642783 0.123324 0.066343
0.672780 0.124170 0.067188
0.702830 0.125016 0.068034
0.732931 0.125864 0.068882
0.763082 0.126714 0.069732
0.793279 0.127564 0.070583
0.823522 0.128417 0.071435
0.853809 0.129270 0.072288
0.884138 0.130124 0.073143
0.914509 0.130980 0.073998
0.010086 0.136850 0.051231
0.036504 0.137594 0.051975
0.063655 0.138359 0.052740
0.091250 0.139137 0.053518
0.119167 0.139923 0.054304
0.147339 0.140717 0.055098
0.175721 0.141516 0.055898
0.204282 0.142321 0.056702
0.233000 0.143130 0.057511
0.261857 0.143943 0.058324
0.290840 0.144760 0.059141
0.319937 0.145580 0.059961
0.349138 0.146402 0.060784
0.378436 0.147228 0.061609
0.407823 0.148056 0.062437
0.437295 0.148886 0.063267
0.466845 0.149719 0.064100
0.496469 0.150553 0.064934
0.526164 0.151390 0.065771
0.555925 0.152228 0.066610
0.585749 0.153069 0.067450
0.615633 0.153911 0.068292
0.645575 0.154754 0.069135
0.675573 0.155599 0.069981
0.705623 0.156446 0.070827
0.735724 0.157294 0.071675
0.765874 0.158143 0.072525
0.796072 0.158994 0.073375
0.826315 0.159846 0.074228
0.856602 0.160700 0.075081
0.886931 0.161554 0.075935
0.917302 0.162410 0.076791
0.012879 0.168280 0.054024
0.039297 0.169024 0.054768
0.066448 0.169789 0.055533
0.094043 0.170566 0.056311
0.121960 0.171353 0.057097
0.150132 0.172147 0.057891
0.178513 0.172946 0.058691
0.207075 0.173751 0.059495
0.235793 0.174560 0.060304
0.264650 0.175373 0.061117
0.293633 0.176190 0.061934
0.322730 0.177009 0.062754
0.351931 0.177832 0.063576
0.381229 0.178658 0.064402
0.410616 0.179485 0.065230
0.440088 0.180316 0.066060
0.469638 0.181148 0.066893
0.499262 0.181983 0.067727
0.528957 0.182820 0.068564
0.558718 0.183658 0.069402
0.588542 0.184498 0.070243
0.618426 0.185340 0.071085
0.648368 0.186184 0.071928
0.678366 0.187029 0.072773
0.708416 0.187876 0.073620
0.738517 0.188724 0.074468
0.768667 0.189573 0.075318
0.798865 0.190424 0.076168
0.829108 0.191276 0.077020
0.859395 0.192129 0.077874
0.889724 0.192984 0.078728
0.920095 0.193840 0.079584
0.015672 0.199709 0.056817
0.042090 0.200454 0.057561
0.069241 0.201219 0.058326
0.096836 0.201996 0.059104
0.124753 0.202783 0.059890
0.152924 0.203576 0.060684
0.181306 0.204376 0.061483
0.209868 0.205181 0.062288
0.238586 0.205990 0.063097
0.267443 0.206803 0.063910
0.296426 0.207619 0.064727
0.325523 0.208439 0.065547
0.354724 0.209262 0.066369
0.384022 0.210087 0.067195
0.413409 0.210915 0.068023
0.442881 0.211746 0.068853
0.472431 0.212578 0.069686
0.502055 0.213413 0.070520
0.531750 0.214249 0.071357
0.561510 0.215088 0.072195
0.591335 0.215928 0.073036
0.621219 0.216770 0.073878
0.651161 0.217614 0.074721
0.681159 0.218459 0.075566
0.711209 0.219305 0.076413
0.741310 0.220154 0.077261
0.771460 0.221003 0.078110
0.801658 0.221854 0.078961
0.831900 0.222706 0.079813
0.862187 0.223559 0.080667
0.892517 0.224414 0.081521
0.922888 0.225269 0.082377
0.018465 0.231139 0.059610
0.044882 0.231883 0.060354
0.072033 0.232648 0.061119
0.099628 0.233426 0.061896
0.127546 0.234212 0.062683
0.155717 0.235006 0.063477
0.184099 0.235806 0.064276
0.212661 0.236610 0.065081
0.241379 0.237420 0.065890
0.270236 0.238233 0.066703
0.299219 0.239049 0.067520
0.328316 0.239869 0.068339
0.357517 0.240692 0.069162
0.386815 0.241517 0.069988
0.416202 0.242345 0.070816
0.445674 0.243175 0.071646
0.475224 0.244008 0.072478
0.504848 0.244843 0.073313
0.534542 0.245679 0.074150
0.564303 0.246518 0.074988
0.594127 0.247358 0.075828
0.624012 0.248200 0.076670
0.653954 0.249043 0.077514
0.683951 0.249889 0.078359
0.714002 0.250735 0.079206
0.744103 0.251583 0.080054
0.774253 0.252433 0.080903
0.804450 0.253284 0.081754
0.834693 0.254136 0.082606
0.864980 0.254989 0.083460
0.895310 0.255843 0.084314
0.925681 0.256699 0.085170
0.021258 0.262569 0.062403
0.047675 0.263313 0.063147
0.074826 0.264078 0.063912
0.102421 0.264856 0.064689
0.130339 0.265642 0.065476
0.158510 0.266436 0.066270
0.186892 0.267236 0.067069
0.215453 0.268040 0.067874
0.244172 0.268849 0.068683
0.273029 0.269662 0.069496
0.302012 0.270479 0.070313
0.331108 0.271299 0.071132
0.360310 0.272121 0.071955
0.389607 0.272947 0.072780
0.418995 0.273775 0.073608
0.448466 0.274605 0.074439
0.478017 0.275438 0.075271
0.507641 0.276272 0.076106
0.537335 0.277109 0.076943
0.567096 0.277947 0.077781
0.596920 0.278788 0.078621
0.626805 0.279630 0.079463
0.656747 0.280473 0.080307
0.686744 0.281318 0.081152
0.716795 0.282165 0.081999
0.746896 0.283013 0.082847
0.777046 0.283863 0.083696
0.807243 0.284713 0.084547
0.837486 0.285565 0.085399
0.867773 0.286419 0.086252
0.898103 0.287273 0.087107
0.928474 0.288129 0.087963
0.024050 0.293999 0.065195
0.050468 0.294743 0.065940
0.077619 0.295508 0.066705
0.105214 0.296285 0.067482
0.133132 0.297072 0.068269
0.161303 0.297866 0.069062
0.189685 0.298665 0.069862
0.218246 0.299470 0.070667
0.246964 0.300279 0.071476
0.275822 0.301092 0.072289
0.304805 0.301909 0.073105
0.333901 0.302728 0.073925
0.363103 0.303551 0.074748
0.392400 0.304377 0.075573
0.421788 0.305205 0.076401
0.451259 0.306035 0.077232
0.480809 0.306867 0.078064
0.510434 0.307702 0.078899
0.540128 0.308539 0.079735
0.569889 0.309377 0.080574
0.599713 0.310217 0.081414
0.629598 0.311059 0.082256
0.659540 0.311903 0.083100
0.689537 0.312748 0.083945
0.719587 0.313595 0.084792
0.749689 0.314443 0.085640
0.779839 0.315292 0.086489
0.810036 0.316143 0.087340
0.840279 0.316995 0.088192
0.870566 0.317849 0.089045
0.900896 0.318703 0.089900
0.931267 0.319559 0.090755
0.026843 0.325428 0.067988
0.053261 0.326173 0.068733
0.080412 0.326938 0.069498
0.108007 0.327715 0.070275
0.135924 0.328502 0.071062
0.164096 0.329295 0.071855
0.192478 0.330095 0.072655
0.221039 0.330900 0.073460
0.249757 0.331709 0.074269
0.278615 0.332522 0.075082
0.307597 0.333338 0.075898
0.336694 0.334158 0.076718
0.365895 0.334981 0.077541
0.395193 0.335806 0.078366
0.424581 0.336634 0.079194
0.454052 0.337465 0.080025
0.483602 0.338297 0.080857
0.513227 0.339132 0.081692
0.542921 0.339969 0.082528
0.572682 0.340807 0.083367
0.602506 0.341647 0.084207
0.632391 0.342489 0.085049
0.662333 0.343333 0.085893
0.692330 0.344178 0.086738
0.722380 0.345025 0.087584
0.752482 0.345873 0.088433
0.782632 0.346722 0.089282
0.812829 0.347573 0.090133
0.843072 0.348425 0.090985
0.873359 0.349278 0.091838
0.903689 0.350133 0.092693
0.934059 0.350988 0.093548
0.029636 0.356858 0.070781
0.056054 0.357603 0.071525
0.083205 0.358368 0.072290
0.110800 0.359145 0.073068
0.138717 0.359932 0.073854
0.166889 0.360725 0.074648
0.195271 0.361525 0.075448
0.223832 0.362330 0.076252
0.252550 0.363139 0.077062
0.281408 0.363952 0.077875
0.310390 0.364768 0.078691
0.339487 0.365588 0.079511
0.368688 0.366411 0.080334
0.397986 0.367236 0.081159
0.427374 0.368064 0.081987
0.456845 0.368894 0.082817
0.486395 0.369727 0.083650
0.516019 0.370562 0.084485
0.545714 0.371398 0.085321
0.575475 0.372237 0.086160
0.605299 0.373077 0.087000
0.635184 0.373919 0.087842
0.665126 0.374763 0.088686
0.695123 0.375608 0.089531
0.725173 0.376454 0.090377
0.755274 0.377302 0.091225
0.785425 0.378152 0.092075
0.815622 0.379003 0.092926
0.845865 0.379855 0.093778
0.876152 0.380708 0.094631
0.906481 0.381563 0.095486
0.936852 0.382418 0.096341
0.032429 0.388288 0.073574
0.058847 0.389032 0.074318
0.085998 0.389797 0.075083
0.113593 0.390575 0.075861
0.141510 0.391361 0.076647
0.169682 0.392155 0.077441
0.198064 0.392955 0.078241
0.226625 0.393759 0.079045
0.255343 0.394568 0.079854
0.284201 0.395381 0.080668
0.313183 0.396198 0.081484
0.342280 0.397018 0.082304
0.371481 0.397841 0.083127
0.400779 0.398666 0.083952
0.430167 0.399494 0.084780
0.459638 0.400324 0.085610
0.489188 0.401157 0.086443
0.518812 0.401991 0.087277
0.548507 0.402828 0.088114
0.578268 0.403667 0.088953
0.608092 0.404507 0.089793
0.637976 0.405349 0.090635
0.667919 0.406192 0.091478
0.697916 0.407038 0.092324
0.727966 0.407884 0.093170
0.758067 0.408732 0.094018
0.788217 0.409582 0.094868
0.818415 0.410433 0.095719
0.848658 0.411285 0.096571
0.878945 0.412138 0.097424
0.909274 0.412992 0.098278
0.939645 0.413848 0.099134
0.035222 0.419718 0.076367
0.061640 0.420462 0.077111
0.088791 0.421227 0.077876
0.116386 0.422005 0.078654
0.144303 0.422791 0.079440
0.172475 0.423585 0.080234
0.200856 0.424384 0.081034
0.229418 0.425189 0.081838
0.258136 0.425998 0.082647
0.286993 0.426811 0.083460
0.315976 0.427628 0.084277
0.345073 0.428448 0.085097
0.374274 0.429270 0.085919
0.403572 0.430096 0.086745
0.432959 0.430924 0.087573
0.462431 0.431754 0.088403
0.491981 0.432587 0.089236
0.521605 0.433421 0.090070
0.551300 0.434258 0.090907
0.581061 0.435096 0.091745
0.610885 0.435937 0.092586
0.640769 0.436779 0.093428
0.670711 0.437622 0.094271
0.700709 0.438467 0.095116
0.730759 0.439314 0.095963
0.760860 0.440162 0.096811
0.791010 0.441011 0.097661
0.821208 0.441862 0.098511
0.851451 0.442714 0.099363
0.881738 0.443568 0.100217
0.912067 0.444422 0.101071
0.942438 0.445278 0.101927
0.038015 0.451148 0.079160
0.064433 0.451892 0.079904
0.091584 0.452657 0.080669
0.119179 0.453434 0.081447
0.147096 0.454221 0.082233
0.175268 0.455015 0.083027
0.203649 0.455814 0.083826
0.232211 0.456619 0.084631
0.260929 0.457428 0.085440
0.289786 0.458241 0.086253
0.318769 0.459058 0.087070
0.347866 0.459877 0.087890
0.377067 0.460700 0.088712
0.406365 0.461526 0.089538
0.435752 0.462354 0.090366
0.465224 0.463184 0.091196
0.494774 0.464016 0.092029
0.524398 0.464851 0.092863
0.554093 0.465688 0.093700
0.583853 0.466526 0.094538
0.613678 0.467366 0.095379
0.643562 0.468208 0.096221
0.673504 0.469052 0.097064
0.703502 0.469897 0.097909
0.733552 0.470744 0.098756
0.763653 0.471592 0.099604
0.793803 0.472441 0.100454
0.824001 0.473292 0.101304
0.854243 0.474144 0.102156
0.884530 0.474997 0.103010
0.914860 0.475852 0.103864
0.945231 0.476708 0.104720
0.040808 0.482577 0.081953
0.067226 0.483322 0.082697
0.094376 0.484087 0.083462
0.121971 0.484864 0.084239
0.149889 0.485651 0.085026
0.178060 0.486444 0.085820
0.206442 0.487244 0.086619
0.235004 0.488049 0.087424
0.263722 0.488858 0.088233
0.292579 0.489671 0.089046
0.321562 0.490487 0.089863
0.350659 0.491307 0.090682
0.379860 0.492130 0.091505
0.409158 0.492955 0.092331
0.438545 0.493783 0.093159
0.468017 0.494614 0.093989
0.497567 0.495446 0.094821
0.527191 0.496281 0.095656
0.556885 0.497117 0.096493
0.586646 0.497956 0.097331
0.616471 0.498796 0.098172
0.646355 0.499638 0.099013
0.676297 0.500482 0.099857
0.706294 0.501327 0.100702
0.736345 0.502174 0.101549
0.766446 0.503022 0.102397
0.796596 0.503871 0.103246
0.826793 0.504722 0.104097
0.857036 0.505574 0.104949
0.887323 0.506427 0.105803
0.917653 0.507282 0.106657
0.948024 0.508137 0.107513
0.043601 0.514007 0.084746
0.070018 0.514751 0.085490
0.097169 0.515516 0.086255
0.124764 0.516294 0.087032
0.152682 0.517080 0.087819
0.180853 0.517874 0.088613
0.209235 0.518674 0.089412
0.237796 0.519478 0.090217
0.266515 0.520288 0.091026
0.295372 0.521101 0.091839
0.324355 0.521917 0.092656
0.353451 0.522737 0.093475
0.382653 0.523560 0.094298
0.411950 0.524385 0.095124
0.441338 0.525213 0.095951
0.470809 0.526043 0.096782
0.500360 0.526876 0.097614
0.529984 0.527711 0.098449
0.559678 0.528547 0.099286
0.589439 0.529386 0.100124
0.619263 0.530226 0.100964
0.649148 0.531068 0.101806
0.679090 0.531912 0.102650
0.709087 0.532757 0.103495
0.739138 0.533603 0.104342
0.769239 0.534451 0.105190
0.799389 0.535301 0.106039
0.829586 0.536152 0.106890
0.859829 0.537004 0.107742
0.890116 0.537857 0.108595
0.920446 0.538712 0.109450
0.950817 0.539567 0.110306
0.046393 0.545437 0.087538
0.072811 0.546181 0.088283
0.099962 0.546946 0.089048
0.127557 0.547724 0.089825
0.155475 0.548510 0.090612
0.183646 0.549304 0.091405
0.212028 0.550104 0.092205
0.240589 0.550908 0.093010
0.269308 0.551717 0.093819
0.298165 0.552530 0.094632
0.327148 0.553347 0.095448
0.356244 0.554167 0.096268
0.385446 0.554989 0.097091
0.414743 0.555815 0.097916
0.444131 0.556643 0.098744
0.473602 0.557473 0.099575
0.503152 0.558306 0.100407
0.532777 0.559140 0.101242
0.562471 0.559977 0.102079
0.592232 0.560815 0.102917
0.622056 0.561656 0.103757
0.651941 0.562498 0.104599
0.681883 0.563341 0.105443
0.711880 0.564186 0.106288
0.741931 0.565033 0.107135
0.772032 0.565881 0.107983
0.802182 0.566731 0.108832
0.832379 0.567581 0.109683
0.862622 0.568433 0.110535
0.892909 0.569287 0.111388
0.923239 0.570141 0.112243
0.953610 0.570997 0.113098
0.049186 0.576867 0.090331
0.075604 0.577611 0.091076
0.102755 0.578376 0.091841
0.130350 0.579153 0.092618
0.158267 0.579940 0.093405
0.186439 0.580734 0.094198
0.214821 0.581533 0.094998
0.243382 0.582338 0.095803
0.272100 0.583147 0.096612
0.300958 0.583960 0.097425
0.329941 0.584777 0.098241
0.359037 0.585597 0.099061
0.388238 0.586419 0.099884
0.417536 0.587245 0.100709
0.446924 0.588073 0.101537
0.476395 0.588903 0.102368
0.505945 0.589736 0.103200
0.535570 0.590570 0.104035
0.565264 0.591407 0.104871
0.595025 0.592245 0.105710
0.624849 0.593086 0.106550
0.654734 0.593928 0.107392
0.684676 0.594771 0.108236
0.714673 0.595616 0.109081
0.744723 0.596463 0.109927
0.774825 0.597311 0.110776
0.804975 0.598160 0.111625
0.835172 0.599011 0.112476
0.865415 0.599863 0.113328
0.895702 0.600717 0.114181
0.926032 0.601571 0.115036
0.956402 0.602427 0.115891
0.051979 0.608297 0.093124
0.078397 0.609041 0.093869
0.105548 0.609806 0.094633
0.133143 0.610583 0.095411
0.161060 0.611370 0.096197
0.189232 0.612163 0.096991
0.217614 0.612963 0.097791
0.246175 0.613768 0.098596
0.274893 0.614577 0.099405
0.303751 0.615390 0.100218
0.332733 0.616207 0.101034
0.361830 0.617026 0.101854
0.391031 0.617849 0.102677
0.420329 0.618674 0.103502
0.449717 0.619502 0.104330
0.479188 0.620333 0.105160
0.508738 0.621165 0.105993
0.538363 0.622000 0.106828
0.568057 0.622837 0.107664
0.597818 0.623675 0.108503
0.627642 0.624515 0.109343
0.657527 0.625357 0.110185
0.687469 0.626201 0.111029
0.717466 0.627046 0.111874
0.747516 0.627893 0.112720
0.777617 0.628741 0.113568
0.807768 0.629590 0.114418
0.837965 0.630441 0.115269
0.868208 0.631293 0.116121
0.898495 0.632146 0.116974
0.928824 0.633001 0.117829
0.959195 0.633857 0.118684
0.054772 0.639726 0.095917
0.081190 0.640471 0.096661
0.108341 0.641236 0.097426
0.135936 0.642013 0.098204
0.163853 0.642800 0.098990
0.192025 0.643593 0.099784
0.220407 0.644393 0.100584
0.248968 0.645198 0.101388
0.277686 0.646007 0.102198
0.306544 0.646820 0.103011
0.335526 0.647636 0.103827
0.364623 0.648456 0.104647
0.393824 0.649279 0.105470
0.423122 0.650104 0.106295
0.452510 0.650932 0.107123
0.481981 0.651763 0.107953
0.511531 0.652595 0.108786
0.541155 0.653430 0.109621
0.570850 0.654266 0.110457
0.600611 0.655105 0.111296
0.630435 0.655945 0.112136
0.660319 0.656787 0.112978
0.690262 0.657631 0.113821
0.720259 0.658476 0.114667
0.750309 0.659322 0.115513
0.780410 0.660171 0.116361
0.810560 0.661020 0.117211
0.840758 0.661871 0.118062
0.871001 0.662723 0.118914
0.901288 0.663576 0.119767
0.931617 0.664431 0.120621
0.961988 0.665286 0.121477
0.057565 0.671156 0.098710
0.083983 0.671900 0.099454
0.111134 0.672665 0.100219
0.138729 0.673443 0.100997
0.166646 0.674229 0.101783
0.194818 0.675023 0.102577
0.223200 0.675823 0.103377
0.251761 0.676627 0.104181
0.280479 0.677436 0.104990
0.309336 0.678250 0.105803
0.338319 0.679066 0.106620
0.367416 0.679886 0.107440
0.396617 0.680709 0.108262
0.425915 0.681534 0.109088
0.455302 0.682362 0.109916
0.484774 0.683192 0.110746
0.514324 0.684025 0.111579
0.543948 0.684860 0.112413
0.573643 0.685696 0.113250
0.603404 0.686535 0.114089
0.633228 0.687375 0.114929
0.663112 0.688217 0.115771
0.693054 0.689060 0.116614
0.723052 0.689906 0.117459
0.753102 0.690752 0.118306
0.783203 0.691600 0.119154
0.813353 0.692450 0.120004
0.843551 0.693301 0.120854
0.873794 0.694153 0.121707
0.904081 0.695006 0.122560
0.934410 0.695860 0.123414
0.964781 0.696716 0.124270
0.060358 0.702586 0.101503
0.086776 0.703330 0.102247
0.113927 0.704095 0.103012
0.141522 0.704873 0.103790
0.169439 0.705659 0.104576
0.197611 0.706453 0.105370
0.225992 0.707252 0.106169
0.254554 0.708057 0.106974
0.283272 0.708866 0.107783
0.312129 0.709679 0.108596
0.341112 0.710496 0.109413
0.370209 0.711316 0.110233
0.399410 0.712138 0.111055
0.428708 0.712964 0.111881
0.458095 0.713792 0.112709
0.487567 0.714622 0.113539
0.517117 0.715455 0.114372
0.546741 0.716289 0.115206
0.576436 0.717126 0.116043
0.606196 0.717964 0.116881
0.636021 0.718805 0.117722
0.665905 0.719647 0.118564
0.695847 0.720490 0.119407
0.725845 0.721335 0.120252
0.755895 0.722182 0.121099
0.785996 0.723030 0.121947
0.816146 0.723880 0.122797
0.846344 0.724730 0.123647
0.876587 0.725582 0.124499
0.906873 0.726436 0.125353
0.937203 0.727290 0.126207
0.967574 0.728146 0.127063
0.063151 0.734016 0.104296
0.089569 0.734760 0.105040
0.116719 0.735525 0.105805
0.144314 0.736302 0.106582
0.172232 0.737089 0.107369
0.200403 0.737883 0.108163
0.228785 0.738682 0.108962
0.257347 0.739487 0.109767
0.286065 0.740296 0.110576
0.314922 0.741109 0.111389
0.343905 0.741926 0.112206
0.373002 0.742745 0.113026
0.402203 0.743568 0.113848
0.431501 0.744394 0.114674
0.460888 0.745222 0.115502
0.490360 0.746052 0.116332
0.519910 0.746884 0.117165
0.549534 0.747719 0.117999
0.579228 0.748556 0.118836
0.608989 0.749394 0.119674
0.638814 0.750234 0.120515
0.668698 0.751076 0.121357
0.698640 0.751920 0.122200
0.728638 0.752765 0.123045
0.758688 0.753612 0.123892
0.788789 0.754460 0.124740
0.818939 0.755309 0.125589
0.849136 0.756160 0.126440
0.879379 0.757012 0.127292
0.909666 0.757865 0.128146
0.939996 0.758720 0.129000
0.970367 0.759576 0.129856
0.065944 0.765445 0.107089
0.092361 0.766190 0.107833
0.119512 0.766955 0.108598
0.147107 0.767732 0.109375
0.175025 0.768519 0.110162
0.203196 0.769312 0.110956
0.231578 0.770112 0.111755
0.260140 0.770917 0.112560
0.288858 0.771726 0.113369
0.317715 0.772539 0.114182
0.346698 0.773355 0.114999
0.375794 0.774175 0.115818
0.404996 0.774998 0.116641
0.434294 0.775823 0.117467
0.463681 0.776651 0.118295
0.493152 0.777482 0.119125
0.522703 0.778314 0.119957
0.552327 0.779149 0.120792
0.582021 0.779985 0.121629
0.611782 0.780824 0.122467
0.641606 0.781664 0.123307
0.671491 0.782506 0.124149
0.701433 0.783350 0.124993
0.731430 0.784195 0.125838
0.761481 0.785042 0.126685
0.791582 0.785890 0.127533
0.821732 0.786739 0.128382
0.851929 0.787590 0.129233
0.882172 0.788442 0.130085
0.912459 0.789295 0.130938
0.942789 0.790150 0.131793
0.973160 0.791005 0.132649
0.068737 0.796875 0.109882
0.095154 0.797620 0.110626
0.122305 0.798384 0.111391
0.149900 0.799162 0.112168
0.177818 0.799948 0.112955
0.205989 0.800742 0.113748
0.234371 0.801542 0.114548
0.262932 0.802347 0.115353
0.291651 0.803156 0.116162
0.320508 0.803969 0.116975
0.349491 0.804785 0.117792
0.378587 0.805605 0.118611
0.407789 0.806428 0.119434
0.437086 0.807253 0.120259
0.466474 0.808081 0.121087
0.495945 0.808911 0.121918
0.525495 0.809744 0.122750
0.555120 0.810579 0.123585
0.584814 0.811415 0.124422
0.614575 0.812254 0.125260
0.644399 0.813094 0.126100
0.674284 0.813936 0.126942
0.704226 0.814780 0.127786
0.734223 0.815625 0.128631
0.764274 0.816471 0.129478
0.794375 0.817319 0.130326
0.824525 0.818169 0.131175
0.854722 0.819020 0.132026
0.884965 0.819872 0.132878
0.915252 0.820725 0.133731
0.945582 0.821580 0.134586
0.975953 0.822435 0.135442
0.071529 0.828305 0.112674
0.097947 0.829049 0.113419
0.125098 0.829814 0.114184
0.152693 0.830592 0.114961
0.180610 0.831378 0.115748
0.208782 0.832172 0.116541
0.237164 0.832972 0.117341
0.265725 0.833776 0.118146
0.294443 0.834585 0.118955
0.323301 0.835398 0.119768
0.352284 0.836215 0.120584
0.381380 0.837035 0.121404
0.410581 0.837857 0.122227
0.439879 0.838683 0.123052
0.469267 0.839511 0.123880
0.498738 0.840341 0.124711
0.528288 0.841174 0.125543
0.557913 0.842008 0.126378
0.587607 0.842845 0.127214
0.617368 0.843684 0.128053
0.647192 0.844524 0.128893
0.677077 0.845366 0.129735
0.707019 0.846209 0.130579
0.737016 0.847055 0.131424
0.767066 0.847901 0.132271
0.797168 0.848749 0.133119
0.827318 0.849599 0.133968
0.857515 0.850449 0.134819
0.887758 0.851302 0.135671
0.918045 0.852155 0.136524
0.948375 0.853009 0.137379
0.978746 0.853865 0.138234
0.074322 0.859735 0.115467
0.100740 0.860479 0.116212
0.127891 0.861244 0.116977
0.155486 0.862021 0.117754
0.183403 0.862808 0.118541
0.211575 0.863602 0.119334
0.239957 0.864401 0.120134
0.268518 0.865206 0.120939
0.297236 0.866015 0.121748
0.326094 0.866828 0.122561
0.355076 0.867645 0.123377
0.384173 0.868465 0.124197
0.413374 0.869287 0.125020
0.442672 0.870113 0.125845
0.472060 0.870941 0.126673
0.501531 0.871771 0.127503
0.531081 0.872604 0.128336
0.560706 0.873438 0.129171
0.590400 0.874275 0.130007
