assets/luts/peach.cube
# Beauty Camera 3D LUT
# Filter: Peach (peach)
# Category: Korean
TITLE "Peach"
LUT_3D_SIZE 8
DOMAIN_MIN 0.000000 0.000000 0.000000
DOMAIN_MAX 0.903226 0.903226 0.903226
0.028619 0.011691 0.009467
0.176561 0.011691 0.009467
0.319094 0.011691 0.009467
0.463372 0.011691 0.009467
0.606484 0.011691 0.009467
0.750394 0.011691 0.009467
0.860336 0.011691 0.009467
0.918310 0.011691 0.009467
0.028619 0.144248 0.009467
0.176561 0.144248 0.009467
0.319094 0.144248 0.009467
0.463372 0.144248 0.009467
0.606484 0.144248 0.009467
0.750394 0.144248 0.009467
0.860336 0.144248 0.009467
0.918310 0.144248 0.009467
0.028619 0.277325 0.009467
0.176561 0.277325 0.009467
0.319094 0.277325 0.009467
0.463372 0.277325 0.009467
0.606484 0.277325 0.009467
0.750394 0.277325 0.009467
0.860336 0.277325 0.009467
0.918310 0.277325 0.009467
0.028619 0.415021 0.009467
0.176561 0.415021 0.009467
0.319094 0.415021 0.009467
0.463372 0.415021 0.009467
0.606484 0.415021 0.009467
0.750394 0.415021 0.009467
0.860336 0.415021 0.009467
0.918310 0.415021 0.009467
0.028619 0.556898 0.009467
0.176561 0.556898 0.009467
0.319094 0.556898 0.009467
0.463372 0.556898 0.009467
0.606484 0.556898 0.009467
0.750394 0.556898 0.009467
0.860336 0.556898 0.009467
0.918310 0.556898 0.009467
0.028619 0.691852 0.009467
0.176561 0.691852 0.009467
0.319094 0.691852 0.009467
0.463372 0.691852 0.009467
0.606484 0.691852 0.009467
0.750394 0.691852 0.009467
0.860336 0.691852 0.009467
0.918310 0.691852 0.009467
0.028619 0.828736 0.009467
0.176561 0.828736 0.009467
0.319094 0.828736 0.009467
0.463372 0.828736 0.009467
0.606484 0.828736 0.009467
0.750394 0.828736 0.009467
0.860336 0.828736 0.009467
0.918310 0.828736 0.009467
0.028619 0.902015 0.009467
0.176561 0.902015 0.009467
0.319094 0.902015 0.009467
0.463372 0.902015 0.009467
0.606484 0.902015 0.009467
0.750394 0.902015 0.009467
0.860336 0.902015 0.009467
0.918310 0.902015 0.009467
0.028619 0.011691 0.128224
0.176561 0.011691 0.128224
0.319094 0.011691 0.128224
0.463372 0.011691 0.128224
0.606484 0.011691 0.128224
0.750394 0.011691 0.128224
0.860336 0.011691 0.128224
0.918310 0.011691 0.128224
0.028619 0.144248 0.128224
0.176561 0.144248 0.128224
0.319094 0.144248 0.128224
0.463372 0.144248 0.128224
0.606484 0.144248 0.128224
0.750394 0.144248 0.128224
0.860336 0.144248 0.128224
0.918310 0.144248 0.128224
0.028619 0.277325 0.128224
0.176561 0.277325 0.128224
0.319094 0.277325 0.128224
0.463372 0.250385 0.080298
0.606484 0.223623 0.056618
0.750394 0.277325 0.128224
0.860336 0.277325 0.128224
0.918310 0.277325 0.128224
0.028619 0.415021 0.128224
0.176561 0.415021 0.128224
0.319094 0.415021 0.128224
0.463372 0.415021 0.128224
0.606484 0.387062 0.056618
0.750394 0.359318 0.033062
0.860336 0.331784 0.009467
0.918310 0.322652 0.009467
0.028619 0.556898 0.128224
0.176561 0.556898 0.128224
0.319094 0.556898 0.128224
0.463372 0.556898 0.128224
0.606484 0.556898 0.128224
0.750394 0.556898 0.128224
0.860336 0.500227 0.009467
0.918310 0.485886 0.009467
0.028619 0.691852 0.128224
0.176561 0.691852 0.128224
0.319094 0.691852 0.128224
0.463372 0.691852 0.128224
0.606484 0.691852 0.128224
0.750394 0.691852 0.128224
0.860336 0.691852 0.128224
0.918310 0.647905 0.009467
0.028619 0.828736 0.128224
0.176561 0.828736 0.128224
0.319094 0.828736 0.128224
0.463372 0.828736 0.128224
0.606484 0.828736 0.128224
0.750394 0.828736 0.128224
0.860336 0.828736 0.128224
0.918310 0.828736 0.128224
0.028619 0.902015 0.128224
0.176561 0.902015 0.128224
0.319094 0.902015 0.128224
0.463372 0.902015 0.128224
0.606484 0.902015 0.128224
0.750394 0.902015 0.128224
0.860336 0.902015 0.128224
0.918310 0.902015 0.128224
0.028619 0.011691 0.252098
0.176561 0.011691 0.252098
0.319094 0.011691 0.252098
0.463372 0.011691 0.252098
0.606484 0.011691 0.252098
0.750394 0.011691 0.252098
0.860336 0.011691 0.252098
0.918310 0.011691 0.252098
0.028619 0.144248 0.252098
0.176561 0.144248 0.252098
0.319094 0.144248 0.252098
0.463372 0.144248 0.252098
0.606484 0.144248 0.252098
0.750394 0.144248 0.252098
0.860336 0.144248 0.252098
0.918310 0.144248 0.252098
0.028619 0.277325 0.252098
0.176561 0.277325 0.252098
0.319094 0.277325 0.252098
0.463372 0.277325 0.252098
0.606484 0.277325 0.252098
0.750394 0.277325 0.252098
0.860336 0.277325 0.252098
0.918310 0.277325 0.252098
0.028619 0.415021 0.252098
0.176561 0.415021 0.252098
0.319094 0.415021 0.252098
0.463372 0.415021 0.252098
0.606484 0.387062 0.201809
0.750394 0.359318 0.177040
0.860336 0.415021 0.252098
0.918310 0.415021 0.252098
0.028619 0.556898 0.252098
0.176561 0.556898 0.252098
0.319094 0.556898 0.252098
0.463372 0.556898 0.252098
0.606484 0.556898 0.252098
0.750394 0.528761 0.177040
0.860336 0.500227 0.152514
0.918310 0.471601 0.128224
0.028619 0.691852 0.252098
0.176561 0.691852 0.252098
0.319094 0.691852 0.252098
0.463372 0.691852 0.252098
0.606484 0.691852 0.252098
0.750394 0.691852 0.252098
0.860336 0.691852 0.252098
0.918310 0.638993 0.128224
0.028619 0.828736 0.252098
0.176561 0.828736 0.252098
0.319094 0.828736 0.252098
0.463372 0.828736 0.252098
0.606484 0.828736 0.252098
0.750394 0.828736 0.252098
0.860336 0.828736 0.252098
0.918310 0.828736 0.252098
0.028619 0.902015 0.252098
0.176561 0.902015 0.252098
0.319094 0.902015 0.252098
0.463372 0.902015 0.252098
0.606484 0.902015 0.252098
0.750394 0.902015 0.252098
0.860336 0.902015 0.252098
0.918310 0.902015 0.252098
0.028619 0.011691 0.382351
0.176561 0.011691 0.382351
0.319094 0.011691 0.382351
0.463372 0.011691 0.382351
0.606484 0.011691 0.382351
0.750394 0.011691 0.382351
0.860336 0.011691 0.382351
0.918310 0.011691 0.382351
0.028619 0.144248 0.382351
0.176561 0.144248 0.382351
0.319094 0.144248 0.382351
0.463372 0.144248 0.382351
0.606484 0.144248 0.382351
0.750394 0.144248 0.382351
0.860336 0.144248 0.382351
0.918310 0.144248 0.382351
0.028619 0.277325 0.382351
0.176561 0.277325 0.382351
0.319094 0.277325 0.382351
0.463372 0.277325 0.382351
0.606484 0.277325 0.382351
0.750394 0.277325 0.382351
0.860336 0.277325 0.382351
0.918310 0.277325 0.382351
0.028619 0.415021 0.382351
0.176561 0.415021 0.382351
0.319094 0.415021 0.382351
0.463372 0.415021 0.382351
0.606484 0.415021 0.382351
0.750394 0.415021 0.382351
0.860336 0.415021 0.382351
0.918310 0.415021 0.382351
0.028619 0.556898 0.382351
0.176561 0.556898 0.382351
0.319094 0.556898 0.382351
0.463372 0.556898 0.382351
0.606484 0.556898 0.382351
0.750394 0.528761 0.329462
0.860336 0.500227 0.303413
0.918310 0.556898 0.382351
0.028619 0.691852 0.382351
0.176561 0.691852 0.382351
0.319094 0.691852 0.382351
0.463372 0.691852 0.382351
0.606484 0.691852 0.382351
0.750394 0.691852 0.382351
0.860336 0.665606 0.303413
0.918310 0.638993 0.277626
0.028619 0.828736 0.382351
0.176561 0.828736 0.382351
0.319094 0.828736 0.382351
0.463372 0.828736 0.382351
0.606484 0.828736 0.382351
0.750394 0.828736 0.382351
0.860336 0.828736 0.382351
0.918310 0.828736 0.382351
0.028619 0.902015 0.382351
0.176561 0.902015 0.382351
0.319094 0.902015 0.382351
0.463372 0.902015 0.382351
0.606484 0.902015 0.382351
0.750394 0.902015 0.382351
0.860336 0.902015 0.382351
0.918310 0.902015 0.382351
0.028619 0.011691 0.519102
0.176561 0.011691 0.519102
0.319094 0.011691 0.519102
0.463372 0.011691 0.519102
0.606484 0.011691 0.519102
0.750394 0.011691 0.519102
0.860336 0.011691 0.519102
0.918310 0.011691 0.519102
0.028619 0.144248 0.519102
0.176561 0.144248 0.519102
0.319094 0.144248 0.519102
0.463372 0.144248 0.519102
0.606484 0.144248 0.519102
0.750394 0.144248 0.519102
0.860336 0.144248 0.519102
0.918310 0.144248 0.519102
0.028619 0.277325 0.519102
0.176561 0.277325 0.519102
0.319094 0.277325 0.519102
0.463372 0.277325 0.519102
0.606484 0.277325 0.519102
0.750394 0.277325 0.519102
0.860336 0.277325 0.519102
0.918310 0.277325 0.519102
0.028619 0.415021 0.519102
0.176561 0.415021 0.519102
0.319094 0.415021 0.519102
0.463372 0.415021 0.519102
0.606484 0.415021 0.519102
0.750394 0.415021 0.519102
0.860336 0.415021 0.519102
0.918310 0.415021 0.519102
0.028619 0.556898 0.519102
0.176561 0.556898 0.519102
0.319094 0.556898 0.519102
0.463372 0.556898 0.519102
0.606484 0.556898 0.519102
0.750394 0.556898 0.519102
0.860336 0.556898 0.519102
0.918310 0.556898 0.519102
0.028619 0.691852 0.519102
0.176561 0.691852 0.519102
0.319094 0.691852 0.519102
0.463372 0.691852 0.519102
0.606484 0.691852 0.519102
0.750394 0.691852 0.519102
0.860336 0.665606 0.463681
0.918310 0.638993 0.436303
0.028619 0.828736 0.519102
0.176561 0.828736 0.519102
0.319094 0.828736 0.519102
0.463372 0.828736 0.519102
0.606484 0.828736 0.519102
0.750394 0.828736 0.519102
0.860336 0.828736 0.519102
0.918310 0.807568 0.436303
0.028619 0.902015 0.519102
0.176561 0.902015 0.519102
0.319094 0.902015 0.519102
0.463372 0.902015 0.519102
0.606484 0.902015 0.519102
0.750394 0.902015 0.519102
0.860336 0.902015 0.519102
0.918310 0.902015 0.519102
0.028619 0.011691 0.653310
0.176561 0.011691 0.653310
0.319094 0.011691 0.653310
0.463372 0.011691 0.653310
0.606484 0.011691 0.653310
0.750394 0.011691 0.653310
0.860336 0.011691 0.653310
0.918310 0.011691 0.653310
0.028619 0.144248 0.653310
0.176561 0.144248 0.653310
0.319094 0.144248 0.653310
0.463372 0.144248 0.653310
0.606484 0.144248 0.653310
0.750394 0.144248 0.653310
0.860336 0.144248 0.653310
0.918310 0.144248 0.653310
0.028619 0.277325 0.653310
0.176561 0.277325 0.653310
0.319094 0.277325 0.653310
0.463372 0.277325 0.653310
0.606484 0.277325 0.653310
0.750394 0.277325 0.653310
0.860336 0.277325 0.653310
0.918310 0.277325 0.653310
0.028619 0.415021 0.653310
0.176561 0.415021 0.653310
0.319094 0.415021 0.653310
0.463372 0.415021 0.653310
0.606484 0.415021 0.653310
0.750394 0.415021 0.653310
0.860336 0.415021 0.653310
0.918310 0.415021 0.653310
0.028619 0.556898 0.653310
0.176561 0.556898 0.653310
0.319094 0.556898 0.653310
0.463372 0.556898 0.653310
0.606484 0.556898 0.653310
0.750394 0.556898 0.653310
0.860336 0.556898 0.653310
0.918310 0.556898 0.653310
0.028619 0.691852 0.653310
0.176561 0.691852 0.653310
0.319094 0.691852 0.653310
0.463372 0.691852 0.653310
0.606484 0.691852 0.653310
0.750394 0.691852 0.653310
0.860336 0.691852 0.653310
0.918310 0.691852 0.653310
0.028619 0.828736 0.653310
0.176561 0.828736 0.653310
0.319094 0.828736 0.653310
0.463372 0.828736 0.653310
0.606484 0.828736 0.653310
0.750394 0.828736 0.653310
0.860336 0.828736 0.653310
0.918310 0.807568 0.600581
0.028619 0.902015 0.653310
0.176561 0.902015 0.653310
0.319094 0.902015 0.653310
0.463372 0.902015 0.653310
0.606484 0.902015 0.653310
0.750394 0.902015 0.653310
0.860336 0.902015 0.653310
0.918310 0.902015 0.653310
0.028619 0.011691 0.794700
0.176561 0.011691 0.794700
0.319094 0.011691 0.794700
0.463372 0.011691 0.794700
0.606484 0.011691 0.794700
0.750394 0.011691 0.794700
0.860336 0.011691 0.794700
0.918310 0.011691 0.794700
0.028619 0.144248 0.794700
0.176561 0.144248 0.794700
0.319094 0.144248 0.794700
0.463372 0.144248 0.794700
0.606484 0.144248 0.794700
0.750394 0.144248 0.794700
0.860336 0.144248 0.794700
0.918310 0.144248 0.794700
0.028619 0.277325 0.794700
0.176561 0.277325 0.794700
0.319094 0.277325 0.794700
0.463372 0.277325 0.794700
0.606484 0.277325 0.794700
0.750394 0.277325 0.794700
0.860336 0.277325 0.794700
0.918310 0.277325 0.794700
0.028619 0.415021 0.794700
0.176561 0.415021 0.794700
0.319094 0.415021 0.794700
0.463372 0.415021 0.794700
0.606484 0.415021 0.794700
0.750394 0.415021 0.794700
0.860336 0.415021 0.794700
0.918310 0.415021 0.794700
0.028619 0.556898 0.794700
0.176561 0.556898 0.794700
0.319094 0.556898 0.794700
0.463372 0.556898 0.794700
0.606484 0.556898 0.794700
0.750394 0.556898 0.794700
0.860336 0.556898 0.794700
0.918310 0.556898 0.794700
0.028619 0.691852 0.794700
0.176561 0.691852 0.794700
0.319094 0.691852 0.794700
0.463372 0.691852 0.794700
0.606484 0.691852 0.794700
0.750394 0.691852 0.794700
0.860336 0.691852 0.794700
0.918310 0.691852 0.794700
0.028619 0.828736 0.794700
0.176561 0.828736 0.794700
0.319094 0.828736 0.794700
0.463372 0.828736 0.794700
0.606484 0.828736 0.794700
0.750394 0.828736 0.794700
0.860336 0.828736 0.794700
0.918310 0.828736 0.794700
0.028619 0.902015 0.794700
0.176561 0.902015 0.794700
0.319094 0.902015 0.794700
0.463372 0.902015 0.794700
0.606484 0.902015 0.794700
0.750394 0.902015 0.794700
0.860336 0.902015 0.794700
0.918310 0.902015 0.794700
0.028619 0.011691 0.883313
0.176561 0.011691 0.883313
0.319094 0.011691 0.883313
0.463372 0.011691 0.883313
0.606484 0.011691 0.883313
0.750394 0.011691 0.883313
0.860336 0.011691 0.883313
0.918310 0.011691 0.883313
0.028619 0.144248 0.883313
0.176561 0.144248 0.883313
0.319094 0.144248 0.883313
0.463372 0.144248 0.883313
0.606484 0.144248 0.883313
0.750394 0.144248 0.883313
0.860336 0.144248 0.883313
0.918310 0.144248 0.883313
0.028619 0.277325 0.883313
0.176561 0.277325 0.883313
0.319094 0.277325 0.883313
0.463372 0.277325 0.883313
0.606484 0.277325 0.883313
0.750394 0.277325 0.883313
0.860336 0.277325 0.883313
0.918310 0.277325 0.883313
0.028619 0.415021 0.883313
0.176561 0.415021 0.883313
0.319094 0.415021 0.883313
0.463372 0.415021 0.883313
0.606484 0.415021 0.883313
0.750394 0.415021 0.883313
0.860336 0.415021 0.883313
0.918310 0.415021 0.883313
0.028619 0.556898 0.883313
0.176561 0.556898 0.883313
0.319094 0.556898 0.883313
0.463372 0.556898 0.883313
0.606484 0.556898 0.883313
0.750394 0.556898 0.883313
0.860336 0.556898 0.883313
0.918310 0.556898 0.883313
0.028619 0.691852 0.883313
0.176561 0.691852 0.883313
0.319094 0.691852 0.883313
0.463372 0.691852 0.883313
0.606484 0.691852 0.883313
0.750394 0.691852 0.883313
0.860336 0.691852 0.883313
0.918310 0.691852 0.883313
0.028619 0.828736 0.883313
0.176561 0.828736 0.883313
0.319094 0.828736 0.883313
0.463372 0.828736 0.883313
0.606484 0.828736 0.883313
0.750394 0.828736 0.883313
0.860336 0.828736 0.883313
0.918310 0.828736 0.883313
0.028619 0.902015 0.883313
0.176561 0.902015 0.883313
0.319094 0.902015 0.883313
0.463372 0.902015 0.883313
0.606484 0.902015 0.883313
0.750394 0.902015 0.883313
0.860336 0.902015 0.883313
0.918310 0.902015 0.883313
