assets/luts/peach.cube
# Beauty Camera 3D LUT
# Filter: Peach (peach)
# Category: Korean
TITLE "Peach"
LUT_3D_SIZE 5
DOMAIN_MIN 0.000000 0.000000 0.000000
DOMAIN_MAX 0.903226 0.903226 0.903226
0.028619 0.011691 0.009467
0.283403 0.011691 0.009467
0.536209 0.011691 0.009467
0.785060 0.011691 0.009467
0.918310 0.011691 0.009467
0.028619 0.243678 0.009467
0.283403 0.243678 0.009467
0.536209 0.243678 0.009467
0.785060 0.243678 0.009467
0.918310 0.243678 0.009467
0.028619 0.485886 0.009467
0.283403 0.485886 0.009467
0.536209 0.485886 0.009467
0.785060 0.485886 0.009467
0.918310 0.485886 0.009467
0.028619 0.732589 0.009467
0.283403 0.732589 0.009467
0.536209 0.732589 0.009467
0.785060 0.732589 0.009467
0.918310 0.732589 0.009467
0.028619 0.902015 0.009467
0.283403 0.902015 0.009467
0.536209 0.902015 0.009467
0.785060 0.902015 0.009467
0.918310 0.902015 0.009467
0.028619 0.011691 0.220549
0.283403 0.011691 0.220549
0.536209 0.011691 0.220549
0.785060 0.011691 0.220549
0.918310 0.011691 0.220549
0.028619 0.243678 0.220549
0.283403 0.243678 0.220549
0.536209 0.243678 0.220549
0.785060 0.243678 0.220549
0.918310 0.243678 0.220549
0.028619 0.485886 0.220549
0.283403 0.485886 0.220549
0.536209 0.485886 0.220549
0.785060 0.436134 0.134275
0.918310 0.387062 0.092203
0.028619 0.732589 0.220549
0.283403 0.732589 0.220549
0.536209 0.732589 0.220549
0.785060 0.732589 0.220549
0.918310 0.678775 0.092203
0.028619 0.902015 0.220549
0.283403 0.902015 0.220549
0.536209 0.902015 0.220549
0.785060 0.902015 0.220549
0.918310 0.902015 0.220549
0.028619 0.011691 0.449959
0.283403 0.011691 0.449959
0.536209 0.011691 0.449959
0.785060 0.011691 0.449959
0.918310 0.011691 0.449959
0.028619 0.243678 0.449959
0.283403 0.243678 0.449959
0.536209 0.243678 0.449959
0.785060 0.243678 0.449959
0.918310 0.243678 0.449959
0.028619 0.485886 0.449959
0.283403 0.485886 0.449959
0.536209 0.485886 0.449959
0.785060 0.485886 0.449959
0.918310 0.485886 0.449959
0.028619 0.732589 0.449959
0.283403 0.732589 0.449959
0.536209 0.732589 0.449959
0.785060 0.732589 0.449959
0.918310 0.678775 0.355774
0.028619 0.902015 0.449959
0.283403 0.902015 0.449959
0.536209 0.902015 0.449959
0.785060 0.902015 0.449959
0.918310 0.902015 0.449959
0.028619 0.011691 0.685626
0.283403 0.011691 0.685626
0.536209 0.011691 0.685626
0.785060 0.011691 0.685626
0.918310 0.011691 0.685626
0.028619 0.243678 0.685626
0.283403 0.243678 0.685626
0.536209 0.243678 0.685626
0.785060 0.243678 0.685626
0.918310 0.243678 0.685626
0.028619 0.485886 0.685626
0.283403 0.485886 0.685626
0.536209 0.485886 0.685626
0.785060 0.485886 0.685626
0.918310 0.485886 0.685626
0.028619 0.732589 0.685626
0.283403 0.732589 0.685626
0.536209 0.732589 0.685626
0.785060 0.732589 0.685626
0.918310 0.732589 0.685626
0.028619 0.902015 0.685626
0.283403 0.902015 0.685626
0.536209 0.902015 0.685626
0.785060 0.902015 0.685626
0.918310 0.902015 0.685626
0.028619 0.011691 0.883313
0.283403 0.011691 0.883313
0.536209 0.011691 0.883313
0.785060 0.011691 0.883313
0.918310 0.011691 0.883313
0.028619 0.243678 0.883313
0.283403 0.243678 0.883313
0.536209 0.243678 0.883313
0.785060 0.243678 0.883313
0.918310 0.243678 0.883313
0.028619 0.485886 0.883313
0.283403 0.485886 0.883313
0.536209 0.485886 0.883313
0.785060 0.485886 0.883313
0.918310 0.485886 0.883313
0.028619 0.732589 0.883313
0.283403 0.732589 0.883313
0.536209 0.732589 0.883313
0.785060 0.732589 0.883313
0.918310 0.732589 0.883313
0.028619 0.902015 0.883313
0.283403 0.902015 0.883313
0.536209 0.902015 0.883313
0.785060 0.902015 0.883313
0.918310 0.902015 0.883313
