assets/luts/peach.cube
# Beauty Camera 3D LUT
# Filter: Peach (peach)
# Category: Korean
TITLE "Peach"
LUT_3D_SIZE 32
DOMAIN_MIN 0.0 0.0 0.0
DOMAIN_MAX 1.0 1.0 1.0
0.028619 0.011691 0.009467
0.067496 0.011691 0.009467
0.104511 0.011691 0.009467
0.140732 0.011691 0.009467
0.176561 0.011691 0.009467
0.212206 0.011691 0.009467
0.247792 0.011691 0.009467
0.283403 0.011691 0.009467
0.319094 0.011691 0.009467
0.354909 0.011691 0.009467
0.390878 0.011691 0.009467
0.427026 0.011691 0.009467
0.463372 0.011691 0.009467
0.499932 0.011691 0.009467
0.536209 0.011691 0.009467
0.571717 0.011691 0.009467
0.606484 0.011691 0.009467
0.640535 0.011691 0.009467
0.673895 0.011691 0.009467
0.709259 0.011691 0.009467
0.750394 0.011691 0.009467
0.785060 0.011691 0.009467
0.814364 0.011691 0.009467
0.839209 0.011691 0.009467
0.860336 0.011691 0.009467
0.878350 0.011691 0.009467
0.893753 0.011691 0.009467
0.906959 0.011691 0.009467
0.918310 0.011691 0.009467
0.928091 0.011691 0.009467
0.936540 0.011691 0.009467
0.943857 0.011691 0.009467
0.028619 0.045672 0.009467
0.067496 0.045672 0.009467
0.104511 0.045672 0.009467
0.140732 0.045672 0.009467
0.176561 0.045672 0.009467
0.212206 0.045672 0.009467
0.247792 0.045672 0.009467
0.283403 0.045672 0.009467
0.319094 0.045672 0.009467
0.354909 0.045672 0.009467
0.390878 0.045672 0.009467
0.427026 0.045672 0.009467
0.463372 0.045672 0.009467
0.499932 0.045672 0.009467
0.536209 0.045672 0.009467
0.571717 0.045672 0.009467
0.606484 0.045672 0.009467
0.640535 0.045672 0.009467
0.673895 0.045672 0.009467
0.709259 0.045672 0.009467
0.750394 0.045672 0.009467
0.785060 0.045672 0.009467
0.814364 0.045672 0.009467
0.839209 0.045672 0.009467
0.860336 0.045672 0.009467
0.878350 0.045672 0.009467
0.893753 0.045672 0.009467
0.906959 0.045672 0.009467
0.918310 0.045672 0.009467
0.928091 0.045672 0.009467
0.936540 0.045672 0.009467
0.943857 0.045672 0.009467
0.028619 0.078673 0.009467
0.067496 0.078673 0.009467
0.104511 0.078673 0.009467
0.140732 0.078673 0.009467
0.176561 0.078673 0.009467
0.212206 0.078673 0.009467
0.247792 0.078673 0.009467
0.283403 0.078673 0.009467
0.319094 0.078673 0.009467
0.354909 0.078673 0.009467
0.390878 0.078673 0.009467
0.427026 0.078673 0.009467
0.463372 0.078673 0.009467
0.499932 0.078673 0.009467
0.536209 0.078673 0.009467
0.571717 0.078673 0.009467
0.606484 0.078673 0.009467
0.640535 0.078673 0.009467
0.673895 0.078673 0.009467
0.709259 0.078673 0.009467
0.750394 0.078673 0.009467
0.785060 0.078673 0.009467
0.814364 0.078673 0.009467
0.839209 0.078673 0.009467
0.860336 0.078673 0.009467
0.878350 0.078673 0.009467
0.893753 0.078673 0.009467
0.906959 0.078673 0.009467
0.918310 0.078673 0.009467
0.928091 0.078673 0.009467
0.936540 0.078673 0.009467
0.943857 0.078673 0.009467
0.028619 0.111452 0.009467
0.067496 0.111452 0.009467
0.104511 0.111452 0.009467
0.140732 0.111452 0.009467
0.176561 0.111452 0.009467
0.212206 0.111452 0.009467
0.247792 0.111452 0.009467
0.283403 0.111452 0.009467
0.319094 0.111452 0.009467
0.354909 0.111452 0.009467
0.390878 0.111452 0.009467
0.427026 0.111452 0.009467
0.463372 0.111452 0.009467
0.499932 0.111452 0.009467
0.536209 0.111452 0.009467
0.571717 0.111452 0.009467
0.606484 0.111452 0.009467
0.640535 0.111452 0.009467
0.673895 0.111452 0.009467
0.709259 0.111452 0.009467
0.750394 0.111452 0.009467
0.785060 0.111452 0.009467
0.814364 0.111452 0.009467
0.839209 0.111452 0.009467
0.860336 0.111452 0.009467
0.878350 0.111452 0.009467
0.893753 0.111452 0.009467
0.906959 0.111452 0.009467
0.918310 0.111452 0.009467
0.928091 0.111452 0.009467
0.936540 0.111452 0.009467
0.943857 0.111452 0.009467
0.028619 0.144248 0.009467
0.067496 0.144248 0.009467
0.104511 0.144248 0.009467
0.140732 0.144248 0.009467
0.176561 0.144248 0.009467
0.212206 0.144248 0.009467
0.247792 0.144248 0.009467
0.283403 0.144248 0.009467
0.319094 0.144248 0.009467
0.354909 0.144248 0.009467
0.390878 0.144248 0.009467
0.427026 0.144248 0.009467
0.463372 0.144248 0.009467
0.499932 0.144248 0.009467
0.536209 0.144248 0.009467
0.571717 0.144248 0.009467
0.606484 0.144248 0.009467
0.640535 0.144248 0.009467
0.673895 0.144248 0.009467
0.709259 0.144248 0.009467
0.750394 0.144248 0.009467
0.785060 0.144248 0.009467
0.814364 0.144248 0.009467
0.839209 0.144248 0.009467
0.860336 0.144248 0.009467
0.878350 0.144248 0.009467
0.893753 0.144248 0.009467
0.906959 0.144248 0.009467
0.918310 0.144248 0.009467
0.928091 0.144248 0.009467
0.936540 0.144248 0.009467
0.943857 0.144248 0.009467
0.028619 0.177176 0.009467
0.067496 0.177176 0.009467
0.104511 0.177176 0.009467
0.140732 0.177176 0.009467
0.176561 0.177176 0.009467
0.212206 0.177176 0.009467
0.247792 0.177176 0.009467
0.283403 0.177176 0.009467
0.319094 0.177176 0.009467
0.354909 0.177176 0.009467
0.390878 0.177176 0.009467
0.427026 0.177176 0.009467
0.463372 0.177176 0.009467
0.499932 0.177176 0.009467
0.536209 0.177176 0.009467
0.571717 0.177176 0.009467
0.606484 0.177176 0.009467
0.640535 0.177176 0.009467
0.673895 0.177176 0.009467
0.709259 0.177176 0.009467
0.750394 0.177176 0.009467
0.785060 0.177176 0.009467
0.814364 0.177176 0.009467
0.839209 0.177176 0.009467
0.860336 0.177176 0.009467
0.878350 0.177176 0.009467
0.893753 0.177176 0.009467
0.906959 0.177176 0.009467
0.918310 0.177176 0.009467
0.928091 0.177176 0.009467
0.936540 0.177176 0.009467
0.943857 0.177176 0.009467
0.028619 0.210305 0.009467
0.067496 0.210305 0.009467
0.104511 0.210305 0.009467
0.140732 0.210305 0.009467
0.176561 0.210305 0.009467
0.212206 0.210305 0.009467
0.247792 0.210305 0.009467
0.283403 0.210305 0.009467
0.319094 0.210305 0.009467
0.354909 0.210305 0.009467
0.390878 0.210305 0.009467
0.427026 0.210305 0.009467
0.463372 0.210305 0.009467
0.499932 0.210305 0.009467
0.536209 0.210305 0.009467
0.571717 0.210305 0.009467
0.606484 0.210305 0.009467
0.640535 0.210305 0.009467
0.673895 0.210305 0.009467
0.709259 0.210305 0.009467
0.750394 0.210305 0.009467
0.785060 0.210305 0.009467
0.814364 0.210305 0.009467
0.839209 0.210305 0.009467
0.860336 0.210305 0.009467
0.878350 0.210305 0.009467
0.893753 0.210305 0.009467
0.906959 0.210305 0.009467
0.918310 0.210305 0.009467
0.928091 0.210305 0.009467
0.936540 0.210305 0.009467
0.943857 0.210305 0.009467
0.028619 0.243678 0.009467
0.067496 0.243678 0.009467
0.104511 0.243678 0.009467
0.140732 0.243678 0.009467
0.176561 0.243678 0.009467
0.212206 0.243678 0.009467
0.247792 0.243678 0.009467
0.283403 0.243678 0.009467
0.319094 0.243678 0.009467
0.354909 0.243678 0.009467
0.390878 0.243678 0.009467
0.427026 0.243678 0.009467
0.463372 0.243678 0.009467
0.499932 0.243678 0.009467
0.536209 0.243678 0.009467
0.571717 0.243678 0.009467
0.606484 0.243678 0.009467
0.640535 0.243678 0.009467
0.673895 0.243678 0.009467
0.709259 0.243678 0.009467
0.750394 0.243678 0.009467
0.785060 0.243678 0.009467
0.814364 0.243678 0.009467
0.839209 0.243678 0.009467
0.860336 0.243678 0.009467
0.878350 0.243678 0.009467
0.893753 0.243678 0.009467
0.906959 0.243678 0.009467
0.918310 0.243678 0.009467
0.928091 0.243678 0.009467
0.936540 0.243678 0.009467
0.943857 0.243678 0.009467
0.028619 0.277325 0.009467
0.067496 0.277325 0.009467
0.104511 0.277325 0.009467
0.140732 0.277325 0.009467
0.176561 0.277325 0.009467
0.212206 0.277325 0.009467
0.247792 0.277325 0.009467
0.283403 0.277325 0.009467
0.319094 0.277325 0.009467
0.354909 0.277325 0.009467
0.390878 0.277325 0.009467
0.427026 0.277325 0.009467
0.463372 0.277325 0.009467
0.499932 0.277325 0.009467
0.536209 0.277325 0.009467
0.571717 0.277325 0.009467
0.606484 0.277325 0.009467
0.640535 0.277325 0.009467
0.673895 0.277325 0.009467
0.709259 0.277325 0.009467
0.750394 0.277325 0.009467
0.785060 0.277325 0.009467
0.814364 0.277325 0.009467
0.839209 0.277325 0.009467
0.860336 0.277325 0.009467
0.878350 0.277325 0.009467
0.893753 0.277325 0.009467
0.906959 0.277325 0.009467
0.918310 0.277325 0.009467
0.928091 0.277325 0.009467
0.936540 0.277325 0.009467
0.943857 0.277325 0.009467
0.028619 0.311269 0.009467
0.067496 0.311269 0.009467
0.104511 0.311269 0.009467
0.140732 0.311269 0.009467
0.176561 0.311269 0.009467
0.212206 0.311269 0.009467
0.247792 0.311269 0.009467
0.283403 0.311269 0.009467
0.319094 0.311269 0.009467
0.354909 0.311269 0.009467
0.390878 0.311269 0.009467
0.427026 0.311269 0.009467
0.463372 0.311269 0.009467
0.499932 0.311269 0.009467
0.536209 0.311269 0.009467
0.571717 0.311269 0.009467
0.606484 0.311269 0.009467
0.640535 0.311269 0.009467
0.673895 0.311269 0.009467
0.709259 0.311269 0.009467
0.750394 0.311269 0.009467
0.785060 0.311269 0.009467
0.814364 0.311269 0.009467
0.839209 0.311269 0.009467
0.860336 0.311269 0.009467
0.878350 0.311269 0.009467
0.893753 0.311269 0.009467
0.906959 0.311269 0.009467
0.918310 0.311269 0.009467
0.928091 0.311269 0.009467
0.936540 0.311269 0.009467
0.943857 0.311269 0.009467
0.028619 0.345525 0.009467
0.067496 0.345525 0.009467
0.104511 0.345525 0.009467
0.140732 0.345525 0.009467
0.176561 0.345525 0.009467
0.212206 0.345525 0.009467
0.247792 0.345525 0.009467
0.283403 0.345525 0.009467
0.319094 0.345525 0.009467
0.354909 0.345525 0.009467
0.390878 0.345525 0.009467
0.427026 0.345525 0.009467
0.463372 0.345525 0.009467
0.499932 0.345525 0.009467
0.536209 0.345525 0.009467
0.571717 0.345525 0.009467
0.606484 0.345525 0.009467
0.640535 0.345525 0.009467
0.673895 0.345525 0.009467
0.709259 0.345525 0.009467
0.750394 0.345525 0.009467
0.785060 0.345525 0.009467
0.814364 0.345525 0.009467
0.839209 0.345525 0.009467
0.860336 0.345525 0.009467
0.878350 0.345525 0.009467
0.893753 0.345525 0.009467
0.906959 0.345525 0.009467
0.918310 0.345525 0.009467
0.928091 0.345525 0.009467
0.936540 0.345525 0.009467
0.943857 0.345525 0.009467
0.028619 0.380106 0.009467
0.067496 0.380106 0.009467
0.104511 0.380106 0.009467
0.140732 0.380106 0.009467
0.176561 0.380106 0.009467
0.212206 0.380106 0.009467
0.247792 0.380106 0.009467
0.283403 0.380106 0.009467
0.319094 0.380106 0.009467
0.354909 0.380106 0.009467
0.390878 0.380106 0.009467
0.427026 0.380106 0.009467
0.463372 0.380106 0.009467
0.499932 0.380106 0.009467
0.536209 0.380106 0.009467
0.571717 0.380106 0.009467
0.606484 0.380106 0.009467
0.640535 0.380106 0.009467
0.673895 0.380106 0.009467
0.709259 0.380106 0.009467
0.750394 0.380106 0.009467
0.785060 0.380106 0.009467
0.814364 0.380106 0.009467
0.839209 0.380106 0.009467
0.860336 0.380106 0.009467
0.878350 0.380106 0.009467
0.893753 0.380106 0.009467
0.906959 0.380106 0.009467
0.918310 0.380106 0.009467
0.928091 0.380106 0.009467
0.936540 0.380106 0.009467
0.943857 0.380106 0.009467
0.028619 0.415021 0.009467
0.067496 0.415021 0.009467
0.104511 0.415021 0.009467
0.140732 0.415021 0.009467
0.176561 0.415021 0.009467
0.212206 0.415021 0.009467
0.247792 0.415021 0.009467
0.283403 0.415021 0.009467
0.319094 0.415021 0.009467
0.354909 0.415021 0.009467
0.390878 0.415021 0.009467
0.427026 0.415021 0.009467
0.463372 0.415021 0.009467
0.499932 0.415021 0.009467
0.536209 0.415021 0.009467
0.571717 0.415021 0.009467
0.606484 0.415021 0.009467
0.640535 0.415021 0.009467
0.673895 0.415021 0.009467
0.709259 0.415021 0.009467
0.750394 0.415021 0.009467
0.785060 0.415021 0.009467
0.814364 0.415021 0.009467
0.839209 0.415021 0.009467
0.860336 0.415021 0.009467
0.878350 0.415021 0.009467
0.893753 0.415021 0.009467
0.906959 0.415021 0.009467
0.918310 0.415021 0.009467
0.928091 0.415021 0.009467
0.936540 0.415021 0.009467
0.943857 0.415021 0.009467
0.028619 0.450279 0.009467
0.067496 0.450279 0.009467
0.104511 0.450279 0.009467
0.140732 0.450279 0.009467
0.176561 0.450279 0.009467
0.212206 0.450279 0.009467
0.247792 0.450279 0.009467
0.283403 0.450279 0.009467
0.319094 0.450279 0.009467
0.354909 0.450279 0.009467
0.390878 0.450279 0.009467
0.427026 0.450279 0.009467
0.463372 0.450279 0.009467
0.499932 0.450279 0.009467
0.536209 0.450279 0.009467
0.571717 0.450279 0.009467
0.606484 0.450279 0.009467
0.640535 0.450279 0.009467
0.673895 0.450279 0.009467
0.709259 0.450279 0.009467
0.750394 0.450279 0.009467
0.785060 0.450279 0.009467
0.814364 0.450279 0.009467
0.839209 0.450279 0.009467
0.860336 0.450279 0.009467
0.878350 0.450279 0.009467
0.893753 0.450279 0.009467
0.906959 0.450279 0.009467
0.918310 0.450279 0.009467
0.928091 0.450279 0.009467
0.936540 0.450279 0.009467
0.943857 0.450279 0.009467
0.028619 0.485886 0.009467
0.067496 0.485886 0.009467
0.104511 0.485886 0.009467
0.140732 0.485886 0.009467
0.176561 0.485886 0.009467
0.212206 0.485886 0.009467
0.247792 0.485886 0.009467
0.283403 0.485886 0.009467
0.319094 0.485886 0.009467
0.354909 0.485886 0.009467
0.390878 0.485886 0.009467
0.427026 0.485886 0.009467
0.463372 0.485886 0.009467
0.499932 0.485886 0.009467
0.536209 0.485886 0.009467
0.571717 0.485886 0.009467
0.606484 0.485886 0.009467
0.640535 0.485886 0.009467
0.673895 0.485886 0.009467
0.709259 0.485886 0.009467
0.750394 0.485886 0.009467
0.785060 0.485886 0.009467
0.814364 0.485886 0.009467
0.839209 0.485886 0.009467
0.860336 0.485886 0.009467
0.878350 0.485886 0.009467
0.893753 0.485886 0.009467
0.906959 0.485886 0.009467
0.918310 0.485886 0.009467
0.928091 0.485886 0.009467
0.936540 0.485886 0.009467
0.943857 0.485886 0.009467
0.028619 0.521665 0.009467
0.067496 0.521665 0.009467
0.104511 0.521665 0.009467
0.140732 0.521665 0.009467
0.176561 0.521665 0.009467
0.212206 0.521665 0.009467
0.247792 0.521665 0.009467
0.283403 0.521665 0.009467
0.319094 0.521665 0.009467
0.354909 0.521665 0.009467
0.390878 0.521665 0.009467
0.427026 0.521665 0.009467
0.463372 0.521665 0.009467
0.499932 0.521665 0.009467
0.536209 0.521665 0.009467
0.571717 0.521665 0.009467
0.606484 0.521665 0.009467
0.640535 0.521665 0.009467
0.673895 0.521665 0.009467
0.709259 0.521665 0.009467
0.750394 0.521665 0.009467
0.785060 0.521665 0.009467
0.814364 0.521665 0.009467
0.839209 0.521665 0.009467
0.860336 0.521665 0.009467
0.878350 0.521665 0.009467
0.893753 0.521665 0.009467
0.906959 0.521665 0.009467
0.918310 0.521665 0.009467
0.928091 0.521665 0.009467
0.936540 0.521665 0.009467
0.943857 0.521665 0.009467
0.028619 0.556898 0.009467
0.067496 0.556898 0.009467
0.104511 0.556898 0.009467
0.140732 0.556898 0.009467
0.176561 0.556898 0.009467
0.212206 0.556898 0.009467
0.247792 0.556898 0.009467
0.283403 0.556898 0.009467
0.319094 0.556898 0.009467
0.354909 0.556898 0.009467
0.390878 0.556898 0.009467
0.427026 0.556898 0.009467
0.463372 0.556898 0.009467
0.499932 0.556898 0.009467
0.536209 0.556898 0.009467
0.571717 0.556898 0.009467
0.606484 0.556898 0.009467
0.640535 0.556898 0.009467
0.673895 0.556898 0.009467
0.709259 0.556898 0.009467
0.750394 0.556898 0.009467
0.785060 0.556898 0.009467
0.814364 0.556898 0.009467
0.839209 0.556898 0.009467
0.860336 0.556898 0.009467
0.878350 0.556898 0.009467
0.893753 0.556898 0.009467
0.906959 0.556898 0.009467
0.918310 0.556898 0.009467
0.928091 0.556898 0.009467
0.936540 0.556898 0.009467
0.943857 0.556898 0.009467
0.028619 0.591521 0.009467
0.067496 0.591521 0.009467
0.104511 0.591521 0.009467
0.140732 0.591521 0.009467
0.176561 0.591521 0.009467
0.212206 0.591521 0.009467
0.247792 0.591521 0.009467
0.283403 0.591521 0.009467
0.319094 0.591521 0.009467
0.354909 0.591521 0.009467
0.390878 0.591521 0.009467
0.427026 0.591521 0.009467
0.463372 0.591521 0.009467
0.499932 0.591521 0.009467
0.536209 0.591521 0.009467
0.571717 0.591521 0.009467
0.606484 0.591521 0.009467
0.640535 0.591521 0.009467
0.673895 0.591521 0.009467
0.709259 0.591521 0.009467
0.750394 0.591521 0.009467
0.785060 0.591521 0.009467
0.814364 0.591521 0.009467
0.839209 0.591521 0.009467
0.860336 0.591521 0.009467
0.878350 0.591521 0.009467
0.893753 0.591521 0.009467
0.906959 0.591521 0.009467
0.918310 0.591521 0.009467
0.928091 0.591521 0.009467
0.936540 0.591521 0.009467
0.943857 0.591521 0.009467
0.028619 0.625547 0.009467
0.067496 0.625547 0.009467
0.104511 0.625547 0.009467
0.140732 0.625547 0.009467
0.176561 0.625547 0.009467
0.212206 0.625547 0.009467
0.247792 0.625547 0.009467
0.283403 0.625547 0.009467
0.319094 0.625547 0.009467
0.354909 0.625547 0.009467
0.390878 0.625547 0.009467
0.427026 0.625547 0.009467
0.463372 0.625547 0.009467
0.499932 0.625547 0.009467
0.536209 0.625547 0.009467
0.571717 0.625547 0.009467
0.606484 0.625547 0.009467
0.640535 0.625547 0.009467
0.673895 0.625547 0.009467
0.709259 0.625547 0.009467
0.750394 0.625547 0.009467
0.785060 0.625547 0.009467
0.814364 0.625547 0.009467
0.839209 0.625547 0.009467
0.860336 0.625547 0.009467
0.878350 0.625547 0.009467
0.893753 0.625547 0.009467
0.906959 0.625547 0.009467
0.918310 0.625547 0.009467
0.928091 0.625547 0.009467
0.936540 0.625547 0.009467
0.943857 0.625547 0.009467
0.028619 0.658988 0.009467
0.067496 0.658988 0.009467
0.104511 0.658988 0.009467
0.140732 0.658988 0.009467
0.176561 0.658988 0.009467
0.212206 0.658988 0.009467
0.247792 0.658988 0.009467
0.283403 0.658988 0.009467
0.319094 0.658988 0.009467
0.354909 0.658988 0.009467
0.390878 0.658988 0.009467
0.427026 0.658988 0.009467
0.463372 0.658988 0.009467
0.499932 0.658988 0.009467
0.536209 0.658988 0.009467
0.571717 0.658988 0.009467
0.606484 0.658988 0.009467
0.640535 0.658988 0.009467
0.673895 0.658988 0.009467
0.709259 0.658988 0.009467
0.750394 0.658988 0.009467
0.785060 0.658988 0.009467
0.814364 0.658988 0.009467
0.839209 0.658988 0.009467
0.860336 0.658988 0.009467
0.878350 0.658988 0.009467
0.893753 0.658988 0.009467
0.906959 0.658988 0.009467
0.918310 0.658988 0.009467
0.928091 0.658988 0.009467
0.936540 0.658988 0.009467
0.943857 0.658988 0.009467
0.028619 0.691852 0.009467
0.067496 0.691852 0.009467
0.104511 0.691852 0.009467
0.140732 0.691852 0.009467
0.176561 0.691852 0.009467
0.212206 0.691852 0.009467
0.247792 0.691852 0.009467
0.283403 0.691852 0.009467
0.319094 0.691852 0.009467
0.354909 0.691852 0.009467
0.390878 0.691852 0.009467
0.427026 0.691852 0.009467
0.463372 0.691852 0.009467
0.499932 0.691852 0.009467
0.536209 0.691852 0.009467
0.571717 0.691852 0.009467
0.606484 0.691852 0.009467
0.640535 0.691852 0.009467
0.673895 0.691852 0.009467
0.709259 0.691852 0.009467
0.750394 0.691852 0.009467
0.785060 0.691852 0.009467
0.814364 0.691852 0.009467
0.839209 0.691852 0.009467
0.860336 0.691852 0.009467
0.878350 0.691852 0.009467
0.893753 0.691852 0.009467
0.906959 0.691852 0.009467
0.918310 0.691852 0.009467
0.928091 0.691852 0.009467
0.936540 0.691852 0.009467
0.943857 0.691852 0.009467
0.028619 0.732589 0.009467
0.067496 0.732589 0.009467
0.104511 0.732589 0.009467
0.140732 0.732589 0.009467
0.176561 0.732589 0.009467
0.212206 0.732589 0.009467
0.247792 0.732589 0.009467
0.283403 0.732589 0.009467
0.319094 0.732589 0.009467
0.354909 0.732589 0.009467
0.390878 0.732589 0.009467
0.427026 0.732589 0.009467
0.463372 0.732589 0.009467
0.499932 0.732589 0.009467
0.536209 0.732589 0.009467
0.571717 0.732589 0.009467
0.606484 0.732589 0.009467
0.640535 0.732589 0.009467
0.673895 0.732589 0.009467
0.709259 0.732589 0.009467
0.750394 0.732589 0.009467
0.785060 0.732589 0.009467
0.814364 0.732589 0.009467
0.839209 0.732589 0.009467
0.860336 0.732589 0.009467
0.878350 0.732589 0.009467
0.893753 0.732589 0.009467
0.906959 0.732589 0.009467
0.918310 0.732589 0.009467
0.928091 0.732589 0.009467
0.936540 0.732589 0.009467
0.943857 0.732589 0.009467
0.028619 0.770099 0.009467
0.067496 0.770099 0.009467
0.104511 0.770099 0.009467
0.140732 0.770099 0.009467
0.176561 0.770099 0.009467
0.212206 0.770099 0.009467
0.247792 0.770099 0.009467
0.283403 0.770099 0.009467
0.319094 0.770099 0.009467
0.354909 0.770099 0.009467
0.390878 0.770099 0.009467
0.427026 0.770099 0.009467
0.463372 0.770099 0.009467
0.499932 0.770099 0.009467
0.536209 0.770099 0.009467
0.571717 0.770099 0.009467
0.606484 0.770099 0.009467
0.640535 0.770099 0.009467
0.673895 0.770099 0.009467
0.709259 0.770099 0.009467
0.750394 0.770099 0.009467
0.785060 0.770099 0.009467
0.814364 0.770099 0.009467
0.839209 0.770099 0.009467
0.860336 0.770099 0.009467
0.878350 0.770099 0.009467
0.893753 0.770099 0.009467
0.906959 0.770099 0.009467
0.918310 0.770099 0.009467
0.928091 0.770099 0.009467
0.936540 0.770099 0.009467
0.943857 0.770099 0.009467
0.028619 0.801828 0.009467
0.067496 0.801828 0.009467
0.104511 0.801828 0.009467
0.140732 0.801828 0.009467
0.176561 0.801828 0.009467
0.212206 0.801828 0.009467
0.247792 0.801828 0.009467
0.283403 0.801828 0.009467
0.319094 0.801828 0.009467
0.354909 0.801828 0.009467
0.390878 0.801828 0.009467
0.427026 0.801828 0.009467
0.463372 0.801828 0.009467
0.499932 0.801828 0.009467
0.536209 0.801828 0.009467
0.571717 0.801828 0.009467
0.606484 0.801828 0.009467
0.640535 0.801828 0.009467
0.673895 0.801828 0.009467
0.709259 0.801828 0.009467
0.750394 0.801828 0.009467
0.785060 0.801828 0.009467
0.814364 0.801828 0.009467
0.839209 0.801828 0.009467
0.860336 0.801828 0.009467
0.878350 0.801828 0.009467
0.893753 0.801828 0.009467
0.906959 0.801828 0.009467
0.918310 0.801828 0.009467
0.928091 0.801828 0.009467
0.936540 0.801828 0.009467
0.943857 0.801828 0.009467
0.028619 0.828736 0.009467
0.067496 0.828736 0.009467
0.104511 0.828736 0.009467
0.140732 0.828736 0.009467
0.176561 0.828736 0.009467
0.212206 0.828736 0.009467
0.247792 0.828736 0.009467
0.283403 0.828736 0.009467
0.319094 0.828736 0.009467
0.354909 0.828736 0.009467
0.390878 0.828736 0.009467
0.427026 0.828736 0.009467
0.463372 0.828736 0.009467
0.499932 0.828736 0.009467
0.536209 0.828736 0.009467
0.571717 0.828736 0.009467
0.606484 0.828736 0.009467
0.640535 0.828736 0.009467
0.673895 0.828736 0.009467
0.709259 0.828736 0.009467
0.750394 0.828736 0.009467
0.785060 0.828736 0.009467
0.814364 0.828736 0.009467
0.839209 0.828736 0.009467
0.860336 0.828736 0.009467
0.878350 0.828736 0.009467
0.893753 0.828736 0.009467
0.906959 0.828736 0.009467
0.918310 0.828736 0.009467
0.928091 0.828736 0.009467
0.936540 0.828736 0.009467
0.943857 0.828736 0.009467
0.028619 0.851610 0.009467
0.067496 0.851610 0.009467
0.104511 0.851610 0.009467
0.140732 0.851610 0.009467
0.176561 0.851610 0.009467
0.212206 0.851610 0.009467
0.247792 0.851610 0.009467
0.283403 0.851610 0.009467
0.319094 0.851610 0.009467
0.354909 0.851610 0.009467
0.390878 0.851610 0.009467
0.427026 0.851610 0.009467
0.463372 0.851610 0.009467
0.499932 0.851610 0.009467
0.536209 0.851610 0.009467
0.571717 0.851610 0.009467
0.606484 0.851610 0.009467
0.640535 0.851610 0.009467
0.673895 0.851610 0.009467
0.709259 0.851610 0.009467
0.750394 0.851610 0.009467
0.785060 0.851610 0.009467
0.814364 0.851610 0.009467
0.839209 0.851610 0.009467
0.860336 0.851610 0.009467
0.878350 0.851610 0.009467
0.893753 0.851610 0.009467
0.906959 0.851610 0.009467
0.918310 0.851610 0.009467
0.928091 0.851610 0.009467
0.936540 0.851610 0.009467
0.943857 0.851610 0.009467
0.028619 0.871104 0.009467
0.067496 0.871104 0.009467
0.104511 0.871104 0.009467
0.140732 0.871104 0.009467
0.176561 0.871104 0.009467
0.212206 0.871104 0.009467
0.247792 0.871104 0.009467
0.283403 0.871104 0.009467
0.319094 0.871104 0.009467
0.354909 0.871104 0.009467
0.390878 0.871104 0.009467
0.427026 0.871104 0.009467
0.463372 0.871104 0.009467
0.499932 0.871104 0.009467
0.536209 0.871104 0.009467
0.571717 0.871104 0.009467
0.606484 0.871104 0.009467
0.640535 0.871104 0.009467
0.673895 0.871104 0.009467
0.709259 0.871104 0.009467
0.750394 0.871104 0.009467
0.785060 0.871104 0.009467
0.814364 0.871104 0.009467
0.839209 0.871104 0.009467
0.860336 0.871104 0.009467
0.878350 0.871104 0.009467
0.893753 0.871104 0.009467
0.906959 0.871104 0.009467
0.918310 0.871104 0.009467
0.928091 0.871104 0.009467
0.936540 0.871104 0.009467
0.943857 0.871104 0.009467
0.028619 0.887757 0.009467
0.067496 0.887757 0.009467
0.104511 0.887757 0.009467
0.140732 0.887757 0.009467
0.176561 0.887757 0.009467
0.212206 0.887757 0.009467
0.247792 0.887757 0.009467
0.283403 0.887757 0.009467
0.319094 0.887757 0.009467
0.354909 0.887757 0.009467
0.390878 0.887757 0.009467
0.427026 0.887757 0.009467
0.463372 0.887757 0.009467
0.499932 0.887757 0.009467
0.536209 0.887757 0.009467
0.571717 0.887757 0.009467
0.606484 0.887757 0.009467
0.640535 0.887757 0.009467
0.673895 0.887757 0.009467
