assets/luts/pure.cube
# Beauty Camera 3D LUT
# Filter: Pure (pure)
# Category: Natural
TITLE "Pure"
LUT_3D_SIZE 5
DOMAIN_MIN 0.000000 0.000000 0.000000
DOMAIN_MAX 0.903226 0.903226 0.903226
0.024502 0.036649 0.051379
0.262706 0.038740 0.053470
0.479829 0.040647 0.055377
0.688878 0.042482 0.057212
0.880219 0.044273 0.059003
0.031405 0.275169 0.058281
0.269609 0.277261 0.060372
0.486731 0.279167 0.062279
0.695780 0.281003 0.064114
0.884092 0.282793 0.065905
0.037744 0.494234 0.064620
0.275948 0.496325 0.066712
0.493070 0.498232 0.068618
0.703012 0.500067 0.070454
0.887539 0.501858 0.072244
0.043853 0.707537 0.070729
0.282057 0.710435 0.072821
0.499179 0.713052 0.074727
0.711527 0.715549 0.076563
0.890763 0.717965 0.078353
0.049815 0.890348 0.076691
0.288018 0.891435 0.078782
0.505141 0.892416 0.080689
0.719602 0.893352 0.082524
0.893821 0.894258 0.084315
0.025213 0.037359 0.288201
0.263417 0.039451 0.290292
0.480539 0.041357 0.292199
0.689588 0.043193 0.294034
0.880624 0.044983 0.295825
0.032115 0.275879 0.295103
0.270319 0.277971 0.297195
0.487442 0.279877 0.299101
0.696490 0.281713 0.300937
0.884484 0.283504 0.302727
0.038454 0.494944 0.301442
0.276658 0.497036 0.303534
0.493781 0.498942 0.305440
0.704015 0.500778 0.307276
0.887919 0.502568 0.309066
0.044563 0.708524 0.307551
0.282767 0.711413 0.309643
0.499890 0.714021 0.311549
0.712501 0.716510 0.313385
0.891132 0.718917 0.315175
0.050525 0.890719 0.313513
0.288729 0.891802 0.315604
0.505851 0.892779 0.317511
0.720548 0.893712 0.319346
0.894179 0.894615 0.321137
0.025857 0.038003 0.503051
0.264061 0.040095 0.505143
0.481184 0.042001 0.507049
0.690232 0.043837 0.508885
0.880990 0.045628 0.510676
0.032759 0.276524 0.509954
0.270963 0.278615 0.512045
0.488086 0.280522 0.513952
0.697135 0.282357 0.515787
0.884838 0.284148 0.517578
0.039099 0.495588 0.516293
0.277302 0.497680 0.518384
0.494425 0.499586 0.520291
0.704922 0.501422 0.522126
0.888262 0.503213 0.523917
0.045208 0.709418 0.522402
0.283411 0.712297 0.524493
0.500534 0.714897 0.526400
0.713382 0.717378 0.528235
0.891466 0.719778 0.530026
0.051169 0.891053 0.528364
0.289373 0.892133 0.530455
0.506496 0.893108 0.532362
0.721405 0.894038 0.534197
0.894503 0.894938 0.535988
0.026474 0.038620 0.712017
0.264678 0.040711 0.714871
0.481800 0.042618 0.717448
0.690849 0.044453 0.719907
0.881338 0.046244 0.722285
0.033376 0.277140 0.721329
0.271580 0.279232 0.724091
0.488702 0.281138 0.726584
0.697751 0.282974 0.728963
0.885175 0.284764 0.731265
0.039715 0.496205 0.729615
0.277919 0.498296 0.732295
0.495042 0.500203 0.734714
0.705787 0.502038 0.737023
0.888589 0.503829 0.739256
0.045824 0.710269 0.737368
0.284028 0.713141 0.739970
0.501151 0.715733 0.742320
0.714222 0.718207 0.744563
0.891784 0.720599 0.746732
0.051786 0.891373 0.744719
0.289990 0.892449 0.747248
0.507112 0.893421 0.749533
0.722221 0.894349 0.751712
0.894813 0.895246 0.753820
0.027072 0.039218 0.888655
0.265276 0.041310 0.889758
0.482399 0.043216 0.890755
0.691447 0.045052 0.891705
0.881676 0.046843 0.892625
0.033974 0.277739 0.892255
0.272178 0.279830 0.893323
0.489301 0.281737 0.894287
0.698350 0.283572 0.895207
0.885502 0.285363 0.896097
0.040314 0.496803 0.895459
0.278517 0.498895 0.896495
0.495640 0.500801 0.897430
0.706624 0.502637 0.898323
0.888907 0.504428 0.899186
0.046423 0.711094 0.898456
0.284626 0.713957 0.899463
0.501749 0.716542 0.900371
0.715036 0.719009 0.901238
0.892092 0.721395 0.902077
0.052384 0.891682 0.901298
0.290588 0.892755 0.902277
0.507711 0.893725 0.903160
0.723012 0.894649 0.904003
0.895112 0.895544 0.904818
