assets/luts/pure.cube
# Beauty Camera 3D LUT
# Filter: Pure (pure)
# Category: Natural
TITLE "Pure"
LUT_3D_SIZE 8
DOMAIN_MIN 0.000000 0.000000 0.000000
DOMAIN_MAX 0.903226 0.903226 0.903226
0.024502 0.036649 0.051379
0.165328 0.037885 0.052615
0.294436 0.039019 0.053749
0.418826 0.040111 0.054841
0.540202 0.041177 0.055907
0.659371 0.042223 0.056953
0.791892 0.043254 0.057984
0.880219 0.044273 0.059003
0.028567 0.177098 0.055443
0.169392 0.178335 0.056679
0.298500 0.179468 0.057813
0.422890 0.180561 0.058905
0.544266 0.181626 0.059971
0.663435 0.182673 0.061017
0.795881 0.183704 0.062048
0.882515 0.184722 0.063067
0.032330 0.307159 0.059207
0.173156 0.308395 0.060443
0.302264 0.309529 0.061577
0.426653 0.310621 0.062669
0.548030 0.311687 0.063735
0.667199 0.312733 0.064781
0.799507 0.313764 0.065812
0.884602 0.314783 0.066831
0.035962 0.432655 0.062838
0.176788 0.433892 0.064075
0.305895 0.435025 0.065208
0.430285 0.436117 0.066300
0.551662 0.437183 0.067366
0.670831 0.438229 0.068413
0.802944 0.439261 0.069444
0.886580 0.440279 0.070462
0.039508 0.555190 0.066384
0.180333 0.556427 0.067621
0.309441 0.557560 0.068754
0.433831 0.558652 0.069846
0.555208 0.559718 0.070912
0.674376 0.560764 0.071958
0.806244 0.561796 0.072990
0.888479 0.562814 0.074008
0.042990 0.675540 0.069867
0.183816 0.676776 0.071103
0.312924 0.677910 0.072237
0.437314 0.679002 0.073329
0.558690 0.680068 0.074395
0.677859 0.681114 0.075441
0.809430 0.682145 0.076472
0.890314 0.683164 0.077491
0.046423 0.808403 0.073299
0.187249 0.809528 0.074536
0.316356 0.810554 0.075669
0.440746 0.811536 0.076762
0.562123 0.812490 0.077827
0.681292 0.813422 0.078874
0.812520 0.814336 0.079905
0.892092 0.815235 0.080923
0.049815 0.890348 0.076691
0.190640 0.890992 0.077927
0.319748 0.891579 0.079061
0.444138 0.892141 0.080153
0.565514 0.892687 0.081219
0.684683 0.893221 0.082265
0.815524 0.893744 0.083296
0.893821 0.894258 0.084315
0.024922 0.037068 0.191262
0.165748 0.038305 0.192498
0.294855 0.039438 0.193632
0.419245 0.040531 0.194724
0.540622 0.041596 0.195790
0.659791 0.042643 0.196836
0.792308 0.043674 0.197867
0.880458 0.044692 0.198886
0.028986 0.177518 0.195326
0.169812 0.178754 0.196563
0.298919 0.179888 0.197696
0.423309 0.180980 0.198788
0.544686 0.182046 0.199854
0.663855 0.183092 0.200901
0.796289 0.184123 0.201932
0.882750 0.185142 0.202950
0.032750 0.307578 0.199090
0.173576 0.308815 0.200326
0.302683 0.309948 0.201460
0.427073 0.311041 0.202552
0.548450 0.312106 0.203618
0.667619 0.313153 0.204664
0.799907 0.314184 0.205695
0.884832 0.315203 0.206714
0.036382 0.433075 0.202721
0.177207 0.434311 0.203958
0.306315 0.435445 0.205091
0.430705 0.436537 0.206184
0.552081 0.437603 0.207249
0.671250 0.438649 0.208296
0.803338 0.439680 0.209327
0.886807 0.440699 0.210345
0.039927 0.555610 0.206267
0.180753 0.556846 0.207504
0.309861 0.557980 0.208637
0.434250 0.559072 0.209730
0.555627 0.560138 0.210795
0.674796 0.561184 0.211842
0.806630 0.562215 0.212873
0.888702 0.563234 0.213891
0.043410 0.675959 0.209750
0.184236 0.677196 0.210986
0.313343 0.678329 0.212120
0.437733 0.679421 0.213212
0.559110 0.680487 0.214278
0.678279 0.681534 0.215324
0.809811 0.682565 0.216355
0.890533 0.683583 0.217374
0.046843 0.808786 0.213182
0.187668 0.809908 0.214419
0.316776 0.810932 0.215553
0.441166 0.811912 0.216645
0.562542 0.812865 0.217711
0.681711 0.813795 0.218757
0.812894 0.814707 0.219788
0.892307 0.815603 0.220807
0.050234 0.890567 0.216574
0.191060 0.891210 0.217810
0.320167 0.891795 0.218944
0.444557 0.892357 0.220036
0.565934 0.892901 0.221102
0.685103 0.893434 0.222148
0.815892 0.893956 0.223179
0.894033 0.894469 0.224198
0.025307 0.037453 0.319704
0.166133 0.038690 0.320941
0.295240 0.039824 0.322074
0.419630 0.040916 0.323167
0.541007 0.041982 0.324232
0.660176 0.043028 0.325279
0.792688 0.044059 0.326310
0.880677 0.045078 0.327328
0.029372 0.177903 0.323769
0.170197 0.179140 0.325005
0.299305 0.180273 0.326139
0.423695 0.181365 0.327231
0.545071 0.182431 0.328297
0.664240 0.183478 0.329343
0.796662 0.184509 0.330374
0.882965 0.185527 0.331393
0.033135 0.307964 0.327532
0.173961 0.309200 0.328769
0.303068 0.310334 0.329902
0.427458 0.311426 0.330995
0.548835 0.312492 0.332060
0.668004 0.313538 0.333107
0.800274 0.314569 0.334138
0.885043 0.315588 0.335156
0.036767 0.433460 0.331164
0.177592 0.434696 0.332400
0.306700 0.435830 0.333534
0.431090 0.436922 0.334626
0.552466 0.437988 0.335692
0.671635 0.439034 0.336738
0.803698 0.440065 0.337769
0.887014 0.441084 0.338788
0.040313 0.555995 0.334710
0.181138 0.557231 0.335946
0.310246 0.558365 0.337080
0.434636 0.559457 0.338172
0.556012 0.560523 0.339238
0.675181 0.561569 0.340284
0.806985 0.562600 0.341315
0.888906 0.563619 0.342334
0.043795 0.676344 0.338192
0.184621 0.677581 0.339429
0.313728 0.678714 0.340562
0.438118 0.679807 0.341655
0.559495 0.680872 0.342720
0.678664 0.681919 0.343767
0.810159 0.682950 0.344798
0.890733 0.683968 0.345816
0.047228 0.809136 0.341625
0.188054 0.810257 0.342861
0.317161 0.811278 0.343995
0.441551 0.812257 0.345087
0.562928 0.813208 0.346153
0.682097 0.814136 0.347199
0.813237 0.815046 0.348231
0.892505 0.815941 0.349249
0.050619 0.890768 0.345016
0.191445 0.891409 0.346253
0.320553 0.891994 0.347387
0.444942 0.892554 0.348479
0.566319 0.893098 0.349544
0.685488 0.893629 0.350591
0.816229 0.894150 0.351622
0.894227 0.894662 0.352641
0.025677 0.037823 0.442848
0.166502 0.039059 0.444084
0.295610 0.040193 0.445218
0.420000 0.041285 0.446310
0.541376 0.042351 0.447376
0.660545 0.043397 0.448422
0.793053 0.044428 0.449453
0.880887 0.045447 0.450472
0.029741 0.178272 0.446912
0.170567 0.179509 0.448149
0.299674 0.180643 0.449282
0.424064 0.181735 0.450374
0.545441 0.182800 0.451440
0.664610 0.183847 0.452487
0.797019 0.184878 0.453518
0.883170 0.185897 0.454536
0.033505 0.308333 0.450676
0.174330 0.309569 0.451912
0.303438 0.310703 0.453046
0.427828 0.311795 0.454138
0.549204 0.312861 0.455204
0.668373 0.313907 0.456250
0.800625 0.314939 0.457281
0.885245 0.315957 0.458300
0.037136 0.433829 0.454307
0.177962 0.435066 0.455544
0.307069 0.436199 0.456677
0.431459 0.437292 0.457770
0.552836 0.438357 0.458835
0.672005 0.439404 0.459882
0.804043 0.440435 0.460913
0.887213 0.441453 0.461931
0.040682 0.556364 0.457853
0.181508 0.557601 0.459090
0.310615 0.558734 0.460223
0.435005 0.559827 0.461315
0.556382 0.560892 0.462381
0.675551 0.561939 0.463428
0.807324 0.562970 0.464459
0.889101 0.563988 0.465477
0.044165 0.676714 0.461336
0.184990 0.677950 0.462572
0.314098 0.679084 0.463706
0.438488 0.680176 0.464798
0.559864 0.681242 0.465864
0.679033 0.682288 0.466910
0.810493 0.683319 0.467941
0.890925 0.684338 0.468960
0.047597 0.809472 0.464768
0.188423 0.810590 0.466005
0.317530 0.811610 0.467139
0.441920 0.812587 0.468231
0.563297 0.813536 0.469297
0.682466 0.814463 0.470343
0.813565 0.815371 0.471374
0.892694 0.816265 0.472393
0.050989 0.890960 0.468160
0.191814 0.891600 0.469396
0.320922 0.892183 0.470530
0.445312 0.892743 0.471622
0.566688 0.893286 0.472688
0.685857 0.893816 0.473734
0.816552 0.894336 0.474765
0.894413 0.894847 0.475784
0.026036 0.038182 0.562526
0.166861 0.039418 0.563762
0.295969 0.040552 0.564896
0.420359 0.041644 0.565988
0.541735 0.042710 0.567054
0.660904 0.043756 0.568100
0.793406 0.044787 0.569131
0.881091 0.045806 0.570150
0.030100 0.178631 0.566590
0.170925 0.179868 0.567826
0.300033 0.181001 0.568960
0.424423 0.182094 0.570052
0.545800 0.183159 0.571118
0.664968 0.184206 0.572164
0.797366 0.185237 0.573195
0.883370 0.186255 0.574214
0.033863 0.308692 0.570354
0.174689 0.309928 0.571590
0.303797 0.311062 0.572724
0.428187 0.312154 0.573816
0.549563 0.313220 0.574882
0.668732 0.314266 0.575928
0.800965 0.315297 0.576959
0.885441 0.316316 0.577978
0.037495 0.434188 0.573985
0.178321 0.435425 0.575222
0.307428 0.436558 0.576355
0.431818 0.437650 0.577447
0.553195 0.438716 0.578513
0.672364 0.439763 0.579560
0.804378 0.440794 0.580591
0.887405 0.441812 0.581609
0.041041 0.556723 0.577531
0.181867 0.557960 0.578767
0.310974 0.559093 0.579901
0.435364 0.560185 0.580993
0.556741 0.561251 0.582059
0.675910 0.562298 0.583105
0.807653 0.563329 0.584137
0.889291 0.564347 0.585155
0.044524 0.677073 0.581014
0.185349 0.678309 0.582250
0.314457 0.679443 0.583384
0.438847 0.680535 0.584476
0.560223 0.681601 0.585542
0.679392 0.682647 0.586588
0.810817 0.683678 0.587619
0.891112 0.684697 0.588638
0.047956 0.809797 0.584446
0.188782 0.810914 0.585683
0.317889 0.811932 0.586816
0.442279 0.812907 0.587909
0.563656 0.813854 0.588974
0.682825 0.814779 0.590021
0.813884 0.815687 0.591052
0.892877 0.816579 0.592070
0.051348 0.891146 0.587838
0.192173 0.891785 0.589074
0.321281 0.892368 0.590208
0.445671 0.892926 0.591300
0.567047 0.893468 0.592366
0.686216 0.893997 0.593412
0.816865 0.894517 0.594443
0.894593 0.895027 0.595462
0.026387 0.038533 0.679640
0.167212 0.039770 0.680876
0.296320 0.040903 0.682010
0.420710 0.041995 0.683102
0.542087 0.043061 0.684168
0.661255 0.044108 0.685214
0.793751 0.045139 0.686245
0.881289 0.046157 0.687264
0.030451 0.178983 0.683704
0.171277 0.180219 0.684940
0.300384 0.181353 0.686074
0.424774 0.182445 0.687166
0.546151 0.183511 0.688232
0.665320 0.184557 0.689278
0.797705 0.185588 0.690310
0.883565 0.186607 0.691328
0.034215 0.309043 0.687468
0.175040 0.310280 0.688704
0.304148 0.311413 0.689838
0.428538 0.312506 0.690930
0.549914 0.313571 0.691996
0.669083 0.314618 0.693042
0.801298 0.315649 0.694073
0.885633 0.316667 0.695092
0.037846 0.434539 0.691099
0.178672 0.435776 0.692336
0.307779 0.436910 0.693469
0.432169 0.438002 0.694562
0.553546 0.439067 0.695627
0.672715 0.440114 0.696674
0.804705 0.441145 0.697705
0.887594 0.442164 0.698723
0.041392 0.557074 0.694645
0.182218 0.558311 0.695882
0.311325 0.559445 0.697015
0.435715 0.560537 0.698107
0.557092 0.561602 0.699173
0.676261 0.562649 0.700313
0.807974 0.563680 0.701781
0.889476 0.564699 0.703224
0.044875 0.677424 0.698128
0.185700 0.678660 0.699364
0.314808 0.679794 0.700710
0.439198 0.680886 0.702263
0.560575 0.681952 0.703770
0.679743 0.682998 0.705242
0.811133 0.684029 0.706686
0.891294 0.685048 0.708105
0.048307 0.810115 0.702221
0.189133 0.811230 0.703969
0.318241 0.812246 0.705563
0.442631 0.813220 0.707090
0.564007 0.814165 0.708573
0.683176 0.815089 0.710021
0.814195 0.815995 0.711442
0.893056 0.816885 0.712838
0.051699 0.891328 0.706991
0.192525 0.891966 0.708711
0.321632 0.892547 0.710280
0.446022 0.893105 0.711783
0.567399 0.893646 0.713242
0.686568 0.894175 0.714667
0.817171 0.894693 0.716064
0.894769 0.895202 0.717438
0.026732 0.038878 0.808918
0.167558 0.040115 0.810040
0.296665 0.041248 0.811062
0.421055 0.042341 0.812042
0.542432 0.043406 0.812994
0.661601 0.044453 0.813923
0.794090 0.045484 0.814835
0.881484 0.046502 0.815731
0.030796 0.179328 0.812580
0.171622 0.180564 0.813681
0.300729 0.181698 0.814684
0.425119 0.182790 0.815645
0.546496 0.183856 0.816578
0.665665 0.184902 0.817490
0.798037 0.185933 0.818384
0.883756 0.186952 0.819263
0.034560 0.309388 0.815909
0.175386 0.310625 0.816990
0.304493 0.311758 0.817975
0.428883 0.312851 0.818920
0.550260 0.313916 0.819836
0.669429 0.314963 0.820732
0.801624 0.315994 0.821610
0.885821 0.317012 0.822473
0.038191 0.434885 0.819065
0.179017 0.436121 0.820128
0.308125 0.437255 0.821096
0.432515 0.438347 0.822024
0.553891 0.439413 0.822925
0.673060 0.440459 0.823805
0.805025 0.441490 0.824668
0.887778 0.442509 0.825517
0.041737 0.557420 0.822095
0.182563 0.558656 0.823139
0.311671 0.559790 0.824092
0.436060 0.560882 0.825004
0.557437 0.561948 0.825890
0.676606 0.562994 0.826755
0.808290 0.564025 0.827604
0.889657 0.565044 0.828438
0.045220 0.677769 0.825021
0.186046 0.679006 0.826048
0.315153 0.680139 0.826985
0.439543 0.681231 0.827882
0.560920 0.682297 0.828754
0.680089 0.683344 0.829605
0.811443 0.684375 0.830439
0.891472 0.685393 0.831260
0.048653 0.810427 0.827858
0.189478 0.811540 0.828869
0.318586 0.812554 0.829790
0.442976 0.813527 0.830673
0.564352 0.814471 0.831530
0.683521 0.815393 0.832367
0.814500 0.816297 0.833188
0.893232 0.817186 0.833996
0.052044 0.891506 0.830616
0.192870 0.892143 0.831610
0.321977 0.892724 0.832517
0.446367 0.893280 0.833385
0.567744 0.893821 0.834229
0.686913 0.894348 0.835053
0.817472 0.894866 0.835861
0.894942 0.895375 0.836655
0.027072 0.039218 0.888655
0.167898 0.040455 0.889309
0.297005 0.041589 0.889905
0.421395 0.042681 0.890476
0.542772 0.043747 0.891030
0.661941 0.044793 0.891572
0.794423 0.045824 0.892103
0.881676 0.046843 0.892625
0.031136 0.179668 0.890789
0.171962 0.180904 0.891430
0.301070 0.182038 0.892015
0.425460 0.183130 0.892575
0.546836 0.184196 0.893119
0.666005 0.185242 0.893650
0.798364 0.186274 0.894171
0.883944 0.187292 0.894683
0.034900 0.309728 0.892729
0.175726 0.310965 0.893359
0.304833 0.312099 0.893933
0.429223 0.313191 0.894483
0.550600 0.314257 0.895017
0.669769 0.315303 0.895539
0.801945 0.316334 0.896051
0.886006 0.317353 0.896554
0.038532 0.435225 0.894568
0.179357 0.436461 0.895187
0.308465 0.437595 0.895751
0.432855 0.438687 0.896292
0.554231 0.439753 0.896817
0.673400 0.440799 0.897330
0.805341 0.441830 0.897833
0.887960 0.442849 0.898327
0.042078 0.557760 0.896333
0.182903 0.558996 0.896942
0.312011 0.560130 0.897497
0.436401 0.561222 0.898029
0.557777 0.562288 0.898545
0.676946 0.563334 0.899049
0.808600 0.564365 0.899544
0.889836 0.565384 0.900030
0.045560 0.678109 0.898038
0.186386 0.679346 0.898637
0.315493 0.680479 0.899183
0.439883 0.681572 0.899706
0.561260 0.682637 0.900213
0.680429 0.683684 0.900709
0.811748 0.684715 0.901196
0.891648 0.685733 0.901674
0.048993 0.810733 0.899692
0.189818 0.811845 0.900280
0.318926 0.812858 0.900817
0.443316 0.813828 0.901332
0.564693 0.814771 0.901831
0.683861 0.815692 0.902319
0.814800 0.816594 0.902798
0.893404 0.817482 0.903268
0.052384 0.891682 0.901298
0.193210 0.892318 0.901878
0.322317 0.892898 0.902406
0.446707 0.893453 0.902912
0.568084 0.893992 0.903404
0.687253 0.894519 0.903884
0.817767 0.895036 0.904355
0.895112 0.895544 0.904818
