assets/luts/pure.cube
# Beauty Camera 3D LUT
# Filter: Pure (pure)
# Category: Natural
TITLE "Pure"
LUT_3D_SIZE 32
DOMAIN_MIN 0.0 0.0 0.0
DOMAIN_MAX 1.0 1.0 1.0
0.024502 0.036649 0.051379
0.062236 0.036980 0.051710
0.097625 0.037291 0.052021
0.131861 0.037591 0.052321
0.165328 0.037885 0.052615
0.198220 0.038174 0.052904
0.230653 0.038459 0.053189
0.262706 0.038740 0.053470
0.294436 0.039019 0.053749
0.325883 0.039295 0.054025
0.357080 0.039569 0.054299
0.388054 0.039841 0.054571
0.418826 0.040111 0.054841
0.449412 0.040380 0.055110
0.479829 0.040647 0.055377
0.510089 0.040912 0.055642
0.540202 0.041177 0.055907
0.570179 0.041440 0.056170
0.600028 0.041702 0.056432
0.629757 0.041963 0.056693
0.659371 0.042223 0.056953
0.688878 0.042482 0.057212
0.725013 0.042740 0.057470
0.760831 0.042998 0.057728
0.791892 0.043254 0.057984
0.818843 0.043510 0.058240
0.842239 0.043765 0.058495
0.862560 0.044019 0.058749
0.880219 0.044273 0.059003
0.895572 0.044526 0.059256
0.908925 0.044778 0.059508
0.920544 0.045030 0.059760
0.025577 0.073768 0.052453
0.063310 0.074100 0.052784
0.098700 0.074410 0.053095
0.132935 0.074711 0.053395
0.166402 0.075005 0.053689
0.199294 0.075294 0.053978
0.231727 0.075578 0.054263
0.263780 0.075860 0.054544
0.295510 0.076138 0.054823
0.326957 0.076415 0.055099
0.358154 0.076688 0.055373
0.389128 0.076960 0.055645
0.419900 0.077231 0.055915
0.450486 0.077499 0.056184
0.480903 0.077766 0.056451
0.511163 0.078032 0.056716
0.541276 0.078296 0.056981
0.571253 0.078560 0.057244
0.601102 0.078822 0.057506
0.630831 0.079083 0.057767
0.660445 0.079343 0.058027
0.689952 0.079602 0.058286
0.726416 0.079860 0.058545
0.762052 0.080117 0.058802
0.792954 0.080374 0.059058
0.819767 0.080630 0.059314
0.843044 0.080885 0.059569
0.863262 0.081139 0.059823
0.880830 0.081392 0.060077
0.896105 0.081645 0.060330
0.909390 0.081898 0.060582
0.920950 0.082149 0.060834
0.026600 0.109117 0.053476
0.064333 0.109448 0.053807
0.099722 0.109759 0.054118
0.133958 0.110059 0.054418
0.167425 0.110353 0.054712
0.200317 0.110642 0.055001
0.232750 0.110927 0.055286
0.264803 0.111208 0.055567
0.296533 0.111487 0.055846
0.327980 0.111763 0.056122
0.359177 0.112037 0.056396
0.390151 0.112309 0.056668
0.420923 0.112579 0.056938
0.451509 0.112848 0.057207
0.481926 0.113115 0.057474
0.512186 0.113380 0.057739
0.542299 0.113645 0.058004
0.572276 0.113908 0.058267
0.602125 0.114170 0.058529
0.631854 0.114431 0.058790
0.661468 0.114691 0.059050
0.690975 0.114950 0.059309
0.727745 0.115208 0.059567
0.763208 0.115466 0.059825
0.793960 0.115722 0.060081
0.820643 0.115978 0.060337
0.843807 0.116233 0.060592
0.863926 0.116487 0.060846
0.881409 0.116741 0.061100
0.896609 0.116994 0.061353
0.909830 0.117246 0.061605
0.921334 0.117498 0.061857
0.027593 0.143459 0.054469
0.065326 0.143790 0.054801
0.100716 0.144101 0.055111
0.134952 0.144401 0.055412
0.168419 0.144695 0.055706
0.201310 0.144984 0.055995
0.233744 0.145269 0.056280
0.265797 0.145550 0.056561
0.297526 0.145829 0.056840
0.328974 0.146105 0.057116
0.360171 0.146379 0.057390
0.391145 0.146651 0.057662
0.421916 0.146921 0.057932
0.452503 0.147190 0.058200
0.482920 0.147457 0.058467
0.513179 0.147722 0.058733
0.543293 0.147987 0.058998
0.573270 0.148250 0.059261
0.603119 0.148512 0.059523
0.632847 0.148773 0.059784
0.662462 0.149033 0.060044
0.691969 0.149292 0.060303
0.729030 0.149550 0.060561
0.764326 0.149808 0.060819
0.794933 0.150064 0.061075
0.821490 0.150320 0.061331
0.844544 0.150575 0.061586
0.864568 0.150829 0.061840
0.881969 0.151083 0.062094
0.897098 0.151336 0.062347
0.910256 0.151588 0.062599
0.921705 0.151840 0.062850
0.028567 0.177098 0.055443
0.066300 0.177430 0.055774
0.101690 0.177740 0.056085
0.135926 0.178041 0.056386
0.169392 0.178335 0.056679
0.202284 0.178624 0.056968
0.234717 0.178908 0.057253
0.266771 0.179190 0.057534
0.298500 0.179468 0.057813
0.329947 0.179745 0.058089
0.361145 0.180018 0.058363
0.392118 0.180290 0.058635
0.422890 0.180561 0.058905
0.453476 0.180829 0.059174
0.483893 0.181096 0.059441
0.514153 0.181362 0.059707
0.544266 0.181626 0.059971
0.574243 0.181890 0.060234
0.604092 0.182152 0.060496
0.633821 0.182413 0.060757
0.663435 0.182673 0.061017
0.692942 0.182932 0.061276
0.730284 0.183190 0.061535
0.765416 0.183447 0.061792
0.795881 0.183704 0.062048
0.822315 0.183960 0.062304
0.845263 0.184215 0.062559
0.865195 0.184469 0.062813
0.882515 0.184722 0.063067
0.897573 0.184975 0.063320
0.910671 0.185228 0.063572
0.922067 0.185479 0.063824
0.029525 0.210200 0.056401
0.067258 0.210531 0.056732
0.102648 0.210842 0.057043
0.136884 0.211142 0.057343
0.170350 0.211436 0.057637
0.203242 0.211725 0.057926
0.235675 0.212010 0.058211
0.267729 0.212291 0.058492
0.299458 0.212570 0.058771
0.330905 0.212846 0.059047
0.362102 0.213120 0.059321
0.393076 0.213392 0.059593
0.423848 0.213662 0.059863
0.454434 0.213931 0.060132
0.484851 0.214198 0.060399
0.515111 0.214464 0.060664
0.545224 0.214728 0.060929
0.575201 0.214991 0.061192
0.605050 0.215253 0.061454
0.634779 0.215514 0.061715
0.664393 0.215774 0.061975
0.693900 0.216033 0.062234
0.731511 0.216292 0.062493
0.766483 0.216549 0.062750
0.796810 0.216805 0.063006
0.823124 0.217061 0.063262
0.845967 0.217316 0.063517
0.865808 0.217570 0.063771
0.883050 0.217824 0.064025
0.898040 0.218077 0.064278
0.911077 0.218329 0.064530
0.922422 0.218581 0.064782
0.030470 0.242867 0.057346
0.068203 0.243198 0.057677
0.103593 0.243509 0.057988
0.137829 0.243809 0.058289
0.171296 0.244103 0.058583
0.204187 0.244392 0.058871
0.236620 0.244677 0.059156
0.268674 0.244958 0.059438
0.300403 0.245237 0.059716
0.331850 0.245513 0.059992
0.363048 0.245787 0.060266
0.394022 0.246059 0.060538
0.424793 0.246329 0.060808
0.455380 0.246598 0.061077
0.485796 0.246865 0.061344
0.516056 0.247130 0.061610
0.546170 0.247395 0.061874
0.576147 0.247658 0.062137
0.605996 0.247920 0.062400
0.635724 0.248181 0.062661
0.665339 0.248441 0.062921
0.694845 0.248700 0.063180
0.732717 0.248958 0.063438
0.767532 0.249216 0.063695
0.797723 0.249472 0.063952
0.823918 0.249728 0.064207
0.846659 0.249983 0.064462
0.866411 0.250237 0.064717
0.883575 0.250491 0.064970
0.898498 0.250744 0.065223
0.911477 0.250996 0.065475
0.922770 0.251248 0.065727
0.031405 0.275169 0.058281
0.069138 0.275500 0.058612
0.104528 0.275811 0.058923
0.138764 0.276112 0.059223
0.172230 0.276406 0.059517
0.205122 0.276694 0.059806
0.237555 0.276979 0.060091
0.269609 0.277261 0.060372
0.301338 0.277539 0.060651
0.332785 0.277815 0.060927
0.363982 0.278089 0.061201
0.394956 0.278361 0.061473
0.425728 0.278632 0.061743
0.456314 0.278900 0.062012
0.486731 0.279167 0.062279
0.516991 0.279433 0.062545
0.547104 0.279697 0.062809
0.577081 0.279960 0.063072
0.606930 0.280223 0.063334
0.636659 0.280484 0.063595
0.666273 0.280744 0.063855
0.695780 0.281003 0.064114
0.733904 0.281261 0.064373
0.768565 0.281518 0.064630
0.798621 0.281775 0.064886
0.824700 0.282030 0.065142
0.847340 0.282285 0.065397
0.867004 0.282540 0.065651
0.884092 0.282793 0.065905
0.898948 0.283046 0.066158
0.911870 0.283299 0.066410
0.923113 0.283550 0.066662
0.032330 0.307159 0.059207
0.070064 0.307490 0.059538
0.105453 0.307801 0.059849
0.139689 0.308101 0.060149
0.173156 0.308395 0.060443
0.206048 0.308684 0.060732
0.238481 0.308969 0.061017
0.270534 0.309250 0.061298
0.302264 0.309529 0.061577
0.333711 0.309805 0.061853
0.364908 0.310079 0.062127
0.395882 0.310351 0.062399
0.426653 0.310621 0.062669
0.457240 0.310890 0.062937
0.487657 0.311157 0.063205
0.517917 0.311422 0.063470
0.548030 0.311687 0.063735
0.578007 0.311950 0.063998
0.607856 0.312212 0.064260
0.637584 0.312473 0.064521
0.667199 0.312733 0.064781
0.696706 0.312992 0.065040
0.735074 0.313251 0.065298
0.769582 0.313508 0.065556
0.799507 0.313764 0.065812
0.825471 0.314020 0.066068
0.848012 0.314275 0.066323
0.867589 0.314529 0.066577
0.884602 0.314783 0.066831
0.899393 0.315036 0.067084
0.912257 0.315288 0.067336
0.923451 0.315540 0.067588
0.033248 0.338874 0.060124
0.070981 0.339206 0.060456
0.106371 0.339517 0.060766
0.140607 0.339817 0.061067
0.174074 0.340111 0.061361
0.206965 0.340400 0.061650
0.239399 0.340685 0.061934
0.271452 0.340966 0.062216
0.303181 0.341245 0.062494
0.334628 0.341521 0.062771
0.365826 0.341795 0.063045
0.396800 0.342067 0.063316
0.427571 0.342337 0.063587
0.458158 0.342605 0.063855
0.488575 0.342872 0.064122
0.518834 0.343138 0.064388
0.548948 0.343403 0.064652
0.578925 0.343666 0.064916
0.608774 0.343928 0.065178
0.638502 0.344189 0.065439
0.668117 0.344449 0.065699
0.697623 0.344708 0.065958
0.736230 0.344966 0.066216
0.770587 0.345224 0.066473
0.800381 0.345480 0.066730
0.826232 0.345736 0.066986
0.848674 0.345991 0.067241
0.868167 0.346245 0.067495
0.885105 0.346499 0.067748
0.899832 0.346752 0.068001
0.912640 0.347004 0.068254
0.923785 0.347255 0.068505
0.034159 0.370347 0.061035
0.071892 0.370678 0.061366
0.107282 0.370989 0.061677
0.141518 0.371289 0.061978
0.174985 0.371583 0.062272
0.207876 0.371872 0.062560
0.240309 0.372157 0.062845
0.272363 0.372438 0.063127
0.304092 0.372717 0.063405
0.335539 0.372993 0.063681
0.366737 0.373267 0.063955
0.397711 0.373539 0.064227
0.428482 0.373809 0.064497
0.459069 0.374078 0.064766
0.489485 0.374345 0.065033
0.519745 0.374610 0.065299
0.549859 0.374875 0.065563
0.579836 0.375138 0.065826
0.609685 0.375400 0.066088
0.639413 0.375661 0.066350
0.669028 0.375921 0.066610
0.698534 0.376180 0.066869
0.737371 0.376439 0.067127
0.771580 0.376696 0.067384
0.801245 0.376952 0.067641
0.826984 0.377208 0.067896
0.849329 0.377463 0.068151
0.868737 0.377717 0.068406
0.885602 0.377971 0.068659
0.900265 0.378224 0.068912
0.913018 0.378476 0.069164
0.924115 0.378728 0.069416
0.035063 0.401600 0.061939
0.072796 0.401932 0.062271
0.108186 0.402242 0.062582
0.142422 0.402543 0.062882
0.175889 0.402837 0.063176
0.208780 0.403126 0.063465
0.241214 0.403410 0.063750
0.273267 0.403692 0.064031
0.304996 0.403970 0.064310
0.336444 0.404246 0.064586
0.367641 0.404520 0.064860
0.398615 0.404792 0.065132
0.429386 0.405063 0.065402
0.459973 0.405331 0.065670
0.490390 0.405598 0.065937
0.520650 0.405864 0.066203
0.550763 0.406128 0.066468
0.580740 0.406392 0.066731
0.610589 0.406654 0.066993
0.640317 0.406915 0.067254
0.669932 0.407175 0.067514
0.699439 0.407434 0.067773
0.738500 0.407692 0.068031
0.772562 0.407949 0.068289
0.802099 0.408206 0.068545
0.827728 0.408462 0.068801
0.849977 0.408717 0.069056
0.869301 0.408971 0.069310
0.886094 0.409224 0.069564
0.900694 0.409477 0.069817
0.913392 0.409730 0.070069
0.924441 0.409981 0.070320
0.035962 0.432655 0.062838
0.073695 0.432986 0.063169
0.109085 0.433297 0.063480
0.143321 0.433598 0.063781
0.176788 0.433892 0.064075
0.209679 0.434180 0.064363
0.242112 0.434465 0.064648
0.274166 0.434747 0.064930
0.305895 0.435025 0.065208
0.337342 0.435301 0.065484
0.368540 0.435575 0.065758
0.399514 0.435847 0.066030
0.430285 0.436117 0.066300
0.460872 0.436386 0.066569
0.491289 0.436653 0.066836
0.521548 0.436919 0.067102
0.551662 0.437183 0.067366
0.581639 0.437446 0.067629
0.611488 0.437708 0.067892
0.641216 0.437969 0.068153
0.670831 0.438229 0.068413
0.700481 0.438489 0.068672
0.739616 0.438747 0.068930
0.773533 0.439004 0.069187
0.802944 0.439261 0.069444
0.828463 0.439516 0.069699
0.850617 0.439771 0.069954
0.869859 0.440026 0.070209
0.886580 0.440279 0.070462
0.901118 0.440532 0.070715
0.913762 0.440784 0.070967
0.924764 0.441036 0.071219
0.036855 0.463528 0.063731
0.074589 0.463859 0.064063
0.109978 0.464170 0.064374
0.144214 0.464471 0.064674
0.177681 0.464765 0.064968
0.210573 0.465053 0.065257
0.243006 0.465338 0.065542
0.275059 0.465620 0.065823
0.306789 0.465898 0.066102
0.338236 0.466174 0.066378
0.369433 0.466448 0.066652
0.400407 0.466720 0.066924
0.431178 0.466990 0.067194
0.461765 0.467259 0.067462
0.492182 0.467526 0.067730
0.522442 0.467792 0.067995
0.552555 0.468056 0.068260
0.582532 0.468319 0.068523
0.612381 0.468581 0.068785
0.642109 0.468843 0.069046
0.671724 0.469103 0.069306
0.701753 0.469362 0.069565
0.740722 0.469620 0.069823
0.774494 0.469877 0.070081
0.803781 0.470134 0.070337
0.829192 0.470389 0.070593
0.851251 0.470644 0.070848
0.870412 0.470899 0.071102
0.887062 0.471152 0.071356
0.901537 0.471405 0.071609
0.914128 0.471657 0.071861
0.925083 0.471909 0.072113
0.037744 0.494234 0.064620
0.075477 0.494565 0.064951
0.110867 0.494876 0.065262
0.145103 0.495176 0.065563
0.178570 0.495470 0.065857
0.211461 0.495759 0.066145
0.243894 0.496044 0.066430
0.275948 0.496325 0.066712
0.307677 0.496604 0.066990
0.339124 0.496880 0.067266
0.370322 0.497154 0.067540
0.401296 0.497426 0.067812
0.432067 0.497696 0.068082
0.462654 0.497965 0.068351
0.493070 0.498232 0.068618
0.523330 0.498497 0.068884
0.553444 0.498762 0.069148
0.583421 0.499025 0.069411
0.613270 0.499287 0.069673
0.642998 0.499548 0.069935
0.672613 0.499808 0.070195
0.703012 0.500067 0.070454
0.741817 0.500325 0.070712
0.775446 0.500583 0.070969
0.804609 0.500839 0.071226
0.829913 0.501095 0.071481
0.851879 0.501350 0.071736
0.870959 0.501604 0.071991
0.887539 0.501858 0.072244
0.901953 0.502111 0.072497
0.914490 0.502363 0.072749
0.925400 0.502615 0.073001
0.038628 0.524784 0.065504
0.076361 0.525115 0.065835
0.111751 0.525426 0.066146
0.145987 0.525727 0.066447
0.179454 0.526021 0.066741
0.212345 0.526309 0.067029
0.244778 0.526594 0.067314
0.276832 0.526876 0.067596
0.308561 0.527154 0.067874
0.340008 0.527430 0.068150
0.371206 0.527704 0.068424
0.402180 0.527976 0.068696
0.432951 0.528246 0.068966
0.463538 0.528515 0.069235
0.493955 0.528782 0.069502
0.524214 0.529048 0.069768
0.554328 0.529312 0.070032
0.584305 0.529575 0.070295
0.614154 0.529838 0.070558
0.643882 0.530099 0.070819
0.673497 0.530359 0.071079
0.704260 0.530618 0.071338
0.742901 0.530876 0.071596
0.776390 0.531133 0.071853
0.805430 0.531390 0.072110
0.830627 0.531645 0.072365
0.852502 0.531900 0.072620
0.871501 0.532155 0.072875
0.888011 0.532408 0.073128
0.902365 0.532661 0.073381
0.914850 0.532913 0.073633
0.925713 0.533165 0.073885
0.039508 0.555190 0.066384
0.077241 0.555521 0.066715
0.112631 0.555832 0.067026
0.146867 0.556133 0.067327
0.180333 0.556427 0.067621
0.213225 0.556715 0.067909
0.245658 0.557000 0.068194
0.277712 0.557282 0.068476
0.309441 0.557560 0.068754
0.340888 0.557836 0.069030
0.372086 0.558110 0.069304
0.403059 0.558382 0.069576
0.433831 0.558652 0.069846
0.464418 0.558921 0.070115
0.494834 0.559188 0.070382
0.525094 0.559454 0.070648
0.555208 0.559718 0.070912
0.585185 0.559981 0.071175
0.615034 0.560243 0.071437
0.644762 0.560504 0.071698
0.674376 0.560764 0.071958
0.705496 0.561024 0.072218
0.743976 0.561282 0.072476
0.777325 0.561539 0.072733
0.806244 0.561796 0.072990
0.831336 0.562051 0.073245
0.853118 0.562306 0.073500
0.872038 0.562561 0.073755
0.888479 0.562814 0.074008
0.902773 0.563067 0.074261
0.915206 0.563319 0.074513
0.926024 0.563571 0.074765
0.040384 0.585461 0.067260
0.078117 0.585792 0.067591
0.113507 0.586103 0.067902
0.147743 0.586403 0.068203
0.181209 0.586697 0.068496
0.214101 0.586986 0.068785
0.246534 0.587271 0.069070
0.278588 0.587552 0.069352
0.310317 0.587831 0.069630
0.341764 0.588107 0.069906
0.372962 0.588381 0.070180
0.403935 0.588653 0.070452
0.434707 0.588923 0.070722
0.465294 0.589192 0.070991
0.495710 0.589459 0.071258
0.525970 0.589724 0.071524
0.556084 0.589989 0.071788
0.586061 0.590252 0.072051
0.615909 0.590514 0.072313
0.645638 0.590775 0.072574
0.675252 0.591035 0.072834
0.706722 0.591294 0.073094
0.745042 0.591552 0.073352
0.778252 0.591810 0.073609
0.807050 0.592066 0.073866
0.832038 0.592322 0.074121
0.853730 0.592577 0.074376
0.872571 0.592831 0.074631
0.888944 0.593085 0.074884
0.903178 0.593338 0.075137
0.915559 0.593590 0.075389
0.926332 0.593842 0.075641
0.041256 0.615604 0.068132
0.078989 0.615936 0.068464
0.114379 0.616247 0.068774
0.148615 0.616547 0.069075
0.182082 0.616841 0.069369
0.214973 0.617130 0.069658
0.247407 0.617415 0.069942
0.279460 0.617696 0.070224
0.311189 0.617975 0.070502
0.342636 0.618251 0.070779
0.373834 0.618525 0.071052
0.404808 0.618797 0.071324
0.435579 0.619067 0.071595
0.466166 0.619335 0.071863
0.496583 0.619602 0.072130
0.526842 0.619868 0.072396
0.556956 0.620133 0.072660
0.586933 0.620396 0.072924
0.616782 0.620658 0.073186
0.646510 0.620919 0.073447
0.676125 0.621179 0.073707
0.707938 0.621438 0.073966
0.746099 0.621696 0.074224
0.779171 0.621954 0.074481
0.807850 0.622210 0.074738
0.832734 0.622466 0.074994
0.854336 0.622721 0.075249
0.873099 0.622975 0.075503
0.889404 0.623229 0.075756
0.903579 0.623482 0.076009
0.915909 0.623734 0.076262
0.926637 0.623985 0.076513
0.042125 0.645629 0.069001
0.079858 0.645960 0.069332
0.115248 0.646271 0.069643
0.149484 0.646571 0.069944
0.182951 0.646865 0.070238
0.215842 0.647154 0.070526
0.248275 0.647439 0.070811
0.280329 0.647720 0.071093
0.312058 0.647999 0.071371
0.343505 0.648275 0.071647
0.374703 0.648549 0.071921
0.405677 0.648821 0.072193
0.436448 0.649091 0.072463
0.467035 0.649359 0.072732
0.497451 0.649627 0.072999
0.527711 0.649892 0.073265
0.557825 0.650157 0.073529
0.587802 0.650420 0.073792
0.617651 0.650682 0.074054
0.647379 0.650943 0.074316
0.676994 0.651203 0.074576
0.709144 0.651462 0.074835
0.747147 0.651720 0.075093
0.780083 0.651978 0.075350
0.808643 0.652234 0.075607
0.833424 0.652490 0.075862
0.854938 0.652745 0.076117
0.873623 0.652999 0.076372
0.889861 0.653253 0.076625
0.903977 0.653506 0.076878
0.916256 0.653758 0.077130
0.926940 0.654010 0.077382
0.042990 0.675540 0.069867
0.080724 0.675871 0.070198
0.116113 0.676182 0.070509
0.150349 0.676482 0.070809
0.183816 0.676776 0.071103
0.216708 0.677065 0.071392
0.249141 0.677350 0.071677
0.281194 0.677631 0.071958
0.312924 0.677910 0.072237
0.344371 0.678186 0.072513
0.375568 0.678460 0.072787
0.406542 0.678732 0.073059
0.437314 0.679002 0.073329
0.467900 0.679270 0.073598
0.498317 0.679538 0.073865
0.528577 0.679803 0.074130
0.558690 0.680068 0.074395
0.588667 0.680331 0.074658
0.618516 0.680593 0.074920
0.648245 0.680854 0.075181
0.677859 0.681114 0.075441
0.710340 0.681373 0.075700
0.748187 0.681631 0.075958
0.780987 0.681889 0.076216
0.809430 0.682145 0.076472
0.834110 0.682401 0.076728
0.855534 0.682656 0.076983
0.874143 0.682910 0.077237
0.890314 0.683164 0.077491
0.904372 0.683417 0.077744
0.916600 0.683669 0.077996
0.927240 0.683921 0.078248
0.043853 0.707537 0.070729
0.081586 0.707998 0.071060
0.116976 0.708430 0.071371
0.151212 0.708847 0.071672
0.184679 0.709254 0.071966
0.217570 0.709654 0.072254
0.250003 0.710047 0.072539
0.282057 0.710435 0.072821
0.313786 0.710819 0.073099
0.345233 0.711199 0.073375
0.376431 0.711576 0.073649
0.407405 0.711949 0.073921
0.438176 0.712319 0.074191
0.468763 0.712687 0.074460
0.499179 0.713052 0.074727
0.529439 0.713415 0.074993
0.559553 0.713776 0.075257
0.589530 0.714134 0.075520
0.619379 0.714491 0.075782
0.649107 0.714845 0.076044
0.678722 0.715198 0.076304
0.711527 0.715549 0.076563
0.749219 0.715899 0.076821
0.781885 0.716247 0.077078
0.810211 0.716593 0.077335
0.834790 0.716938 0.077590
0.856126 0.717282 0.077845
0.874659 0.717624 0.078100
0.890763 0.717965 0.078353
0.904764 0.718304 0.078606
0.916942 0.718642 0.078858
0.927538 0.718979 0.079110
0.044712 0.746110 0.071589
0.082446 0.746510 0.071920
0.117835 0.746885 0.072231
0.152071 0.747247 0.072531
0.185538 0.747601 0.072825
0.218430 0.747947 0.073114
0.250863 0.748289 0.073399
0.282916 0.748626 0.073680
0.314646 0.748959 0.073959
0.346093 0.749289 0.074235
0.377290 0.749616 0.074509
0.408264 0.749940 0.074781
0.439035 0.750262 0.075051
0.469622 0.750581 0.075320
0.500039 0.750898 0.075587
0.530299 0.751213 0.075852
0.560412 0.751526 0.076117
0.590389 0.751837 0.076380
0.620238 0.752147 0.076642
0.649966 0.752455 0.076903
0.679581 0.752761 0.077163
0.712706 0.753066 0.077422
0.750243 0.753369 0.077680
0.782776 0.753671 0.077938
0.810987 0.753972 0.078194
0.835464 0.754271 0.078450
0.856714 0.754569 0.078705
0.875171 0.754866 0.078959
0.891209 0.755162 0.079213
0.905153 0.755457 0.079466
0.917281 0.755751 0.079718
0.927834 0.756043 0.079970
0.045569 0.779494 0.072445
0.083302 0.779841 0.072777
0.118692 0.780167 0.073087
0.152928 0.780481 0.073388
0.186395 0.780788 0.073682
0.219286 0.781090 0.073971
0.251720 0.781386 0.074255
0.283773 0.781679 0.074537
0.315502 0.781968 0.074815
0.346949 0.782255 0.075092
0.378147 0.782539 0.075365
0.409121 0.782820 0.075637
0.439892 0.783099 0.075908
0.470479 0.783377 0.076176
0.500896 0.783652 0.076443
0.531155 0.783926 0.076709
0.561269 0.784197 0.076973
0.591246 0.784468 0.077237
0.621095 0.784737 0.077499
0.650823 0.785004 0.077760
0.680438 0.785270 0.078020
0.713875 0.785535 0.078279
0.751260 0.785798 0.078537
0.783660 0.786061 0.078794
0.811756 0.786322 0.079051
0.836134 0.786582 0.079307
0.857297 0.786841 0.079562
0.875679 0.787099 0.079816
0.891652 0.787356 0.080069
0.905539 0.787612 0.080322
0.917618 0.787867 0.080575
0.928128 0.788121 0.080826
0.046423 0.808403 0.073299
0.084156 0.808705 0.073631
0.119546 0.808988 0.073941
0.153782 0.809261 0.074242
0.187249 0.809528 0.074536
0.220140 0.809790 0.074825
0.252574 0.810048 0.075109
0.284627 0.810302 0.075391
0.316356 0.810554 0.075669
0.347803 0.810802 0.075946
0.379001 0.811049 0.076219
0.409975 0.811294 0.076491
0.440746 0.811536 0.076762
0.471333 0.811777 0.077030
0.501750 0.812016 0.077297
0.532009 0.812254 0.077563
0.562123 0.812490 0.077827
0.592100 0.812725 0.078091
0.621949 0.812959 0.078353
0.651677 0.813191 0.078614
0.681292 0.813422 0.078874
0.715036 0.813652 0.079133
0.752270 0.813881 0.079391
0.784538 0.814109 0.079648
0.812520 0.814336 0.079905
0.836799 0.814562 0.080161
0.857876 0.814787 0.080416
0.876183 0.815011 0.080670
0.892092 0.815235 0.080923
0.905923 0.815457 0.081176
0.917952 0.815679 0.081429
0.928420 0.815899 0.081680
0.047275 0.833452 0.074151
0.085008 0.833715 0.074482
0.120397 0.833961 0.074793
0.154633 0.834198 0.075093
0.188100 0.834430 0.075387
0.220992 0.834658 0.075676
0.253425 0.834882 0.075961
0.285478 0.835103 0.076242
0.317208 0.835322 0.076521
0.348655 0.835538 0.076797
0.379852 0.835752 0.077071
0.410826 0.835965 0.077343
0.441598 0.836176 0.077613
0.472184 0.836385 0.077882
0.502601 0.836593 0.078149
0.532861 0.836800 0.078414
0.562974 0.837005 0.078679
0.592951 0.837209 0.078942
0.622800 0.837412 0.079204
0.652529 0.837614 0.079465
0.682143 0.837815 0.079725
0.716189 0.838015 0.079984
0.753272 0.838214 0.080242
0.785410 0.838412 0.080500
0.813279 0.838610 0.080756
0.837460 0.838806 0.081012
0.858452 0.839002 0.081267
0.876684 0.839196 0.081521
0.892529 0.839391 0.081775
0.906303 0.839584 0.082028
0.918284 0.839776 0.082280
0.928710 0.839968 0.082532
0.048124 0.855168 0.075000
0.085857 0.855396 0.075331
0.121246 0.855610 0.075642
0.155482 0.855817 0.075942
0.188949 0.856018 0.076236
0.221841 0.856216 0.076525
0.254274 0.856411 0.076810
0.286327 0.856603 0.077091
0.318057 0.856793 0.077370
0.349504 0.856982 0.077646
0.380701 0.857168 0.077920
0.411675 0.857353 0.078192
0.442447 0.857536 0.078462
0.473033 0.857718 0.078731
0.503450 0.857899 0.078998
0.533710 0.858079 0.079263
0.563823 0.858258 0.079528
0.593800 0.858435 0.079791
0.623649 0.858612 0.080053
0.653378 0.858787 0.080314
0.682992 0.858962 0.080574
0.717335 0.859136 0.080833
0.754267 0.859309 0.081091
0.786276 0.859481 0.081349
0.814032 0.859653 0.081605
0.838115 0.859824 0.081861
0.859023 0.859994 0.082116
0.877182 0.860163 0.082370
0.892962 0.860332 0.082624
0.906682 0.860500 0.082877
0.918614 0.860668 0.083129
0.928997 0.860834 0.083381
0.048970 0.874003 0.075846
0.086703 0.874202 0.076178
0.122093 0.874388 0.076488
0.156329 0.874568 0.076789
0.189796 0.874743 0.077083
0.222687 0.874915 0.077372
0.255121 0.875085 0.077656
0.287174 0.875252 0.077938
0.318903 0.875417 0.078216
0.350350 0.875581 0.078493
0.381548 0.875743 0.078767
0.412522 0.875904 0.079039
0.443293 0.876064 0.079309
0.473880 0.876222 0.079577
0.504297 0.876379 0.079844
0.534556 0.876536 0.080110
0.564670 0.876691 0.080374
0.594647 0.876846 0.080638
0.624496 0.876999 0.080900
