assets/luts/retro.cube
# Beauty Camera 3D LUT
# Filter: Retro (retro)
# Category: Film
TITLE "Retro"
LUT_3D_SIZE 5
DOMAIN_MIN 0.000000 0.000000 0.000000
DOMAIN_MAX 0.903226 0.903226 0.903226
0.043300 0.016468 0.026883
0.274150 0.014107 0.024522
0.523640 0.011555 0.021971
0.765858 0.009078 0.019493
0.975637 0.006932 0.017348
0.036113 0.220324 0.019696
0.266962 0.217963 0.017335
0.516452 0.215412 0.014783
0.758671 0.212934 0.012306
0.968449 0.210789 0.010160
0.027916 0.452801 0.011499
0.258765 0.450440 0.009138
0.508256 0.447888 0.006587
0.750474 0.445411 0.004109
0.960252 0.443265 0.001964
0.019332 0.696270 0.002915
0.250181 0.693909 0.000554
0.499671 0.691357 0.000000
0.741890 0.688880 0.000000
0.951668 0.686735 0.000000
0.011710 0.912445 0.000000
0.242559 0.910084 0.000000
0.492049 0.907532 0.000000
0.734268 0.905055 0.000000
0.944046 0.902909 0.000000
0.042669 0.015837 0.209736
0.273519 0.013476 0.207375
0.523009 0.010924 0.204823
0.765227 0.008447 0.202346
0.975006 0.006302 0.200200
0.035482 0.219693 0.202548
0.266331 0.217332 0.200187
0.515821 0.214781 0.197635
0.758040 0.212303 0.195158
0.967818 0.210158 0.193013
0.027285 0.452170 0.194351
0.258135 0.449809 0.191990
0.507625 0.447257 0.189439
0.749843 0.444780 0.186961
0.959622 0.442634 0.184816
0.018701 0.695639 0.185767
0.249550 0.693278 0.183406
0.499040 0.690726 0.180855
0.741259 0.688249 0.178377
0.951037 0.686104 0.176232
0.011079 0.911814 0.178145
0.241928 0.909453 0.175784
0.491419 0.906901 0.173233
0.733637 0.904424 0.170755
0.943415 0.902279 0.168610
0.041921 0.015089 0.426569
0.272771 0.012728 0.424208
0.522261 0.010176 0.421656
0.764479 0.007699 0.419179
0.974258 0.005554 0.417034
0.034734 0.218945 0.419382
0.265583 0.216584 0.417021
0.515073 0.214033 0.414469
0.757292 0.211555 0.411992
0.967070 0.209410 0.409846
0.026537 0.451422 0.411185
0.257386 0.449061 0.408824
0.506877 0.446509 0.406272
0.749095 0.444032 0.403795
0.958873 0.441886 0.401650
0.017953 0.694891 0.402601
0.248802 0.692530 0.400240
0.498292 0.689978 0.397688
0.740511 0.687501 0.395211
0.950289 0.685356 0.393065
0.010331 0.911066 0.394979
0.241180 0.908705 0.392618
0.490671 0.906153 0.390066
0.732889 0.903676 0.387589
0.942667 0.901530 0.385443
0.041098 0.014266 0.665215
0.271947 0.011905 0.662854
0.521438 0.009353 0.660303
0.763656 0.006876 0.657826
0.973434 0.004730 0.655680
0.033910 0.218122 0.658028
0.264760 0.215761 0.655667
0.514250 0.213209 0.653115
0.756468 0.210732 0.650638
0.966247 0.208587 0.648493
0.025714 0.450598 0.649831
0.256563 0.448237 0.647470
0.506053 0.445686 0.644919
0.748272 0.443208 0.642441
0.958050 0.441063 0.640296
0.017130 0.694068 0.641247
0.247979 0.691707 0.638886
0.497469 0.689155 0.636334
0.739688 0.686678 0.633857
0.949466 0.684532 0.631712
0.009508 0.910242 0.633625
0.240357 0.907882 0.631264
0.489847 0.905330 0.628713
0.732066 0.902853 0.626235
0.941844 0.900707 0.624090
0.040339 0.013506 0.885321
0.271188 0.011145 0.882960
0.520678 0.008594 0.880408
0.762897 0.006116 0.877931
0.972675 0.003971 0.875786
0.033151 0.217363 0.878133
0.264000 0.215002 0.875772
0.513491 0.212450 0.873221
0.755709 0.209973 0.870743
0.965487 0.207827 0.868598
0.024954 0.449839 0.869937
0.255804 0.447478 0.867576
0.505294 0.444926 0.865024
0.747512 0.442449 0.862547
0.957291 0.440304 0.860401
0.016370 0.693308 0.861352
0.247220 0.690947 0.858991
0.496710 0.688396 0.856440
0.738928 0.685918 0.853963
0.948707 0.683773 0.851817
0.008748 0.909483 0.853731
0.239598 0.907122 0.851370
0.489088 0.904571 0.848818
0.731306 0.902093 0.846341
0.941085 0.899948 0.844195
