assets/luts/retro.cube
# Beauty Camera 3D LUT
# Filter: Retro (retro)
# Category: Film
TITLE "Retro"
LUT_3D_SIZE 32
DOMAIN_MIN 0.0 0.0 0.0
DOMAIN_MAX 1.0 1.0 1.0
0.043300 0.016468 0.026883
0.075790 0.016136 0.026551
0.108200 0.015804 0.026220
0.140761 0.015471 0.025887
0.173584 0.015135 0.025551
0.206731 0.014796 0.025212
0.240244 0.014454 0.024869
0.274150 0.014107 0.024522
0.308468 0.013756 0.024171
0.343214 0.013400 0.023816
0.378397 0.013041 0.023456
0.414026 0.012676 0.023092
0.450108 0.012307 0.022723
0.486648 0.011934 0.022349
0.523640 0.011555 0.021971
0.560354 0.011180 0.021595
0.596344 0.010812 0.021227
0.631623 0.010451 0.020866
0.666203 0.010097 0.020513
0.700096 0.009751 0.020166
0.733311 0.009411 0.019826
0.765858 0.009078 0.019493
0.797746 0.008752 0.019167
0.828983 0.008432 0.018848
0.859575 0.008119 0.018535
0.889530 0.007813 0.018229
0.918855 0.007513 0.017929
0.947555 0.007220 0.017635
0.975637 0.006932 0.017348
1.000000 0.006652 0.017067
1.000000 0.006377 0.016792
1.000000 0.006108 0.016524
0.042335 0.043838 0.025918
0.074825 0.043506 0.025586
0.107235 0.043174 0.025255
0.139796 0.042841 0.024922
0.172619 0.042505 0.024586
0.205766 0.042166 0.024247
0.239279 0.041824 0.023904
0.273185 0.041477 0.023557
0.307503 0.041126 0.023206
0.342249 0.040771 0.022851
0.377432 0.040411 0.022491
0.413061 0.040046 0.022127
0.449143 0.039677 0.021758
0.485683 0.039304 0.021384
0.522675 0.038925 0.021006
0.559389 0.038550 0.020630
0.595379 0.038182 0.020262
0.630658 0.037821 0.019901
0.665238 0.037467 0.019548
0.699131 0.037121 0.019201
0.732346 0.036781 0.018861
0.764893 0.036448 0.018528
0.796781 0.036122 0.018202
0.828018 0.035802 0.017883
0.858610 0.035490 0.017570
0.888565 0.035183 0.017264
0.917890 0.034883 0.016964
0.946590 0.034590 0.016670
0.974672 0.034303 0.016383
1.000000 0.034022 0.016102
1.000000 0.033747 0.015827
1.000000 0.033478 0.015559
0.041350 0.071792 0.024933
0.073840 0.071460 0.024600
0.106250 0.071128 0.024269
0.138811 0.070795 0.023936
0.171633 0.070460 0.023600
0.204780 0.070121 0.023261
0.238293 0.069778 0.022918
0.272199 0.069431 0.022572
0.306518 0.069080 0.022221
0.341263 0.068725 0.021865
0.376446 0.068365 0.021506
0.412076 0.068001 0.021141
0.448158 0.067632 0.020772
0.484697 0.067258 0.020398
0.521689 0.066879 0.020020
0.558404 0.066504 0.019645
0.594394 0.066136 0.019277
0.629673 0.065775 0.018916
0.664253 0.065421 0.018562
0.698145 0.065075 0.018215
0.731360 0.064735 0.017876
0.763908 0.064402 0.017543
0.795795 0.064076 0.017217
0.827032 0.063757 0.016897
0.857624 0.063444 0.016584
0.887580 0.063137 0.016278
0.916905 0.062837 0.015978
0.945605 0.062544 0.015685
0.973686 0.062257 0.015397
1.000000 0.061976 0.015116
1.000000 0.061701 0.014842
1.000000 0.061433 0.014573
0.040343 0.100330 0.023927
0.072833 0.099998 0.023594
0.105244 0.099667 0.023263
0.137805 0.099334 0.022930
0.170627 0.098998 0.022594
0.203774 0.098659 0.022255
0.237287 0.098316 0.021912
0.271193 0.097969 0.021566
0.305511 0.097618 0.021215
0.340257 0.097263 0.020859
0.375440 0.096903 0.020499
0.411070 0.096539 0.020135
0.447152 0.096170 0.019766
0.483691 0.095796 0.019392
0.520683 0.095418 0.019014
0.557398 0.095042 0.018638
0.593388 0.094674 0.018270
0.628666 0.094313 0.017910
0.663246 0.093960 0.017556
0.697139 0.093613 0.017209
0.730354 0.093273 0.016870
0.762901 0.092940 0.016537
0.794789 0.092614 0.016211
0.826026 0.092295 0.015891
0.856618 0.091982 0.015578
0.886574 0.091676 0.015272
0.915898 0.091376 0.014972
0.944599 0.091082 0.014678
0.972680 0.090795 0.014391
1.000000 0.090514 0.014110
1.000000 0.090239 0.013836
1.000000 0.089971 0.013567
0.039317 0.129453 0.022900
0.071807 0.129120 0.022567
0.104217 0.128789 0.022236
0.136778 0.128456 0.021903
0.169600 0.128120 0.021567
0.202747 0.127781 0.021228
0.236260 0.127438 0.020886
0.270166 0.127092 0.020539
0.304485 0.126741 0.020188
0.339230 0.126385 0.019832
0.374413 0.126026 0.019473
0.410043 0.125661 0.019108
0.446125 0.125292 0.018739
0.482664 0.124918 0.018365
0.519656 0.124540 0.017987
0.556371 0.124165 0.017612
0.592361 0.123796 0.017244
0.627640 0.123436 0.016883
0.662220 0.123082 0.016529
0.696112 0.122735 0.016182
0.729327 0.122396 0.015843
0.761875 0.122063 0.015510
0.793762 0.121737 0.015184
0.824999 0.121417 0.014864
0.855591 0.121104 0.014551
0.885547 0.120798 0.014245
0.914872 0.120498 0.013945
0.943572 0.120205 0.013652
0.971653 0.119917 0.013364
0.999121 0.119636 0.013083
1.000000 0.119362 0.012809
1.000000 0.119093 0.012540
0.038269 0.159159 0.021852
0.070759 0.158827 0.021520
0.103169 0.158495 0.021189
0.135730 0.158162 0.020856
0.168553 0.157827 0.020520
0.201700 0.157488 0.020181
0.235213 0.157145 0.019838
0.269119 0.156798 0.019491
0.303437 0.156447 0.019140
0.338183 0.156092 0.018785
0.373366 0.155732 0.018425
0.408995 0.155368 0.018061
0.445077 0.154999 0.017692
0.481617 0.154625 0.017318
0.518609 0.154246 0.016940
0.555323 0.153871 0.016564
0.591313 0.153503 0.016196
0.626592 0.153142 0.015835
0.661172 0.152788 0.015482
0.695065 0.152442 0.015135
0.728280 0.152102 0.014795
0.760827 0.151769 0.014462
0.792715 0.151443 0.014136
0.823952 0.151124 0.013817
0.854544 0.150811 0.013504
0.884499 0.150504 0.013198
0.913824 0.150204 0.012898
0.942524 0.149911 0.012604
0.970606 0.149624 0.012317
0.998073 0.149343 0.012036
1.000000 0.149068 0.011761
1.000000 0.148800 0.011493
0.037201 0.189450 0.020784
0.069691 0.189117 0.020452
0.102102 0.188786 0.020121
0.134662 0.188453 0.019788
0.167485 0.188117 0.019452
0.200632 0.187778 0.019113
0.234145 0.187435 0.018770
0.268051 0.187089 0.018423
0.302369 0.186738 0.018072
0.337115 0.186382 0.017717
0.372298 0.186022 0.017357
0.407928 0.185658 0.016993
0.444009 0.185289 0.016624
0.480549 0.184915 0.016250
0.517541 0.184537 0.015872
0.554255 0.184162 0.015496
0.590245 0.183793 0.015128
0.625524 0.183433 0.014767
0.660104 0.183079 0.014414
0.693997 0.182732 0.014067
0.727212 0.182393 0.013727
0.759759 0.182060 0.013394
0.791647 0.181734 0.013068
0.822884 0.181414 0.012749
0.853476 0.181101 0.012436
0.883431 0.180795 0.012130
0.912756 0.180495 0.011830
0.941456 0.180201 0.011536
0.969538 0.179914 0.011249
0.997005 0.179633 0.010968
1.000000 0.179359 0.010693
1.000000 0.179090 0.010425
0.036113 0.220324 0.019696
0.068603 0.219992 0.019363
0.101013 0.219660 0.019032
0.133574 0.219327 0.018699
0.166396 0.218992 0.018363
0.199543 0.218653 0.018024
0.233056 0.218310 0.017682
0.266962 0.217963 0.017335
0.301281 0.217612 0.016984
0.336026 0.217257 0.016628
0.371209 0.216897 0.016269
0.406839 0.216533 0.015904
0.442921 0.216164 0.015535
0.479460 0.215790 0.015161
0.516452 0.215412 0.014783
0.553167 0.215036 0.014408
0.589157 0.214668 0.014040
0.624436 0.214307 0.013679
0.659016 0.213954 0.013325
0.692908 0.213607 0.012978
0.726123 0.213267 0.012639
0.758671 0.212934 0.012306
0.790559 0.212608 0.011980
0.821795 0.212289 0.011660
0.852388 0.211976 0.011347
0.882343 0.211669 0.011041
0.911668 0.211370 0.010741
0.940368 0.211076 0.010448
0.968449 0.210789 0.010160
0.995917 0.210508 0.009880
1.000000 0.210233 0.009605
1.000000 0.209965 0.009336
0.035003 0.251783 0.018587
0.067494 0.251451 0.018254
0.099904 0.251119 0.017923
0.132465 0.250786 0.017590
0.165287 0.250450 0.017254
0.198434 0.250111 0.016915
0.231947 0.249769 0.016572
0.265853 0.249422 0.016226
0.300171 0.249071 0.015875
0.334917 0.248716 0.015519
0.370100 0.248356 0.015159
0.405730 0.247991 0.014795
0.441812 0.247622 0.014426
0.478351 0.247249 0.014052
0.515343 0.246870 0.013674
0.552058 0.246495 0.013299
0.588048 0.246127 0.012930
0.623327 0.245766 0.012570
0.657907 0.245412 0.012216
0.691799 0.245066 0.011869
0.725014 0.244726 0.011530
0.757562 0.244393 0.011197
0.789449 0.244067 0.010871
0.820686 0.243747 0.010551
0.851278 0.243435 0.010238
0.881234 0.243128 0.009932
0.910559 0.242828 0.009632
0.939259 0.242535 0.009338
0.967340 0.242248 0.009051
0.994807 0.241967 0.008770
1.000000 0.241692 0.008496
1.000000 0.241423 0.008227
0.033874 0.283826 0.017457
0.066364 0.283493 0.017125
0.098774 0.283162 0.016793
0.131335 0.282829 0.016460
0.164157 0.282493 0.016124
0.197304 0.282154 0.015785
0.230817 0.281811 0.015443
0.264723 0.281465 0.015096
0.299042 0.281114 0.014745
0.333787 0.280758 0.014390
0.368971 0.280398 0.014030
0.404600 0.280034 0.013665
0.440682 0.279665 0.013296
0.477222 0.279291 0.012923
0.514213 0.278913 0.012544
0.550928 0.278537 0.012169
0.586918 0.278169 0.011801
0.622197 0.277809 0.011440
0.656777 0.277455 0.011086
0.690669 0.277108 0.010740
0.723885 0.276769 0.010400
0.756432 0.276436 0.010067
0.788320 0.276110 0.009741
0.819556 0.275790 0.009421
0.850149 0.275477 0.009109
0.880104 0.275171 0.008802
0.909429 0.274871 0.008502
0.938129 0.274577 0.008209
0.966210 0.274290 0.007922
0.993678 0.274009 0.007641
1.000000 0.273735 0.007366
1.000000 0.273466 0.007097
0.032723 0.316452 0.016306
0.065213 0.316120 0.015974
0.097624 0.315789 0.015643
0.130184 0.315456 0.015310
0.163007 0.315120 0.014974
0.196154 0.314781 0.014635
0.229667 0.314438 0.014292
0.263573 0.314091 0.013946
0.297891 0.313740 0.013595
0.332637 0.313385 0.013239
0.367820 0.313025 0.012879
0.403450 0.312661 0.012515
0.439532 0.312292 0.012146
0.476071 0.311918 0.011772
0.513063 0.311540 0.011394
0.549778 0.311164 0.011018
0.585768 0.310796 0.010650
0.621046 0.310435 0.010290
0.655626 0.310082 0.009936
0.689519 0.309735 0.009589
0.722734 0.309395 0.009250
0.755281 0.309063 0.008917
0.787169 0.308736 0.008591
0.818406 0.308417 0.008271
0.848998 0.308104 0.007958
0.878954 0.307798 0.007652
0.908278 0.307498 0.007352
0.936979 0.307204 0.007058
0.965060 0.306917 0.006771
0.992527 0.306636 0.006490
1.000000 0.306361 0.006216
1.000000 0.306093 0.005947
0.031552 0.349663 0.015136
0.064042 0.349331 0.014803
0.096453 0.349000 0.014472
0.129014 0.348667 0.014139
0.161836 0.348331 0.013803
0.194983 0.347992 0.013464
0.228496 0.347649 0.013121
0.262402 0.347302 0.012775
0.296720 0.346951 0.012424
0.331466 0.346596 0.012068
0.366649 0.346236 0.011708
0.402279 0.345872 0.011344
0.438361 0.345503 0.010975
0.474900 0.345129 0.010601
0.511892 0.344751 0.010223
0.548607 0.344375 0.009847
0.584597 0.344007 0.009479
0.619875 0.343646 0.009119
0.654456 0.343293 0.008765
0.688348 0.342946 0.008418
0.721563 0.342606 0.008079
0.754110 0.342273 0.007746
0.785998 0.341947 0.007420
0.817235 0.341628 0.007100
0.847827 0.341315 0.006787
0.877783 0.341009 0.006481
0.907107 0.340709 0.006181
0.935808 0.340415 0.005887
0.963889 0.340128 0.005600
0.991356 0.339847 0.005319
1.000000 0.339572 0.005045
1.000000 0.339304 0.004776
0.030361 0.383458 0.013944
0.062851 0.383126 0.013612
0.095261 0.382795 0.013280
0.127822 0.382462 0.012947
0.160644 0.382126 0.012612
0.193791 0.381787 0.012273
0.227304 0.381444 0.011930
0.261210 0.381097 0.011583
0.295529 0.380746 0.011232
0.330274 0.380391 0.010877
0.365458 0.380031 0.010517
0.401087 0.379667 0.010152
0.437169 0.379298 0.009783
0.473709 0.378924 0.009410
0.510700 0.378546 0.009031
0.547415 0.378170 0.008656
0.583405 0.377802 0.008288
0.618684 0.377441 0.007927
0.653264 0.377088 0.007573
0.687157 0.376741 0.007227
0.720372 0.376401 0.006887
0.752919 0.376068 0.006554
0.784807 0.375742 0.006228
0.816043 0.375423 0.005909
0.846636 0.375110 0.005596
0.876591 0.374804 0.005289
0.905916 0.374504 0.004989
0.934616 0.374210 0.004696
0.962697 0.373923 0.004409
0.990165 0.373642 0.004128
1.000000 0.373367 0.003853
1.000000 0.373099 0.003585
0.029149 0.417837 0.012732
0.061639 0.417505 0.012400
0.094049 0.417174 0.012068
0.126610 0.416841 0.011735
0.159432 0.416505 0.011399
0.192579 0.416166 0.011060
0.226092 0.415823 0.010718
0.259998 0.415476 0.010371
0.294317 0.415125 0.010020
0.329062 0.414770 0.009665
0.364246 0.414410 0.009305
0.399875 0.414046 0.008940
0.435957 0.413677 0.008571
0.472497 0.413303 0.008198
0.509488 0.412925 0.007819
0.546203 0.412549 0.007444
0.582193 0.412181 0.007076
0.617472 0.411820 0.006715
0.652052 0.411467 0.006361
0.685944 0.411120 0.006015
0.719160 0.410780 0.005675
0.751707 0.410448 0.005342
0.783595 0.410121 0.005016
0.814831 0.409802 0.004696
0.845424 0.409489 0.004384
0.875379 0.409183 0.004077
0.904704 0.408883 0.003777
0.933404 0.408589 0.003484
0.961485 0.408302 0.003197
0.988953 0.408021 0.002916
1.000000 0.407746 0.002641
1.000000 0.407478 0.002372
0.027916 0.452801 0.011499
0.060406 0.452468 0.011167
0.092816 0.452137 0.010835
0.125377 0.451804 0.010502
0.158199 0.451468 0.010167
0.191347 0.451129 0.009828
0.224859 0.450786 0.009485
0.258765 0.450440 0.009138
0.293084 0.450089 0.008787
0.327829 0.449733 0.008432
0.363013 0.449373 0.008072
0.398642 0.449009 0.007708
0.434724 0.448640 0.007339
0.471264 0.448266 0.006965
0.508256 0.447888 0.006587
0.544970 0.447512 0.006211
0.580960 0.447144 0.005843
0.616239 0.446784 0.005482
0.650819 0.446430 0.005128
0.684712 0.446083 0.004782
0.717927 0.445744 0.004442
0.750474 0.445411 0.004109
0.782362 0.445085 0.003783
0.813598 0.444765 0.003464
0.844191 0.444452 0.003151
0.874146 0.444146 0.002844
0.903471 0.443846 0.002545
0.932171 0.443552 0.002251
0.960252 0.443265 0.001964
0.987720 0.442984 0.001683
1.000000 0.442710 0.001408
1.000000 0.442441 0.001140
0.026663 0.488348 0.010246
0.059153 0.488015 0.009914
0.091563 0.487684 0.009582
0.124124 0.487351 0.009249
0.156946 0.487015 0.008913
0.190093 0.486676 0.008574
0.223606 0.486334 0.008232
0.257512 0.485987 0.007885
0.291831 0.485636 0.007534
0.326576 0.485280 0.007178
0.361760 0.484921 0.006819
0.397389 0.484556 0.006454
0.433471 0.484187 0.006085
0.470011 0.483813 0.005712
0.507002 0.483435 0.005333
0.543717 0.483060 0.004958
0.579707 0.482692 0.004590
0.614986 0.482331 0.004229
0.649566 0.481977 0.003875
0.683458 0.481630 0.003529
0.716674 0.481291 0.003189
0.749221 0.480958 0.002856
0.781109 0.480632 0.002530
0.812345 0.480312 0.002210
0.842938 0.479999 0.001897
0.872893 0.479693 0.001591
0.902218 0.479393 0.001291
0.930918 0.479100 0.000998
0.958999 0.478812 0.000710
0.986467 0.478532 0.000430
1.000000 0.478257 0.000155
1.000000 0.477988 0.000000
0.025394 0.524337 0.008977
0.057884 0.524005 0.008645
0.090294 0.523673 0.008313
0.122855 0.523340 0.007980
0.155677 0.523004 0.007644
0.188824 0.522665 0.007305
0.222337 0.522323 0.006963
0.256243 0.521976 0.006616
0.290562 0.521625 0.006265
0.325307 0.521269 0.005910
0.360491 0.520910 0.005550
0.396120 0.520545 0.005185
0.432202 0.520176 0.004816
0.468742 0.519803 0.004443
0.505733 0.519424 0.004064
0.542448 0.519049 0.003689
0.578438 0.518681 0.003321
0.613717 0.518320 0.002960
0.648297 0.517966 0.002606
0.682189 0.517620 0.002260
0.715405 0.517280 0.001920
0.747952 0.516947 0.001587
0.779840 0.516621 0.001261
0.811076 0.516301 0.000941
0.841669 0.515988 0.000629
0.871624 0.515682 0.000322
0.900949 0.515382 0.000022
0.929649 0.515089 0.000000
0.957730 0.514801 0.000000
0.985198 0.514521 0.000000
1.000000 0.514246 0.000000
1.000000 0.513977 0.000000
0.024140 0.559892 0.007723
0.056630 0.559559 0.007391
0.089040 0.559228 0.007060
0.121601 0.558895 0.006727
0.154424 0.558559 0.006391
0.187571 0.558220 0.006052
0.221084 0.557877 0.005709
0.254990 0.557531 0.005362
0.289308 0.557180 0.005011
0.324054 0.556824 0.004656
0.359237 0.556464 0.004296
0.394866 0.556100 0.003932
0.430948 0.555731 0.003563
0.467488 0.555357 0.003189
0.504480 0.554979 0.002811
0.541194 0.554603 0.002435
0.577184 0.554235 0.002067
0.612463 0.553875 0.001706
0.647043 0.553521 0.001353
0.680936 0.553174 0.001006
0.714151 0.552835 0.000666
0.746698 0.552502 0.000333
0.778586 0.552176 0.000007
0.809823 0.551856 0.000000
0.840415 0.551543 0.000000
0.870370 0.551237 0.000000
0.899695 0.550937 0.000000
0.928395 0.550643 0.000000
0.956477 0.550356 0.000000
0.983944 0.550075 0.000000
1.000000 0.549801 0.000000
1.000000 0.549532 0.000000
0.022907 0.594862 0.006490
0.055397 0.594530 0.006158
0.087807 0.594198 0.005827
0.120368 0.593865 0.005494
0.153191 0.593530 0.005158
0.186338 0.593191 0.004819
0.219851 0.592848 0.004476
0.253757 0.592501 0.004129
0.288075 0.592150 0.003778
0.322821 0.591795 0.003423
0.358004 0.591435 0.003063
0.393633 0.591071 0.002699
0.429715 0.590702 0.002330
0.466255 0.590328 0.001956
0.503247 0.589950 0.001578
0.539961 0.589574 0.001202
0.575951 0.589206 0.000834
0.611230 0.588845 0.000473
0.645810 0.588492 0.000120
0.679703 0.588145 0.000000
0.712918 0.587805 0.000000
0.745465 0.587472 0.000000
0.777353 0.587146 0.000000
0.808590 0.586827 0.000000
0.839182 0.586514 0.000000
0.869137 0.586208 0.000000
0.898462 0.585908 0.000000
0.927162 0.585614 0.000000
0.955244 0.585327 0.000000
0.982711 0.585046 0.000000
1.000000 0.584771 0.000000
1.000000 0.584503 0.000000
0.021695 0.629249 0.005278
0.054185 0.628917 0.004946
0.086595 0.628585 0.004614
0.119156 0.628252 0.004281
0.151978 0.627916 0.003945
0.185125 0.627577 0.003606
0.218638 0.627235 0.003264
0.252544 0.626888 0.002917
0.286863 0.626537 0.002566
0.321608 0.626182 0.002211
0.356792 0.625822 0.001851
0.392421 0.625457 0.001486
0.428503 0.625088 0.001117
0.465043 0.624715 0.000744
0.502034 0.624336 0.000365
0.538749 0.623961 0.000000
0.574739 0.623593 0.000000
0.610018 0.623232 0.000000
0.644598 0.622878 0.000000
0.678490 0.622532 0.000000
0.711706 0.622192 0.000000
0.744253 0.621859 0.000000
0.776141 0.621533 0.000000
0.807377 0.621213 0.000000
0.837970 0.620901 0.000000
0.867925 0.620594 0.000000
0.897250 0.620294 0.000000
0.925950 0.620001 0.000000
0.954031 0.619714 0.000000
0.981499 0.619433 0.000000
1.000000 0.619158 0.000000
1.000000 0.618889 0.000000
0.020503 0.663051 0.004086
0.052993 0.662719 0.003754
0.085403 0.662388 0.003422
0.117964 0.662055 0.003089
0.150786 0.661719 0.002754
0.183934 0.661380 0.002415
0.217446 0.661037 0.002072
0.251352 0.660690 0.001725
0.285671 0.660339 0.001374
0.320416 0.659984 0.001019
0.355600 0.659624 0.000659
0.391229 0.659260 0.000295
0.427311 0.658891 0.000000
0.463851 0.658517 0.000000
0.500843 0.658139 0.000000
0.537557 0.657763 0.000000
0.573547 0.657395 0.000000
0.608826 0.657034 0.000000
0.643406 0.656681 0.000000
0.677299 0.656334 0.000000
0.710514 0.655994 0.000000
0.743061 0.655662 0.000000
0.774949 0.655335 0.000000
0.806185 0.655016 0.000000
0.836778 0.654703 0.000000
0.866733 0.654397 0.000000
0.896058 0.654097 0.000000
0.924758 0.653803 0.000000
0.952839 0.653516 0.000000
0.980307 0.653235 0.000000
1.000000 0.652960 0.000000
1.000000 0.652692 0.000000
0.019332 0.696270 0.002915
0.051822 0.695938 0.002583
0.084232 0.695606 0.002251
0.116793 0.695273 0.001918
0.149615 0.694937 0.001582
0.182762 0.694598 0.001243
0.216275 0.694256 0.000901
0.250181 0.693909 0.000554
0.284500 0.693558 0.000203
0.319245 0.693203 0.000000
0.354429 0.692843 0.000000
0.390058 0.692478 0.000000
0.426140 0.692109 0.000000
0.462680 0.691736 0.000000
0.499671 0.691357 0.000000
0.536386 0.690982 0.000000
0.572376 0.690614 0.000000
0.607655 0.690253 0.000000
0.642235 0.689899 0.000000
0.676127 0.689553 0.000000
0.709343 0.689213 0.000000
0.741890 0.688880 0.000000
0.773778 0.688554 0.000000
0.805014 0.688234 0.000000
0.835607 0.687922 0.000000
0.865562 0.687615 0.000000
0.894887 0.687315 0.000000
0.923587 0.687022 0.000000
0.951668 0.686735 0.000000
0.979136 0.686454 0.000000
1.000000 0.686179 0.000000
1.000000 0.685910 0.000000
0.018181 0.728904 0.001764
0.050671 0.728572 0.001432
0.083081 0.728240 0.001101
0.115642 0.727907 0.000768
0.148465 0.727572 0.000432
0.181612 0.727233 0.000093
0.215125 0.726890 0.000000
0.249031 0.726543 0.000000
0.283349 0.726192 0.000000
0.318095 0.725837 0.000000
0.353278 0.725477 0.000000
0.388907 0.725113 0.000000
0.424989 0.724744 0.000000
0.461529 0.724370 0.000000
0.498521 0.723992 0.000000
0.535235 0.723616 0.000000
0.571225 0.723248 0.000000
0.606504 0.722887 0.000000
0.641084 0.722534 0.000000
0.674977 0.722187 0.000000
0.708192 0.721847 0.000000
0.740739 0.721514 0.000000
0.772627 0.721188 0.000000
0.803864 0.720869 0.000000
0.834456 0.720556 0.000000
0.864411 0.720250 0.000000
0.893736 0.719950 0.000000
0.922436 0.719656 0.000000
0.950518 0.719369 0.000000
0.977985 0.719088 0.000000
1.000000 0.718813 0.000000
1.000000 0.718545 0.000000
0.017051 0.760954 0.000634
0.049541 0.760622 0.000302
0.081951 0.760291 0.000000
0.114512 0.759958 0.000000
0.147334 0.759622 0.000000
0.180482 0.759283 0.000000
0.213995 0.758940 0.000000
0.247901 0.758594 0.000000
0.282219 0.758243 0.000000
0.316965 0.757887 0.000000
0.352148 0.757527 0.000000
0.387777 0.757163 0.000000
0.423859 0.756794 0.000000
0.460399 0.756420 0.000000
0.497391 0.756042 0.000000
0.534105 0.755666 0.000000
0.570095 0.755298 0.000000
0.605374 0.754938 0.000000
0.639954 0.754584 0.000000
0.673847 0.754237 0.000000
0.707062 0.753898 0.000000
0.739609 0.753565 0.000000
0.771497 0.753239 0.000000
0.802734 0.752919 0.000000
0.833326 0.752606 0.000000
0.863281 0.752300 0.000000
0.892606 0.752000 0.000000
0.921306 0.751706 0.000000
0.949387 0.751419 0.000000
0.976855 0.751138 0.000000
1.000000 0.750864 0.000000
1.000000 0.750595 0.000000
0.015942 0.792421 0.000000
0.048432 0.792088 0.000000
0.080842 0.791757 0.000000
0.113403 0.791424 0.000000
0.146225 0.791088 0.000000
0.179372 0.790749 0.000000
0.212885 0.790406 0.000000
0.246791 0.790060 0.000000
0.281110 0.789709 0.000000
0.315855 0.789353 0.000000
0.351039 0.788994 0.000000
0.386668 0.788629 0.000000
0.422750 0.788260 0.000000
0.459290 0.787886 0.000000
0.496281 0.787508 0.000000
0.532996 0.787133 0.000000
0.568986 0.786765 0.000000
0.604265 0.786404 0.000000
0.638845 0.786050 0.000000
0.672737 0.785703 0.000000
0.705953 0.785364 0.000000
0.738500 0.785031 0.000000
0.770388 0.784705 0.000000
0.801624 0.784385 0.000000
0.832217 0.784072 0.000000
0.862172 0.783766 0.000000
0.891497 0.783466 0.000000
0.920197 0.783173 0.000000
0.948278 0.782885 0.000000
0.975746 0.782604 0.000000
1.000000 0.782330 0.000000
1.000000 0.782061 0.000000
0.014853 0.823303 0.000000
0.047343 0.822971 0.000000
0.079753 0.822639 0.000000
0.112314 0.822306 0.000000
0.145136 0.821970 0.000000
0.178283 0.821631 0.000000
0.211796 0.821289 0.000000
0.245702 0.820942 0.000000
0.280021 0.820591 0.000000
0.314766 0.820236 0.000000
0.349950 0.819876 0.000000
0.385579 0.819511 0.000000
0.421661 0.819142 0.000000
0.458201 0.818769 0.000000
0.495192 0.818390 0.000000
0.531907 0.818015 0.000000
0.567897 0.817647 0.000000
0.603176 0.817286 0.000000
0.637756 0.816932 0.000000
0.671649 0.816586 0.000000
0.704864 0.816246 0.000000
0.737411 0.815913 0.000000
0.769299 0.815587 0.000000
0.800535 0.815267 0.000000
0.831128 0.814954 0.000000
0.861083 0.814648 0.000000
0.890408 0.814348 0.000000
0.919108 0.814055 0.000000
0.947189 0.813767 0.000000
0.974657 0.813487 0.000000
1.000000 0.813212 0.000000
1.000000 0.812943 0.000000
0.013785 0.853601 0.000000
0.046275 0.853269 0.000000
0.078685 0.852937 0.000000
0.111246 0.852604 0.000000
0.144068 0.852268 0.000000
0.177215 0.851929 0.000000
0.210728 0.851587 0.000000
0.244634 0.851240 0.000000
0.278953 0.850889 0.000000
0.313698 0.850534 0.000000
0.348881 0.850174 0.000000
0.384511 0.849809 0.000000
0.420593 0.849440 0.000000
0.457132 0.849067 0.000000
0.494124 0.848688 0.000000
0.530839 0.848313 0.000000
0.566829 0.847945 0.000000
0.602108 0.847584 0.000000
0.636688 0.847230 0.000000
0.670580 0.846884 0.000000
0.703795 0.846544 0.000000
0.736343 0.846211 0.000000
0.768231 0.845885 0.000000
0.799467 0.845565 0.000000
0.830059 0.845253 0.000000
0.860015 0.844946 0.000000
0.889340 0.844646 0.000000
0.918040 0.844353 0.000000
0.946121 0.844066 0.000000
0.973589 0.843785 0.000000
1.000000 0.843510 0.000000
1.000000 0.843241 0.000000
0.012737 0.883315 0.000000
0.045227 0.882983 0.000000
0.077637 0.882651 0.000000
0.110198 0.882318 0.000000
0.143020 0.881982 0.000000
0.176168 0.881643 0.000000
0.209680 0.881301 0.000000
0.243586 0.880954 0.000000
0.277905 0.880603 0.000000
0.312650 0.880248 0.000000
0.347834 0.879888 0.000000
0.383463 0.879523 0.000000
0.419545 0.879154 0.000000
0.456085 0.878781 0.000000
0.493077 0.878402 0.000000
0.529791 0.878027 0.000000
0.565781 0.877659 0.000000
0.601060 0.877298 0.000000
0.635640 0.876944 0.000000
