assets/luts/retro.cube
# Beauty Camera 3D LUT
# Filter: Retro (retro)
# Category: Film
TITLE "Retro"
LUT_3D_SIZE 8
DOMAIN_MIN 0.000000 0.000000 0.000000
DOMAIN_MAX 0.903226 0.903226 0.903226
0.043300 0.016468 0.026883
0.173584 0.015135 0.025551
0.308468 0.013756 0.024171
0.450108 0.012307 0.022723
0.596344 0.010812 0.021227
0.733311 0.009411 0.019826
0.859575 0.008119 0.018535
0.975637 0.006932 0.017348
0.039317 0.129453 0.022900
0.169600 0.128120 0.021567
0.304485 0.126741 0.020188
0.446125 0.125292 0.018739
0.592361 0.123796 0.017244
0.729327 0.122396 0.015843
0.855591 0.121104 0.014551
0.971653 0.119917 0.013364
0.035003 0.251783 0.018587
0.165287 0.250450 0.017254
0.300171 0.249071 0.015875
0.441812 0.247622 0.014426
0.588048 0.246127 0.012930
0.725014 0.244726 0.011530
0.851278 0.243435 0.010238
0.967340 0.242248 0.009051
0.030361 0.383458 0.013944
0.160644 0.382126 0.012612
0.295529 0.380746 0.011232
0.437169 0.379298 0.009783
0.583405 0.377802 0.008288
0.720372 0.376401 0.006887
0.846636 0.375110 0.005596
0.962697 0.373923 0.004409
0.025394 0.524337 0.008977
0.155677 0.523004 0.007644
0.290562 0.521625 0.006265
0.432202 0.520176 0.004816
0.578438 0.518681 0.003321
0.715405 0.517280 0.001920
0.841669 0.515988 0.000629
0.957730 0.514801 0.000000
0.020503 0.663051 0.004086
0.150786 0.661719 0.002754
0.285671 0.660339 0.001374
0.427311 0.658891 0.000000
0.573547 0.657395 0.000000
0.710514 0.655994 0.000000
0.836778 0.654703 0.000000
0.952839 0.653516 0.000000
0.015942 0.792421 0.000000
0.146225 0.791088 0.000000
0.281110 0.789709 0.000000
0.422750 0.788260 0.000000
0.568986 0.786765 0.000000
0.705953 0.785364 0.000000
0.832217 0.784072 0.000000
0.948278 0.782885 0.000000
0.011710 0.912445 0.000000
0.141993 0.911112 0.000000
0.276878 0.909733 0.000000
0.418518 0.908284 0.000000
0.564754 0.906789 0.000000
0.701721 0.905388 0.000000
0.827985 0.904096 0.000000
0.944046 0.902909 0.000000
0.042956 0.016123 0.126764
0.173239 0.014791 0.125432
0.308124 0.013411 0.124052
0.449764 0.011963 0.122604
0.596000 0.010467 0.121108
0.732966 0.009066 0.119707
0.859230 0.007775 0.118416
0.975292 0.006588 0.117229
0.038972 0.129108 0.122781
0.169255 0.127776 0.121448
0.304140 0.126396 0.120069
0.445780 0.124948 0.118620
0.592016 0.123452 0.117124
0.728983 0.122051 0.115724
0.855247 0.120760 0.114432
0.971308 0.119573 0.113245
0.034659 0.251438 0.118467
0.164942 0.250106 0.117135
0.299827 0.248726 0.115755
0.441467 0.247278 0.114307
0.587703 0.245782 0.112811
0.724670 0.244381 0.111410
0.850934 0.243090 0.110119
0.966995 0.241903 0.108932
0.030016 0.383114 0.113825
0.160300 0.381781 0.112492
0.295184 0.380402 0.111113
0.436825 0.378953 0.109664
0.583060 0.377458 0.108169
0.720027 0.376057 0.106768
0.846291 0.374765 0.105476
0.962353 0.373578 0.104289
0.025049 0.523992 0.108858
0.155333 0.522660 0.107525
0.290217 0.521280 0.106146
0.431857 0.519832 0.104697
0.578093 0.518336 0.103202
0.715060 0.516935 0.101801
0.841324 0.515644 0.100509
0.957386 0.514457 0.099322
0.020158 0.662707 0.103967
0.150442 0.661374 0.102634
0.285326 0.659995 0.101255
0.426967 0.658546 0.099806
0.573203 0.657051 0.098311
0.710169 0.655650 0.096910
0.836433 0.654358 0.095619
0.952495 0.653171 0.094432
0.015597 0.792076 0.099406
0.145880 0.790744 0.098073
0.280765 0.789364 0.096694
0.422405 0.787916 0.095245
0.568641 0.786420 0.093749
0.705608 0.785019 0.092349
0.831872 0.783728 0.091057
0.947933 0.782541 0.089870
0.011365 0.912100 0.095174
0.141649 0.910768 0.093841
0.276533 0.909388 0.092462
0.418174 0.907940 0.091013
0.564410 0.906444 0.089518
0.701376 0.905043 0.088117
0.827640 0.903752 0.086826
0.943702 0.902565 0.085639
0.042569 0.015737 0.238756
0.172853 0.014404 0.237424
0.307737 0.013025 0.236044
0.449378 0.011576 0.234596
0.595613 0.010081 0.233100
0.732580 0.008680 0.231699
0.858844 0.007389 0.230408
0.974906 0.006202 0.229221
0.038586 0.128722 0.234773
0.168869 0.127389 0.233440
0.303754 0.126010 0.232061
0.445394 0.124561 0.230612
0.591630 0.123066 0.229116
0.728596 0.121665 0.227716
0.854861 0.120373 0.226424
0.970922 0.119186 0.225237
0.034273 0.251052 0.230460
0.164556 0.249719 0.229127
0.299440 0.248340 0.227748
0.441081 0.246891 0.226299
0.587317 0.245396 0.224803
0.724283 0.243995 0.223403
0.850547 0.242704 0.222111
0.966609 0.241517 0.220924
0.029630 0.382727 0.225817
0.159913 0.381395 0.224484
0.294798 0.380015 0.223105
0.436438 0.378567 0.221656
0.582674 0.377071 0.220161
0.719641 0.375670 0.218760
0.845905 0.374379 0.217469
0.961966 0.373192 0.216282
0.024663 0.523606 0.220850
0.154946 0.522273 0.219517
0.289831 0.520894 0.218138
0.431471 0.519445 0.216689
0.577707 0.517950 0.215194
0.714674 0.516549 0.213793
0.840938 0.515258 0.212501
0.956999 0.514071 0.211314
0.019772 0.662320 0.215959
0.150055 0.660988 0.214627
0.284940 0.659608 0.213247
0.426580 0.658160 0.211798
0.572816 0.656664 0.210303
0.709783 0.655263 0.208902
0.836047 0.653972 0.207611
0.952108 0.652785 0.206424
0.015211 0.791690 0.211398
0.145494 0.790357 0.210065
0.280379 0.788978 0.208686
0.422019 0.787529 0.207237
0.568255 0.786034 0.205742
0.705222 0.784633 0.204341
0.831486 0.783341 0.203049
0.947547 0.782154 0.201862
0.010979 0.911714 0.207166
0.141262 0.910381 0.205833
0.276147 0.909002 0.204454
0.417787 0.907553 0.203005
0.564023 0.906058 0.201510
0.700990 0.904657 0.200109
0.827254 0.903365 0.198818
0.943315 0.902178 0.197631
0.042146 0.015314 0.361390
0.172430 0.013981 0.360058
0.307314 0.012602 0.358678
0.448954 0.011153 0.357230
0.595190 0.009658 0.355734
0.732157 0.008257 0.354333
0.858421 0.006965 0.353042
0.974483 0.005778 0.351855
0.038163 0.128299 0.357406
0.168446 0.126966 0.356074
0.303330 0.125587 0.354695
0.444971 0.124138 0.353246
0.591207 0.122642 0.351750
0.728173 0.121242 0.350349
0.854437 0.119950 0.349058
0.970499 0.118763 0.347871
0.033849 0.250629 0.353093
0.164133 0.249296 0.351761
0.299017 0.247917 0.350381
0.440658 0.246468 0.348933
0.586894 0.244973 0.347437
0.723860 0.243572 0.346036
0.850124 0.242280 0.344745
0.966186 0.241093 0.343558
0.029207 0.382304 0.348451
0.159490 0.380972 0.347118
0.294375 0.379592 0.345739
0.436015 0.378144 0.344290
0.582251 0.376648 0.342795
0.719218 0.375247 0.341394
0.845482 0.373956 0.340102
0.961543 0.372769 0.338915
0.024240 0.523183 0.343484
0.154523 0.521850 0.342151
0.289408 0.520471 0.340772
0.431048 0.519022 0.339323
0.577284 0.517527 0.337828
0.714251 0.516126 0.336427
0.840515 0.514834 0.335135
0.956576 0.513647 0.333948
0.019349 0.661897 0.338593
0.149632 0.660565 0.337260
0.284517 0.659185 0.335881
0.426157 0.657737 0.334432
0.572393 0.656241 0.332937
0.709360 0.654840 0.331536
0.835624 0.653549 0.330245
0.951685 0.652362 0.329058
0.014788 0.791267 0.334032
0.145071 0.789934 0.332699
0.279956 0.788555 0.331320
0.421596 0.787106 0.329871
0.567832 0.785610 0.328375
0.704799 0.784210 0.326975
0.831063 0.782918 0.325683
0.947124 0.781731 0.324496
0.010556 0.911291 0.329800
0.140839 0.909958 0.328467
0.275724 0.908579 0.327088
0.417364 0.907130 0.325639
0.563600 0.905635 0.324144
0.700567 0.904234 0.322743
0.826831 0.902942 0.321451
0.942892 0.901755 0.320264
0.041688 0.014855 0.494294
0.171971 0.013523 0.492961
0.306856 0.012143 0.491582
0.448496 0.010695 0.490133
0.594732 0.009199 0.488638
0.731698 0.007798 0.487237
0.857963 0.006507 0.485946
0.974024 0.005320 0.484759
0.037704 0.127840 0.490310
0.167987 0.126508 0.488978
0.302872 0.125128 0.487598
0.444512 0.123680 0.486150
0.590748 0.122184 0.484654
0.727715 0.120783 0.483253
0.853979 0.119492 0.481962
0.970040 0.118305 0.480775
0.033391 0.250170 0.485997
0.163674 0.248838 0.484665
0.298559 0.247458 0.483285
0.440199 0.246010 0.481837
0.586435 0.244514 0.480341
0.723402 0.243113 0.478940
0.849666 0.241822 0.477649
0.965727 0.240635 0.476462
0.028748 0.381846 0.481355
0.159032 0.380513 0.480022
0.293916 0.379134 0.478643
0.435557 0.377685 0.477194
0.581793 0.376190 0.475698
0.718759 0.374789 0.474298
0.845023 0.373497 0.473006
0.961085 0.372310 0.471819
0.023781 0.522724 0.476388
0.154065 0.521392 0.475055
0.288949 0.520012 0.473676
0.430590 0.518564 0.472227
0.576825 0.517068 0.470731
0.713792 0.515667 0.469331
0.840056 0.514376 0.468039
0.956118 0.513189 0.466852
0.018890 0.661439 0.471497
0.149174 0.660106 0.470164
0.284058 0.658727 0.468785
0.425699 0.657278 0.467336
0.571935 0.655783 0.465841
0.708901 0.654382 0.464440
0.835165 0.653091 0.463148
0.951227 0.651904 0.461961
0.014329 0.790808 0.466935
0.144613 0.789476 0.465603
0.279497 0.788096 0.464223
0.421137 0.786648 0.462775
0.567373 0.785152 0.461279
0.704340 0.783751 0.459878
0.830604 0.782460 0.458587
0.946666 0.781273 0.457400
0.010097 0.910832 0.462704
0.140381 0.909500 0.461371
0.275265 0.908120 0.459992
0.416906 0.906672 0.458543
0.563142 0.905176 0.457047
0.700108 0.903775 0.455647
0.826372 0.902484 0.454355
0.942434 0.901297 0.453168
0.041213 0.014381 0.631861
0.171496 0.013048 0.630529
0.306381 0.011669 0.629149
0.448021 0.010220 0.627701
0.594257 0.008724 0.626205
0.731224 0.007324 0.624804
0.857488 0.006032 0.623513
0.973549 0.004845 0.622326
0.037229 0.127366 0.627878
0.167513 0.126033 0.626545
0.302397 0.124654 0.625166
0.444038 0.123205 0.623717
0.590274 0.121709 0.622221
0.727240 0.120309 0.620821
0.853504 0.119017 0.619529
0.969566 0.117830 0.618342
0.032916 0.249696 0.623564
0.163200 0.248363 0.622232
0.298084 0.246984 0.620852
0.439725 0.245535 0.619404
0.585961 0.244040 0.617908
0.722927 0.242639 0.616507
0.849191 0.241347 0.615216
0.965253 0.240160 0.614029
0.028274 0.381371 0.618922
0.158557 0.380039 0.617589
0.293442 0.378659 0.616210
0.435082 0.377211 0.614761
0.581318 0.375715 0.613266
0.718285 0.374314 0.611865
0.844549 0.373023 0.610573
0.960610 0.371836 0.609386
0.023307 0.522250 0.613955
0.153590 0.520917 0.612622
0.288475 0.519538 0.611243
0.430115 0.518089 0.609794
0.576351 0.516593 0.608299
0.713317 0.515193 0.606898
0.839582 0.513901 0.605606
0.955643 0.512714 0.604419
0.018416 0.660964 0.609064
0.148699 0.659632 0.607731
0.283584 0.658252 0.606352
0.425224 0.656804 0.604903
0.571460 0.655308 0.603408
0.708427 0.653907 0.602007
0.834691 0.652616 0.600716
0.950752 0.651429 0.599529
0.013855 0.790334 0.604503
0.144138 0.789001 0.603170
0.279022 0.787622 0.601791
0.420663 0.786173 0.600342
0.566899 0.784677 0.598846
0.703865 0.783277 0.597446
0.830129 0.781985 0.596154
0.946191 0.780798 0.594967
0.009623 0.910358 0.600271
0.139906 0.909025 0.598938
0.274791 0.907646 0.597559
0.416431 0.906197 0.596110
0.562667 0.904701 0.594615
0.699634 0.903301 0.593214
0.825898 0.902009 0.591922
0.941959 0.900822 0.590735
0.040762 0.013930 0.762462
0.171046 0.012598 0.761130
0.305930 0.011218 0.759750
0.447571 0.009770 0.758302
0.593807 0.008274 0.756806
0.730773 0.006873 0.755405
0.857037 0.005582 0.754114
0.973099 0.004395 0.752927
0.036779 0.126915 0.758478
0.167062 0.125583 0.757146
0.301947 0.124203 0.755767
0.443587 0.122754 0.754318
0.589823 0.121259 0.752822
0.726790 0.119858 0.751422
0.853054 0.118567 0.750130
0.969115 0.117380 0.748943
0.032466 0.249245 0.754165
0.162749 0.247913 0.752833
0.297634 0.246533 0.751453
0.439274 0.245085 0.750005
0.585510 0.243589 0.748509
0.722477 0.242188 0.747108
0.848741 0.240897 0.745817
0.964802 0.239710 0.744630
0.027823 0.380921 0.749523
0.158107 0.379588 0.748190
0.292991 0.378209 0.746811
0.434631 0.376760 0.745362
0.580867 0.375264 0.743867
0.717834 0.373864 0.742466
0.844098 0.372572 0.741174
0.960160 0.371385 0.739987
0.022856 0.521799 0.744556
0.153139 0.520467 0.743223
0.288024 0.519087 0.741844
0.429664 0.517639 0.740395
0.575900 0.516143 0.738900
0.712867 0.514742 0.737499
0.839131 0.513451 0.736207
0.955192 0.512264 0.735020
0.017965 0.660514 0.739665
0.148249 0.659181 0.738332
0.283133 0.657802 0.736953
0.424774 0.656353 0.735504
0.571009 0.654858 0.734009
0.707976 0.653457 0.732608
0.834240 0.652165 0.731317
0.950302 0.650978 0.730130
0.013404 0.789883 0.735104
0.143687 0.788551 0.733771
0.278572 0.787171 0.732392
0.420212 0.785722 0.730943
0.566448 0.784227 0.729447
0.703415 0.782826 0.728047
0.829679 0.781535 0.726755
0.945740 0.780348 0.725568
0.009172 0.909907 0.730872
0.139456 0.908575 0.729539
0.274340 0.907195 0.728160
0.415980 0.905746 0.726711
0.562216 0.904251 0.725216
0.699183 0.902850 0.723815
0.825447 0.901559 0.722523
0.941509 0.900372 0.721336
0.040339 0.013506 0.885321
0.170622 0.012174 0.883988
0.305507 0.010794 0.882609
0.447147 0.009346 0.881160
0.593383 0.007850 0.879665
0.730349 0.006449 0.878264
0.856614 0.005158 0.876973
0.972675 0.003971 0.875786
0.036355 0.126491 0.881337
0.166638 0.125159 0.880005
0.301523 0.123779 0.878625
0.443163 0.122331 0.877177
0.589399 0.120835 0.875681
0.726366 0.119434 0.874280
0.852630 0.118143 0.872989
0.968691 0.116956 0.871802
0.032042 0.248821 0.877024
0.162325 0.247489 0.875692
0.297210 0.246109 0.874312
0.438850 0.244661 0.872864
0.585086 0.243165 0.871368
0.722053 0.241764 0.869967
0.848317 0.240473 0.868676
0.964378 0.239286 0.867489
0.027399 0.380497 0.872382
0.157683 0.379164 0.871049
0.292567 0.377785 0.869670
0.434208 0.376336 0.868221
0.580443 0.374841 0.866725
0.717410 0.373440 0.865325
0.843674 0.372148 0.864033
0.959736 0.370961 0.862846
0.022432 0.521375 0.867414
0.152716 0.520043 0.866082
0.287600 0.518663 0.864702
0.429240 0.517215 0.863254
0.575476 0.515719 0.861758
0.712443 0.514318 0.860357
0.838707 0.513027 0.859066
0.954769 0.511840 0.857879
0.017541 0.660090 0.862524
0.147825 0.658757 0.861191
0.282709 0.657378 0.859812
0.424350 0.655929 0.858363
0.570586 0.654434 0.856867
0.707552 0.653033 0.855467
0.833816 0.651741 0.854175
0.949878 0.650554 0.852988
0.012980 0.789459 0.857962
0.143263 0.788127 0.856630
0.278148 0.786747 0.855250
0.419788 0.785299 0.853802
0.566024 0.783803 0.852306
0.702991 0.782402 0.850905
0.829255 0.781111 0.849614
0.945316 0.779924 0.848427
0.008748 0.909483 0.853731
0.139032 0.908151 0.852398
0.273916 0.906771 0.851019
0.415557 0.905323 0.849570
0.561793 0.903827 0.848074
0.698759 0.902426 0.846674
0.825023 0.901135 0.845382
0.941085 0.899948 0.844195
