assets/luts/sakura.cube
# Beauty Camera 3D LUT
# Filter: Sakura (sakura)
# Category: Korean
TITLE "Sakura"
LUT_3D_SIZE 5
DOMAIN_MIN 0.000000 0.000000 0.000000
DOMAIN_MAX 0.903226 0.903226 0.903226
0.025060 0.000000 0.022072
0.288577 0.000000 0.022072
0.527647 0.000000 0.022072
0.770603 0.000000 0.022072
0.920316 0.000000 0.022072
0.025060 0.239433 0.022072
0.288577 0.239433 0.022072
0.527647 0.239433 0.022072
0.770603 0.239433 0.022072
0.920316 0.239433 0.022072
0.025060 0.474811 0.022072
0.288577 0.474811 0.022072
0.527647 0.474811 0.022072
0.770603 0.474811 0.022072
0.920316 0.474811 0.022072
0.025060 0.707904 0.022072
0.288577 0.707904 0.022072
0.527647 0.707904 0.022072
0.770603 0.707904 0.022072
0.920316 0.707904 0.022072
0.025060 0.901297 0.022072
0.288577 0.901297 0.022072
0.527647 0.901297 0.022072
0.770603 0.901297 0.022072
0.920316 0.901297 0.022072
0.025060 0.000000 0.278569
0.288577 0.000000 0.278569
0.527647 0.000000 0.278569
0.770603 0.000000 0.278569
0.920316 0.000000 0.278569
0.025060 0.239433 0.278569
0.288577 0.239433 0.278569
0.527647 0.196302 0.234529
0.770603 0.152822 0.189868
0.920316 0.108894 0.144427
0.025060 0.474811 0.278569
0.288577 0.474811 0.278569
0.527647 0.474811 0.278569
0.770603 0.474811 0.278569
0.920316 0.474811 0.278569
0.025060 0.707904 0.278569
0.288577 0.707904 0.278569
0.527647 0.707904 0.278569
0.770603 0.707904 0.278569
0.920316 0.707904 0.278569
0.025060 0.901297 0.278569
0.288577 0.901297 0.278569
0.527647 0.901297 0.278569
0.770603 0.901297 0.278569
0.920316 0.901297 0.278569
0.025060 0.000000 0.515543
0.288577 0.000000 0.515543
0.527647 0.000000 0.515543
0.770603 0.000000 0.515543
0.920316 0.000000 0.515543
0.025060 0.239433 0.515543
0.288577 0.239433 0.515543
0.527647 0.239433 0.515543
0.770603 0.152822 0.473640
0.920316 0.108894 0.431451
0.025060 0.474811 0.515543
0.288577 0.474811 0.515543
0.527647 0.474811 0.515543
0.770603 0.432855 0.473640
0.920316 0.390742 0.431451
0.025060 0.707904 0.515543
0.288577 0.707904 0.515543
0.527647 0.707904 0.515543
0.770603 0.707904 0.515543
0.920316 0.707904 0.515543
0.025060 0.901297 0.515543
0.288577 0.901297 0.515543
0.527647 0.901297 0.515543
0.770603 0.901297 0.515543
0.920316 0.901297 0.515543
0.025060 0.000000 0.756839
0.288577 0.000000 0.756839
0.527647 0.000000 0.756839
0.770603 0.000000 0.756839
0.920316 0.000000 0.756839
0.025060 0.239433 0.756839
0.288577 0.239433 0.756839
0.527647 0.239433 0.756839
0.770603 0.239433 0.756839
0.920316 0.239433 0.756839
0.025060 0.474811 0.756839
0.288577 0.474811 0.756839
0.527647 0.474811 0.756839
0.770603 0.474811 0.756839
0.920316 0.390742 0.704856
0.025060 0.707904 0.756839
0.288577 0.707904 0.756839
0.527647 0.707904 0.756839
0.770603 0.707904 0.756839
0.920316 0.664312 0.704856
0.025060 0.901297 0.756839
0.288577 0.901297 0.756839
0.527647 0.901297 0.756839
0.770603 0.901297 0.756839
0.920316 0.901297 0.756839
0.025060 0.000000 0.915972
0.288577 0.000000 0.915972
0.527647 0.000000 0.915972
0.770603 0.000000 0.915972
0.920316 0.000000 0.915972
0.025060 0.239433 0.915972
0.288577 0.239433 0.915972
0.527647 0.239433 0.915972
0.770603 0.239433 0.915972
0.920316 0.239433 0.915972
0.025060 0.474811 0.915972
0.288577 0.474811 0.915972
0.527647 0.474811 0.915972
0.770603 0.474811 0.915972
0.920316 0.474811 0.915972
0.025060 0.707904 0.915972
0.288577 0.707904 0.915972
0.527647 0.707904 0.915972
0.770603 0.707904 0.915972
0.920316 0.707904 0.915972
0.025060 0.901297 0.915972
0.288577 0.901297 0.915972
0.527647 0.901297 0.915972
0.770603 0.901297 0.915972
0.920316 0.901297 0.915972
