assets/luts/sakura.cube
# Beauty Camera 3D LUT
# Filter: Sakura (sakura)
# Category: Korean
TITLE "Sakura"
LUT_3D_SIZE 32
DOMAIN_MIN 0.0 0.0 0.0
DOMAIN_MAX 1.0 1.0 1.0
0.025060 0.000000 0.022072
0.066268 0.000000 0.022072
0.105515 0.000000 0.022072
0.143550 0.000000 0.022072
0.180711 0.000000 0.022072
0.217192 0.000000 0.022072
0.253119 0.000000 0.022072
0.288577 0.000000 0.022072
0.323632 0.000000 0.022072
0.358332 0.000000 0.022072
0.392716 0.000000 0.022072
0.426816 0.000000 0.022072
0.460657 0.000000 0.022072
0.494261 0.000000 0.022072
0.527647 0.000000 0.022072
0.560830 0.000000 0.022072
0.593825 0.000000 0.022072
0.626643 0.000000 0.022072
0.659296 0.000000 0.022072
0.691792 0.000000 0.022072
0.732578 0.000000 0.022072
0.770603 0.000000 0.022072
0.803097 0.000000 0.022072
0.830885 0.000000 0.022072
0.854668 0.000000 0.022072
0.875038 0.000000 0.022072
0.892496 0.000000 0.022072
0.907468 0.000000 0.022072
0.920316 0.000000 0.022072
0.931348 0.000000 0.022072
0.940826 0.000000 0.022072
0.948973 0.000000 0.022072
0.025060 0.029764 0.022072
0.066268 0.029764 0.022072
0.105515 0.029764 0.022072
0.143550 0.029764 0.022072
0.180711 0.029764 0.022072
0.217192 0.029764 0.022072
0.253119 0.029764 0.022072
0.288577 0.029764 0.022072
0.323632 0.029764 0.022072
0.358332 0.029764 0.022072
0.392716 0.029764 0.022072
0.426816 0.029764 0.022072
0.460657 0.029764 0.022072
0.494261 0.029764 0.022072
0.527647 0.029764 0.022072
0.560830 0.029764 0.022072
0.593825 0.029764 0.022072
0.626643 0.029764 0.022072
0.659296 0.029764 0.022072
0.691792 0.029764 0.022072
0.732578 0.029764 0.022072
0.770603 0.029764 0.022072
0.803097 0.029764 0.022072
0.830885 0.029764 0.022072
0.854668 0.029764 0.022072
0.875038 0.029764 0.022072
0.892496 0.029764 0.022072
0.907468 0.029764 0.022072
0.920316 0.029764 0.022072
0.931348 0.029764 0.022072
0.940826 0.029764 0.022072
0.948973 0.029764 0.022072
0.025060 0.065773 0.022072
0.066268 0.065773 0.022072
0.105515 0.065773 0.022072
0.143550 0.065773 0.022072
0.180711 0.065773 0.022072
0.217192 0.065773 0.022072
0.253119 0.065773 0.022072
0.288577 0.065773 0.022072
0.323632 0.065773 0.022072
0.358332 0.065773 0.022072
0.392716 0.065773 0.022072
0.426816 0.065773 0.022072
0.460657 0.065773 0.022072
0.494261 0.065773 0.022072
0.527647 0.065773 0.022072
0.560830 0.065773 0.022072
0.593825 0.065773 0.022072
0.626643 0.065773 0.022072
0.659296 0.065773 0.022072
0.691792 0.065773 0.022072
0.732578 0.065773 0.022072
0.770603 0.065773 0.022072
0.803097 0.065773 0.022072
0.830885 0.065773 0.022072
0.854668 0.065773 0.022072
0.875038 0.065773 0.022072
0.892496 0.065773 0.022072
0.907468 0.065773 0.022072
0.920316 0.065773 0.022072
0.931348 0.065773 0.022072
0.940826 0.065773 0.022072
0.948973 0.065773 0.022072
0.025060 0.101167 0.022072
0.066268 0.101167 0.022072
0.105515 0.101167 0.022072
0.143550 0.101167 0.022072
0.180711 0.101167 0.022072
0.217192 0.101167 0.022072
0.253119 0.101167 0.022072
0.288577 0.101167 0.022072
0.323632 0.101167 0.022072
0.358332 0.101167 0.022072
0.392716 0.101167 0.022072
0.426816 0.101167 0.022072
0.460657 0.101167 0.022072
0.494261 0.101167 0.022072
0.527647 0.101167 0.022072
0.560830 0.101167 0.022072
0.593825 0.101167 0.022072
0.626643 0.101167 0.022072
0.659296 0.101167 0.022072
0.691792 0.101167 0.022072
0.732578 0.101167 0.022072
0.770603 0.101167 0.022072
0.803097 0.101167 0.022072
0.830885 0.101167 0.022072
0.854668 0.101167 0.022072
0.875038 0.101167 0.022072
0.892496 0.101167 0.022072
0.907468 0.101167 0.022072
0.920316 0.101167 0.022072
0.931348 0.101167 0.022072
0.940826 0.101167 0.022072
0.948973 0.101167 0.022072
0.025060 0.136147 0.022072
0.066268 0.136147 0.022072
0.105515 0.136147 0.022072
0.143550 0.136147 0.022072
0.180711 0.136147 0.022072
0.217192 0.136147 0.022072
0.253119 0.136147 0.022072
0.288577 0.136147 0.022072
0.323632 0.136147 0.022072
0.358332 0.136147 0.022072
0.392716 0.136147 0.022072
0.426816 0.136147 0.022072
0.460657 0.136147 0.022072
0.494261 0.136147 0.022072
0.527647 0.136147 0.022072
0.560830 0.136147 0.022072
0.593825 0.136147 0.022072
0.626643 0.136147 0.022072
0.659296 0.136147 0.022072
0.691792 0.136147 0.022072
0.732578 0.136147 0.022072
0.770603 0.136147 0.022072
0.803097 0.136147 0.022072
0.830885 0.136147 0.022072
0.854668 0.136147 0.022072
0.875038 0.136147 0.022072
0.892496 0.136147 0.022072
0.907468 0.136147 0.022072
0.920316 0.136147 0.022072
0.931348 0.136147 0.022072
0.940826 0.136147 0.022072
0.948973 0.136147 0.022072
0.025060 0.170813 0.022072
0.066268 0.170813 0.022072
0.105515 0.170813 0.022072
0.143550 0.170813 0.022072
0.180711 0.170813 0.022072
0.217192 0.170813 0.022072
0.253119 0.170813 0.022072
0.288577 0.170813 0.022072
0.323632 0.170813 0.022072
0.358332 0.170813 0.022072
0.392716 0.170813 0.022072
0.426816 0.170813 0.022072
0.460657 0.170813 0.022072
0.494261 0.170813 0.022072
0.527647 0.170813 0.022072
0.560830 0.170813 0.022072
0.593825 0.170813 0.022072
0.626643 0.170813 0.022072
0.659296 0.170813 0.022072
0.691792 0.170813 0.022072
0.732578 0.170813 0.022072
0.770603 0.170813 0.022072
0.803097 0.170813 0.022072
0.830885 0.170813 0.022072
0.854668 0.170813 0.022072
0.875038 0.170813 0.022072
0.892496 0.170813 0.022072
0.907468 0.170813 0.022072
0.920316 0.170813 0.022072
0.931348 0.170813 0.022072
0.940826 0.170813 0.022072
0.948973 0.170813 0.022072
0.025060 0.205228 0.022072
0.066268 0.205228 0.022072
0.105515 0.205228 0.022072
0.143550 0.205228 0.022072
0.180711 0.205228 0.022072
0.217192 0.205228 0.022072
0.253119 0.205228 0.022072
0.288577 0.205228 0.022072
0.323632 0.205228 0.022072
0.358332 0.205228 0.022072
0.392716 0.205228 0.022072
0.426816 0.205228 0.022072
0.460657 0.205228 0.022072
0.494261 0.205228 0.022072
0.527647 0.205228 0.022072
0.560830 0.205228 0.022072
0.593825 0.205228 0.022072
0.626643 0.205228 0.022072
0.659296 0.205228 0.022072
0.691792 0.205228 0.022072
0.732578 0.205228 0.022072
0.770603 0.205228 0.022072
0.803097 0.205228 0.022072
0.830885 0.205228 0.022072
0.854668 0.205228 0.022072
0.875038 0.205228 0.022072
0.892496 0.205228 0.022072
0.907468 0.205228 0.022072
0.920316 0.205228 0.022072
0.931348 0.205228 0.022072
0.940826 0.205228 0.022072
0.948973 0.205228 0.022072
0.025060 0.239433 0.022072
0.066268 0.239433 0.022072
0.105515 0.239433 0.022072
0.143550 0.239433 0.022072
0.180711 0.239433 0.022072
0.217192 0.239433 0.022072
0.253119 0.239433 0.022072
0.288577 0.239433 0.022072
0.323632 0.239433 0.022072
0.358332 0.239433 0.022072
0.392716 0.239433 0.022072
0.426816 0.239433 0.022072
0.460657 0.239433 0.022072
0.494261 0.239433 0.022072
0.527647 0.239433 0.022072
0.560830 0.239433 0.022072
0.593825 0.239433 0.022072
0.626643 0.239433 0.022072
0.659296 0.239433 0.022072
0.691792 0.239433 0.022072
0.732578 0.239433 0.022072
0.770603 0.239433 0.022072
0.803097 0.239433 0.022072
0.830885 0.239433 0.022072
0.854668 0.239433 0.022072
0.875038 0.239433 0.022072
0.892496 0.239433 0.022072
0.907468 0.239433 0.022072
0.920316 0.239433 0.022072
0.931348 0.239433 0.022072
0.940826 0.239433 0.022072
0.948973 0.239433 0.022072
0.025060 0.273458 0.022072
0.066268 0.273458 0.022072
0.105515 0.273458 0.022072
0.143550 0.273458 0.022072
0.180711 0.273458 0.022072
0.217192 0.273458 0.022072
0.253119 0.273458 0.022072
0.288577 0.273458 0.022072
0.323632 0.273458 0.022072
0.358332 0.273458 0.022072
0.392716 0.273458 0.022072
0.426816 0.273458 0.022072
0.460657 0.273458 0.022072
0.494261 0.273458 0.022072
0.527647 0.273458 0.022072
0.560830 0.273458 0.022072
0.593825 0.273458 0.022072
0.626643 0.273458 0.022072
0.659296 0.273458 0.022072
0.691792 0.273458 0.022072
0.732578 0.273458 0.022072
0.770603 0.273458 0.022072
0.803097 0.273458 0.022072
0.830885 0.273458 0.022072
0.854668 0.273458 0.022072
0.875038 0.273458 0.022072
0.892496 0.273458 0.022072
0.907468 0.273458 0.022072
0.920316 0.273458 0.022072
0.931348 0.273458 0.022072
0.940826 0.273458 0.022072
0.948973 0.273458 0.022072
0.025060 0.307325 0.022072
0.066268 0.307325 0.022072
0.105515 0.307325 0.022072
0.143550 0.307325 0.022072
0.180711 0.307325 0.022072
0.217192 0.307325 0.022072
0.253119 0.307325 0.022072
0.288577 0.307325 0.022072
0.323632 0.307325 0.022072
0.358332 0.307325 0.022072
0.392716 0.307325 0.022072
0.426816 0.307325 0.022072
0.460657 0.307325 0.022072
0.494261 0.307325 0.022072
0.527647 0.307325 0.022072
0.560830 0.307325 0.022072
0.593825 0.307325 0.022072
0.626643 0.307325 0.022072
0.659296 0.307325 0.022072
0.691792 0.307325 0.022072
0.732578 0.307325 0.022072
0.770603 0.307325 0.022072
0.803097 0.307325 0.022072
0.830885 0.307325 0.022072
0.854668 0.307325 0.022072
0.875038 0.307325 0.022072
0.892496 0.307325 0.022072
0.907468 0.307325 0.022072
0.920316 0.307325 0.022072
0.931348 0.307325 0.022072
0.940826 0.307325 0.022072
0.948973 0.307325 0.022072
0.025060 0.341052 0.022072
0.066268 0.341052 0.022072
0.105515 0.341052 0.022072
0.143550 0.341052 0.022072
0.180711 0.341052 0.022072
0.217192 0.341052 0.022072
0.253119 0.341052 0.022072
0.288577 0.341052 0.022072
0.323632 0.341052 0.022072
0.358332 0.341052 0.022072
0.392716 0.341052 0.022072
0.426816 0.341052 0.022072
0.460657 0.341052 0.022072
0.494261 0.341052 0.022072
0.527647 0.341052 0.022072
0.560830 0.341052 0.022072
0.593825 0.341052 0.022072
0.626643 0.341052 0.022072
0.659296 0.341052 0.022072
0.691792 0.341052 0.022072
0.732578 0.341052 0.022072
0.770603 0.341052 0.022072
0.803097 0.341052 0.022072
0.830885 0.341052 0.022072
0.854668 0.341052 0.022072
0.875038 0.341052 0.022072
0.892496 0.341052 0.022072
0.907468 0.341052 0.022072
0.920316 0.341052 0.022072
0.931348 0.341052 0.022072
0.940826 0.341052 0.022072
0.948973 0.341052 0.022072
0.025060 0.374654 0.022072
0.066268 0.374654 0.022072
0.105515 0.374654 0.022072
0.143550 0.374654 0.022072
0.180711 0.374654 0.022072
0.217192 0.374654 0.022072
0.253119 0.374654 0.022072
0.288577 0.374654 0.022072
0.323632 0.374654 0.022072
0.358332 0.374654 0.022072
0.392716 0.374654 0.022072
0.426816 0.374654 0.022072
0.460657 0.374654 0.022072
0.494261 0.374654 0.022072
0.527647 0.374654 0.022072
0.560830 0.374654 0.022072
0.593825 0.374654 0.022072
0.626643 0.374654 0.022072
0.659296 0.374654 0.022072
0.691792 0.374654 0.022072
0.732578 0.374654 0.022072
0.770603 0.374654 0.022072
0.803097 0.374654 0.022072
0.830885 0.374654 0.022072
0.854668 0.374654 0.022072
0.875038 0.374654 0.022072
0.892496 0.374654 0.022072
0.907468 0.374654 0.022072
0.920316 0.374654 0.022072
0.931348 0.374654 0.022072
0.940826 0.374654 0.022072
0.948973 0.374654 0.022072
0.025060 0.408142 0.022072
0.066268 0.408142 0.022072
0.105515 0.408142 0.022072
0.143550 0.408142 0.022072
0.180711 0.408142 0.022072
0.217192 0.408142 0.022072
0.253119 0.408142 0.022072
0.288577 0.408142 0.022072
0.323632 0.408142 0.022072
0.358332 0.408142 0.022072
0.392716 0.408142 0.022072
0.426816 0.408142 0.022072
0.460657 0.408142 0.022072
0.494261 0.408142 0.022072
0.527647 0.408142 0.022072
0.560830 0.408142 0.022072
0.593825 0.408142 0.022072
0.626643 0.408142 0.022072
0.659296 0.408142 0.022072
0.691792 0.408142 0.022072
0.732578 0.408142 0.022072
0.770603 0.408142 0.022072
0.803097 0.408142 0.022072
0.830885 0.408142 0.022072
0.854668 0.408142 0.022072
0.875038 0.408142 0.022072
0.892496 0.408142 0.022072
0.907468 0.408142 0.022072
0.920316 0.408142 0.022072
0.931348 0.408142 0.022072
0.940826 0.408142 0.022072
0.948973 0.408142 0.022072
0.025060 0.441525 0.022072
0.066268 0.441525 0.022072
0.105515 0.441525 0.022072
0.143550 0.441525 0.022072
0.180711 0.441525 0.022072
0.217192 0.441525 0.022072
0.253119 0.441525 0.022072
0.288577 0.441525 0.022072
0.323632 0.441525 0.022072
0.358332 0.441525 0.022072
0.392716 0.441525 0.022072
0.426816 0.441525 0.022072
0.460657 0.441525 0.022072
0.494261 0.441525 0.022072
0.527647 0.441525 0.022072
0.560830 0.441525 0.022072
0.593825 0.441525 0.022072
0.626643 0.441525 0.022072
0.659296 0.441525 0.022072
0.691792 0.441525 0.022072
0.732578 0.441525 0.022072
0.770603 0.441525 0.022072
0.803097 0.441525 0.022072
0.830885 0.441525 0.022072
0.854668 0.441525 0.022072
0.875038 0.441525 0.022072
0.892496 0.441525 0.022072
0.907468 0.441525 0.022072
0.920316 0.441525 0.022072
0.931348 0.441525 0.022072
0.940826 0.441525 0.022072
0.948973 0.441525 0.022072
0.025060 0.474811 0.022072
0.066268 0.474811 0.022072
0.105515 0.474811 0.022072
0.143550 0.474811 0.022072
0.180711 0.474811 0.022072
0.217192 0.474811 0.022072
0.253119 0.474811 0.022072
0.288577 0.474811 0.022072
0.323632 0.474811 0.022072
0.358332 0.474811 0.022072
0.392716 0.474811 0.022072
0.426816 0.474811 0.022072
0.460657 0.474811 0.022072
0.494261 0.474811 0.022072
0.527647 0.474811 0.022072
0.560830 0.474811 0.022072
0.593825 0.474811 0.022072
0.626643 0.474811 0.022072
0.659296 0.474811 0.022072
0.691792 0.474811 0.022072
0.732578 0.474811 0.022072
0.770603 0.474811 0.022072
0.803097 0.474811 0.022072
0.830885 0.474811 0.022072
0.854668 0.474811 0.022072
0.875038 0.474811 0.022072
0.892496 0.474811 0.022072
0.907468 0.474811 0.022072
0.920316 0.474811 0.022072
0.931348 0.474811 0.022072
0.940826 0.474811 0.022072
0.948973 0.474811 0.022072
0.025060 0.508008 0.022072
0.066268 0.508008 0.022072
0.105515 0.508008 0.022072
0.143550 0.508008 0.022072
0.180711 0.508008 0.022072
0.217192 0.508008 0.022072
0.253119 0.508008 0.022072
0.288577 0.508008 0.022072
0.323632 0.508008 0.022072
0.358332 0.508008 0.022072
0.392716 0.508008 0.022072
0.426816 0.508008 0.022072
0.460657 0.508008 0.022072
0.494261 0.508008 0.022072
0.527647 0.508008 0.022072
0.560830 0.508008 0.022072
0.593825 0.508008 0.022072
0.626643 0.508008 0.022072
0.659296 0.508008 0.022072
0.691792 0.508008 0.022072
0.732578 0.508008 0.022072
0.770603 0.508008 0.022072
0.803097 0.508008 0.022072
0.830885 0.508008 0.022072
0.854668 0.508008 0.022072
0.875038 0.508008 0.022072
0.892496 0.508008 0.022072
0.907468 0.508008 0.022072
0.920316 0.508008 0.022072
0.931348 0.508008 0.022072
0.940826 0.508008 0.022072
0.948973 0.508008 0.022072
0.025060 0.541122 0.022072
0.066268 0.541122 0.022072
0.105515 0.541122 0.022072
0.143550 0.541122 0.022072
0.180711 0.541122 0.022072
0.217192 0.541122 0.022072
0.253119 0.541122 0.022072
0.288577 0.541122 0.022072
0.323632 0.541122 0.022072
0.358332 0.541122 0.022072
0.392716 0.541122 0.022072
0.426816 0.541122 0.022072
0.460657 0.541122 0.022072
0.494261 0.541122 0.022072
0.527647 0.541122 0.022072
0.560830 0.541122 0.022072
0.593825 0.541122 0.022072
0.626643 0.541122 0.022072
0.659296 0.541122 0.022072
0.691792 0.541122 0.022072
0.732578 0.541122 0.022072
0.770603 0.541122 0.022072
0.803097 0.541122 0.022072
0.830885 0.541122 0.022072
0.854668 0.541122 0.022072
0.875038 0.541122 0.022072
0.892496 0.541122 0.022072
0.907468 0.541122 0.022072
0.920316 0.541122 0.022072
0.931348 0.541122 0.022072
0.940826 0.541122 0.022072
0.948973 0.541122 0.022072
0.025060 0.574158 0.022072
0.066268 0.574158 0.022072
0.105515 0.574158 0.022072
0.143550 0.574158 0.022072
0.180711 0.574158 0.022072
0.217192 0.574158 0.022072
0.253119 0.574158 0.022072
0.288577 0.574158 0.022072
0.323632 0.574158 0.022072
0.358332 0.574158 0.022072
0.392716 0.574158 0.022072
0.426816 0.574158 0.022072
0.460657 0.574158 0.022072
0.494261 0.574158 0.022072
0.527647 0.574158 0.022072
0.560830 0.574158 0.022072
0.593825 0.574158 0.022072
0.626643 0.574158 0.022072
0.659296 0.574158 0.022072
0.691792 0.574158 0.022072
0.732578 0.574158 0.022072
0.770603 0.574158 0.022072
0.803097 0.574158 0.022072
0.830885 0.574158 0.022072
0.854668 0.574158 0.022072
0.875038 0.574158 0.022072
0.892496 0.574158 0.022072
0.907468 0.574158 0.022072
0.920316 0.574158 0.022072
0.931348 0.574158 0.022072
0.940826 0.574158 0.022072
0.948973 0.574158 0.022072
0.025060 0.607120 0.022072
0.066268 0.607120 0.022072
0.105515 0.607120 0.022072
0.143550 0.607120 0.022072
0.180711 0.607120 0.022072
0.217192 0.607120 0.022072
0.253119 0.607120 0.022072
0.288577 0.607120 0.022072
0.323632 0.607120 0.022072
0.358332 0.607120 0.022072
0.392716 0.607120 0.022072
0.426816 0.607120 0.022072
0.460657 0.607120 0.022072
0.494261 0.607120 0.022072
0.527647 0.607120 0.022072
0.560830 0.607120 0.022072
0.593825 0.607120 0.022072
0.626643 0.607120 0.022072
0.659296 0.607120 0.022072
0.691792 0.607120 0.022072
0.732578 0.607120 0.022072
0.770603 0.607120 0.022072
0.803097 0.607120 0.022072
0.830885 0.607120 0.022072
0.854668 0.607120 0.022072
0.875038 0.607120 0.022072
0.892496 0.607120 0.022072
0.907468 0.607120 0.022072
0.920316 0.607120 0.022072
0.931348 0.607120 0.022072
0.940826 0.607120 0.022072
0.948973 0.607120 0.022072
0.025060 0.640014 0.022072
0.066268 0.640014 0.022072
0.105515 0.640014 0.022072
0.143550 0.640014 0.022072
0.180711 0.640014 0.022072
0.217192 0.640014 0.022072
0.253119 0.640014 0.022072
0.288577 0.640014 0.022072
0.323632 0.640014 0.022072
0.358332 0.640014 0.022072
0.392716 0.640014 0.022072
0.426816 0.640014 0.022072
0.460657 0.640014 0.022072
0.494261 0.640014 0.022072
0.527647 0.640014 0.022072
0.560830 0.640014 0.022072
0.593825 0.640014 0.022072
0.626643 0.640014 0.022072
0.659296 0.640014 0.022072
0.691792 0.640014 0.022072
0.732578 0.640014 0.022072
0.770603 0.640014 0.022072
0.803097 0.640014 0.022072
0.830885 0.640014 0.022072
0.854668 0.640014 0.022072
0.875038 0.640014 0.022072
0.892496 0.640014 0.022072
0.907468 0.640014 0.022072
0.920316 0.640014 0.022072
0.931348 0.640014 0.022072
0.940826 0.640014 0.022072
0.948973 0.640014 0.022072
0.025060 0.672842 0.022072
0.066268 0.672842 0.022072
0.105515 0.672842 0.022072
0.143550 0.672842 0.022072
0.180711 0.672842 0.022072
0.217192 0.672842 0.022072
0.253119 0.672842 0.022072
0.288577 0.672842 0.022072
0.323632 0.672842 0.022072
0.358332 0.672842 0.022072
0.392716 0.672842 0.022072
0.426816 0.672842 0.022072
0.460657 0.672842 0.022072
0.494261 0.672842 0.022072
0.527647 0.672842 0.022072
0.560830 0.672842 0.022072
0.593825 0.672842 0.022072
0.626643 0.672842 0.022072
0.659296 0.672842 0.022072
0.691792 0.672842 0.022072
0.732578 0.672842 0.022072
0.770603 0.672842 0.022072
0.803097 0.672842 0.022072
0.830885 0.672842 0.022072
0.854668 0.672842 0.022072
0.875038 0.672842 0.022072
0.892496 0.672842 0.022072
0.907468 0.672842 0.022072
0.920316 0.672842 0.022072
0.931348 0.672842 0.022072
0.940826 0.672842 0.022072
0.948973 0.672842 0.022072
0.025060 0.707904 0.022072
0.066268 0.707904 0.022072
0.105515 0.707904 0.022072
0.143550 0.707904 0.022072
0.180711 0.707904 0.022072
0.217192 0.707904 0.022072
0.253119 0.707904 0.022072
0.288577 0.707904 0.022072
0.323632 0.707904 0.022072
0.358332 0.707904 0.022072
0.392716 0.707904 0.022072
0.426816 0.707904 0.022072
0.460657 0.707904 0.022072
0.494261 0.707904 0.022072
0.527647 0.707904 0.022072
0.560830 0.707904 0.022072
0.593825 0.707904 0.022072
0.626643 0.707904 0.022072
0.659296 0.707904 0.022072
0.691792 0.707904 0.022072
0.732578 0.707904 0.022072
0.770603 0.707904 0.022072
0.803097 0.707904 0.022072
0.830885 0.707904 0.022072
0.854668 0.707904 0.022072
0.875038 0.707904 0.022072
0.892496 0.707904 0.022072
0.907468 0.707904 0.022072
0.920316 0.707904 0.022072
0.931348 0.707904 0.022072
0.940826 0.707904 0.022072
0.948973 0.707904 0.022072
0.025060 0.750031 0.022072
0.066268 0.750031 0.022072
0.105515 0.750031 0.022072
0.143550 0.750031 0.022072
0.180711 0.750031 0.022072
0.217192 0.750031 0.022072
0.253119 0.750031 0.022072
0.288577 0.750031 0.022072
0.323632 0.750031 0.022072
0.358332 0.750031 0.022072
0.392716 0.750031 0.022072
0.426816 0.750031 0.022072
0.460657 0.750031 0.022072
0.494261 0.750031 0.022072
0.527647 0.750031 0.022072
0.560830 0.750031 0.022072
0.593825 0.750031 0.022072
0.626643 0.750031 0.022072
0.659296 0.750031 0.022072
0.691792 0.750031 0.022072
0.732578 0.750031 0.022072
0.770603 0.750031 0.022072
0.803097 0.750031 0.022072
0.830885 0.750031 0.022072
0.854668 0.750031 0.022072
0.875038 0.750031 0.022072
0.892496 0.750031 0.022072
0.907468 0.750031 0.022072
0.920316 0.750031 0.022072
0.931348 0.750031 0.022072
0.940826 0.750031 0.022072
0.948973 0.750031 0.022072
0.025060 0.786025 0.022072
0.066268 0.786025 0.022072
0.105515 0.786025 0.022072
0.143550 0.786025 0.022072
0.180711 0.786025 0.022072
0.217192 0.786025 0.022072
0.253119 0.786025 0.022072
0.288577 0.786025 0.022072
0.323632 0.786025 0.022072
0.358332 0.786025 0.022072
0.392716 0.786025 0.022072
0.426816 0.786025 0.022072
0.460657 0.786025 0.022072
0.494261 0.786025 0.022072
0.527647 0.786025 0.022072
0.560830 0.786025 0.022072
0.593825 0.786025 0.022072
0.626643 0.786025 0.022072
0.659296 0.786025 0.022072
0.691792 0.786025 0.022072
0.732578 0.786025 0.022072
0.770603 0.786025 0.022072
0.803097 0.786025 0.022072
0.830885 0.786025 0.022072
0.854668 0.786025 0.022072
0.875038 0.786025 0.022072
0.892496 0.786025 0.022072
0.907468 0.786025 0.022072
0.920316 0.786025 0.022072
0.931348 0.786025 0.022072
0.940826 0.786025 0.022072
0.948973 0.786025 0.022072
0.025060 0.816789 0.022072
0.066268 0.816789 0.022072
0.105515 0.816789 0.022072
0.143550 0.816789 0.022072
0.180711 0.816789 0.022072
0.217192 0.816789 0.022072
0.253119 0.816789 0.022072
0.288577 0.816789 0.022072
0.323632 0.816789 0.022072
0.358332 0.816789 0.022072
0.392716 0.816789 0.022072
0.426816 0.816789 0.022072
0.460657 0.816789 0.022072
0.494261 0.816789 0.022072
0.527647 0.816789 0.022072
0.560830 0.816789 0.022072
0.593825 0.816789 0.022072
0.626643 0.816789 0.022072
0.659296 0.816789 0.022072
0.691792 0.816789 0.022072
0.732578 0.816789 0.022072
0.770603 0.816789 0.022072
0.803097 0.816789 0.022072
0.830885 0.816789 0.022072
0.854668 0.816789 0.022072
0.875038 0.816789 0.022072
0.892496 0.816789 0.022072
0.907468 0.816789 0.022072
0.920316 0.816789 0.022072
0.931348 0.816789 0.022072
0.940826 0.816789 0.022072
0.948973 0.816789 0.022072
0.025060 0.843092 0.022072
0.066268 0.843092 0.022072
0.105515 0.843092 0.022072
0.143550 0.843092 0.022072
0.180711 0.843092 0.022072
0.217192 0.843092 0.022072
0.253119 0.843092 0.022072
0.288577 0.843092 0.022072
0.323632 0.843092 0.022072
0.358332 0.843092 0.022072
0.392716 0.843092 0.022072
0.426816 0.843092 0.022072
0.460657 0.843092 0.022072
0.494261 0.843092 0.022072
0.527647 0.843092 0.022072
0.560830 0.843092 0.022072
0.593825 0.843092 0.022072
0.626643 0.843092 0.022072
0.659296 0.843092 0.022072
0.691792 0.843092 0.022072
0.732578 0.843092 0.022072
0.770603 0.843092 0.022072
0.803097 0.843092 0.022072
0.830885 0.843092 0.022072
0.854668 0.843092 0.022072
0.875038 0.843092 0.022072
0.892496 0.843092 0.022072
0.907468 0.843092 0.022072
0.920316 0.843092 0.022072
0.931348 0.843092 0.022072
0.940826 0.843092 0.022072
0.948973 0.843092 0.022072
0.025060 0.865586 0.022072
0.066268 0.865586 0.022072
0.105515 0.865586 0.022072
0.143550 0.865586 0.022072
0.180711 0.865586 0.022072
0.217192 0.865586 0.022072
0.253119 0.865586 0.022072
0.288577 0.865586 0.022072
0.323632 0.865586 0.022072
0.358332 0.865586 0.022072
0.392716 0.865586 0.022072
0.426816 0.865586 0.022072
0.460657 0.865586 0.022072
0.494261 0.865586 0.022072
0.527647 0.865586 0.022072
0.560830 0.865586 0.022072
0.593825 0.865586 0.022072
0.626643 0.865586 0.022072
0.659296 0.865586 0.022072
0.691792 0.865586 0.022072
0.732578 0.865586 0.022072
0.770603 0.865586 0.022072
0.803097 0.865586 0.022072
0.830885 0.865586 0.022072
0.854668 0.865586 0.022072
0.875038 0.865586 0.022072
0.892496 0.865586 0.022072
0.907468 0.865586 0.022072
0.920316 0.865586 0.022072
0.931348 0.865586 0.022072
0.940826 0.865586 0.022072
0.948973 0.865586 0.022072
0.025060 0.884830 0.022072
0.066268 0.884830 0.022072
0.105515 0.884830 0.022072
0.143550 0.884830 0.022072
0.180711 0.884830 0.022072
0.217192 0.884830 0.022072
0.253119 0.884830 0.022072
0.288577 0.884830 0.022072
0.323632 0.884830 0.022072
0.358332 0.884830 0.022072
0.392716 0.884830 0.022072
0.426816 0.884830 0.022072
0.460657 0.884830 0.022072
0.494261 0.884830 0.022072
0.527647 0.884830 0.022072
0.560830 0.884830 0.022072
0.593825 0.884830 0.022072
0.626643 0.884830 0.022072
0.659296 0.884830 0.022072
