assets/luts/sakura.cube
# Beauty Camera 3D LUT
# Filter: Sakura (sakura)
# Category: Korean
TITLE "Sakura"
LUT_3D_SIZE 8
DOMAIN_MIN 0.000000 0.000000 0.000000
DOMAIN_MAX 0.903226 0.903226 0.903226
0.025060 0.000000 0.022072
0.180711 0.000000 0.022072
0.323632 0.000000 0.022072
0.460657 0.000000 0.022072
0.593825 0.000000 0.022072
0.732578 0.000000 0.022072
0.854668 0.000000 0.022072
0.920316 0.000000 0.022072
0.025060 0.136147 0.022072
0.180711 0.136147 0.022072
0.323632 0.136147 0.022072
0.460657 0.136147 0.022072
0.593825 0.136147 0.022072
0.732578 0.136147 0.022072
0.854668 0.136147 0.022072
0.920316 0.136147 0.022072
0.025060 0.273458 0.022072
0.180711 0.273458 0.022072
0.323632 0.273458 0.022072
0.460657 0.273458 0.022072
0.593825 0.273458 0.022072
0.732578 0.273458 0.022072
0.854668 0.273458 0.022072
0.920316 0.273458 0.022072
0.025060 0.408142 0.022072
0.180711 0.408142 0.022072
0.323632 0.408142 0.022072
0.460657 0.408142 0.022072
0.593825 0.408142 0.022072
0.732578 0.408142 0.022072
0.854668 0.408142 0.022072
0.920316 0.408142 0.022072
0.025060 0.541122 0.022072
0.180711 0.541122 0.022072
0.323632 0.541122 0.022072
0.460657 0.541122 0.022072
0.593825 0.541122 0.022072
0.732578 0.541122 0.022072
0.854668 0.541122 0.022072
0.920316 0.541122 0.022072
0.025060 0.672842 0.022072
0.180711 0.672842 0.022072
0.323632 0.672842 0.022072
0.460657 0.672842 0.022072
0.593825 0.672842 0.022072
0.732578 0.672842 0.022072
0.854668 0.672842 0.022072
0.920316 0.672842 0.022072
0.025060 0.816789 0.022072
0.180711 0.816789 0.022072
0.323632 0.816789 0.022072
0.460657 0.816789 0.022072
0.593825 0.816789 0.022072
0.732578 0.816789 0.022072
0.854668 0.816789 0.022072
0.920316 0.816789 0.022072
0.025060 0.901297 0.022072
0.180711 0.901297 0.022072
0.323632 0.901297 0.022072
0.460657 0.901297 0.022072
0.593825 0.901297 0.022072
0.732578 0.901297 0.022072
0.854668 0.901297 0.022072
0.920316 0.901297 0.022072
0.025060 0.000000 0.172660
0.180711 0.000000 0.172660
0.323632 0.000000 0.172660
0.460657 0.000000 0.172660
0.593825 0.000000 0.172660
0.732578 0.000000 0.172660
0.854668 0.000000 0.172660
0.920316 0.000000 0.172660
0.025060 0.136147 0.172660
0.180711 0.136147 0.172660
0.323632 0.110998 0.146611
0.460657 0.085653 0.120231
0.593825 0.060060 0.093445
0.732578 0.034129 0.066137
0.854668 0.007668 0.038104
0.920316 0.000000 0.022072
0.025060 0.273458 0.172660
0.180711 0.273458 0.172660
0.323632 0.273458 0.172660
0.460657 0.273458 0.172660
0.593825 0.273458 0.172660
0.732578 0.199737 0.066137
0.854668 0.174955 0.038104
0.920316 0.159288 0.022072
0.025060 0.408142 0.172660
0.180711 0.408142 0.172660
0.323632 0.408142 0.172660
0.460657 0.408142 0.172660
0.593825 0.408142 0.172660
0.732578 0.408142 0.172660
0.854668 0.408142 0.172660
0.920316 0.408142 0.172660
0.025060 0.541122 0.172660
0.180711 0.541122 0.172660
0.323632 0.541122 0.172660
0.460657 0.541122 0.172660
0.593825 0.541122 0.172660
0.732578 0.541122 0.172660
0.854668 0.541122 0.172660
0.920316 0.541122 0.172660
0.025060 0.672842 0.172660
0.180711 0.672842 0.172660
0.323632 0.672842 0.172660
0.460657 0.672842 0.172660
0.593825 0.672842 0.172660
0.732578 0.672842 0.172660
0.854668 0.672842 0.172660
0.920316 0.672842 0.172660
0.025060 0.816789 0.172660
0.180711 0.816789 0.172660
0.323632 0.816789 0.172660
0.460657 0.816789 0.172660
0.593825 0.816789 0.172660
0.732578 0.816789 0.172660
0.854668 0.816789 0.172660
0.920316 0.816789 0.172660
0.025060 0.901297 0.172660
0.180711 0.901297 0.172660
0.323632 0.901297 0.172660
0.460657 0.901297 0.172660
0.593825 0.901297 0.172660
0.732578 0.901297 0.172660
0.854668 0.901297 0.172660
0.920316 0.901297 0.172660
0.025060 0.000000 0.313149
0.180711 0.000000 0.313149
0.323632 0.000000 0.313149
0.460657 0.000000 0.313149
0.593825 0.000000 0.313149
0.732578 0.000000 0.313149
0.854668 0.000000 0.313149
0.920316 0.000000 0.313149
0.025060 0.136147 0.313149
0.180711 0.136147 0.313149
0.323632 0.136147 0.313149
0.460657 0.085653 0.288282
0.593825 0.060060 0.263253
0.732578 0.034129 0.238045
0.854668 0.007668 0.212639
0.920316 0.000000 0.196529
0.025060 0.273458 0.313149
0.180711 0.273458 0.313149
0.323632 0.273458 0.313149
0.460657 0.248977 0.288282
0.593825 0.224406 0.263253
0.732578 0.199737 0.238045
0.854668 0.174955 0.212639
0.920316 0.150047 0.187008
0.025060 0.408142 0.313149
0.180711 0.408142 0.313149
0.323632 0.408142 0.313149
0.460657 0.408142 0.313149
0.593825 0.408142 0.313149
0.732578 0.408142 0.313149
0.854668 0.335665 0.212639
0.920316 0.311379 0.187008
0.025060 0.541122 0.313149
0.180711 0.541122 0.313149
0.323632 0.541122 0.313149
0.460657 0.541122 0.313149
0.593825 0.541122 0.313149
0.732578 0.541122 0.313149
0.854668 0.541122 0.313149
0.920316 0.541122 0.313149
0.025060 0.672842 0.313149
0.180711 0.672842 0.313149
0.323632 0.672842 0.313149
0.460657 0.672842 0.313149
0.593825 0.672842 0.313149
0.732578 0.672842 0.313149
0.854668 0.672842 0.313149
0.920316 0.672842 0.313149
0.025060 0.816789 0.313149
0.180711 0.816789 0.313149
0.323632 0.816789 0.313149
0.460657 0.816789 0.313149
0.593825 0.816789 0.313149
0.732578 0.816789 0.313149
0.854668 0.816789 0.313149
0.920316 0.816789 0.313149
0.025060 0.901297 0.313149
0.180711 0.901297 0.313149
0.323632 0.901297 0.313149
0.460657 0.901297 0.313149
0.593825 0.901297 0.313149
0.732578 0.901297 0.313149
0.854668 0.901297 0.313149
0.920316 0.901297 0.313149
0.025060 0.000000 0.448899
0.180711 0.000000 0.448899
0.323632 0.000000 0.448899
0.460657 0.000000 0.448899
0.593825 0.000000 0.448899
0.732578 0.000000 0.448899
0.854668 0.000000 0.448899
0.920316 0.000000 0.448899
0.025060 0.136147 0.448899
0.180711 0.136147 0.448899
0.323632 0.136147 0.448899
0.460657 0.136147 0.448899
0.593825 0.136147 0.448899
0.732578 0.034129 0.400447
0.854668 0.007668 0.376055
0.920316 0.000000 0.358819
0.025060 0.273458 0.448899
0.180711 0.273458 0.448899
0.323632 0.273458 0.448899
0.460657 0.273458 0.448899
0.593825 0.224406 0.424726
0.732578 0.199737 0.400447
0.854668 0.174955 0.376055
0.920316 0.150047 0.351543
0.025060 0.408142 0.448899
0.180711 0.408142 0.448899
0.323632 0.408142 0.448899
0.460657 0.408142 0.448899
0.593825 0.384042 0.424726
0.732578 0.359884 0.400447
0.854668 0.335665 0.376055
0.920316 0.311379 0.351543
0.025060 0.541122 0.448899
0.180711 0.541122 0.448899
0.323632 0.541122 0.448899
0.460657 0.541122 0.448899
0.593825 0.541122 0.448899
0.732578 0.541122 0.448899
0.854668 0.541122 0.448899
0.920316 0.469491 0.351543
0.025060 0.672842 0.448899
0.180711 0.672842 0.448899
0.323632 0.672842 0.448899
0.460657 0.672842 0.448899
0.593825 0.672842 0.448899
0.732578 0.672842 0.448899
0.854668 0.672842 0.448899
0.920316 0.672842 0.448899
0.025060 0.816789 0.448899
0.180711 0.816789 0.448899
0.323632 0.816789 0.448899
0.460657 0.816789 0.448899
0.593825 0.816789 0.448899
0.732578 0.816789 0.448899
0.854668 0.816789 0.448899
0.920316 0.816789 0.448899
0.025060 0.901297 0.448899
0.180711 0.901297 0.448899
0.323632 0.901297 0.448899
0.460657 0.901297 0.448899
0.593825 0.901297 0.448899
0.732578 0.901297 0.448899
0.854668 0.901297 0.448899
0.920316 0.901297 0.448899
0.025060 0.000000 0.581528
0.180711 0.000000 0.581528
0.323632 0.000000 0.581528
0.460657 0.000000 0.581528
0.593825 0.000000 0.581528
0.732578 0.000000 0.581528
0.854668 0.000000 0.581528
0.920316 0.000000 0.581528
0.025060 0.136147 0.581528
0.180711 0.136147 0.581528
0.323632 0.136147 0.581528
0.460657 0.136147 0.581528
0.593825 0.136147 0.581528
0.732578 0.136147 0.581528
0.854668 0.007668 0.534081
0.920316 0.000000 0.515543
0.025060 0.273458 0.581528
0.180711 0.273458 0.581528
0.323632 0.273458 0.581528
0.460657 0.273458 0.581528
0.593825 0.273458 0.581528
0.732578 0.273458 0.581528
0.854668 0.174955 0.534081
0.920316 0.150047 0.510237
0.025060 0.408142 0.581528
0.180711 0.408142 0.581528
0.323632 0.408142 0.581528
0.460657 0.408142 0.581528
0.593825 0.408142 0.581528
0.732578 0.359884 0.557843
0.854668 0.335665 0.534081
0.920316 0.311379 0.510237
0.025060 0.541122 0.581528
0.180711 0.541122 0.581528
0.323632 0.541122 0.581528
0.460657 0.541122 0.581528
0.593825 0.541122 0.581528
0.732578 0.517288 0.557843
0.854668 0.493412 0.534081
0.920316 0.469491 0.510237
0.025060 0.672842 0.581528
0.180711 0.672842 0.581528
0.323632 0.672842 0.581528
0.460657 0.672842 0.581528
0.593825 0.672842 0.581528
0.732578 0.672842 0.581528
0.854668 0.672842 0.581528
0.920316 0.672842 0.581528
0.025060 0.816789 0.581528
0.180711 0.816789 0.581528
0.323632 0.816789 0.581528
0.460657 0.816789 0.581528
0.593825 0.816789 0.581528
0.732578 0.816789 0.581528
0.854668 0.816789 0.581528
0.920316 0.816789 0.581528
0.025060 0.901297 0.581528
0.180711 0.901297 0.581528
0.323632 0.901297 0.581528
0.460657 0.901297 0.581528
0.593825 0.901297 0.581528
0.732578 0.901297 0.581528
0.854668 0.901297 0.581528
0.920316 0.901297 0.581528
0.025060 0.000000 0.716443
0.180711 0.000000 0.716443
0.323632 0.000000 0.716443
0.460657 0.000000 0.716443
0.593825 0.000000 0.716443
0.732578 0.000000 0.716443
0.854668 0.000000 0.716443
0.920316 0.000000 0.716443
0.025060 0.136147 0.716443
0.180711 0.136147 0.716443
0.323632 0.136147 0.716443
0.460657 0.136147 0.716443
0.593825 0.136147 0.716443
0.732578 0.136147 0.716443
0.854668 0.136147 0.716443
0.920316 0.136147 0.716443
0.025060 0.273458 0.716443
0.180711 0.273458 0.716443
0.323632 0.273458 0.716443
0.460657 0.273458 0.716443
0.593825 0.273458 0.716443
0.732578 0.273458 0.716443
0.854668 0.273458 0.716443
0.920316 0.150047 0.665159
0.025060 0.408142 0.716443
0.180711 0.408142 0.716443
0.323632 0.408142 0.716443
0.460657 0.408142 0.716443
0.593825 0.408142 0.716443
0.732578 0.408142 0.716443
0.854668 0.408142 0.716443
0.920316 0.311379 0.665159
0.025060 0.541122 0.716443
0.180711 0.541122 0.716443
0.323632 0.541122 0.716443
0.460657 0.541122 0.716443
0.593825 0.541122 0.716443
0.732578 0.541122 0.716443
0.854668 0.493412 0.688529
0.920316 0.469491 0.665159
0.025060 0.672842 0.716443
0.180711 0.672842 0.716443
0.323632 0.672842 0.716443
0.460657 0.672842 0.716443
0.593825 0.672842 0.716443
0.732578 0.672842 0.716443
0.854668 0.649212 0.688529
0.920316 0.625549 0.665159
0.025060 0.816789 0.716443
0.180711 0.816789 0.716443
0.323632 0.816789 0.716443
0.460657 0.816789 0.716443
0.593825 0.816789 0.716443
0.732578 0.816789 0.716443
0.854668 0.816789 0.716443
0.920316 0.816789 0.716443
0.025060 0.901297 0.716443
0.180711 0.901297 0.716443
0.323632 0.901297 0.716443
0.460657 0.901297 0.716443
0.593825 0.901297 0.716443
0.732578 0.901297 0.716443
0.854668 0.901297 0.716443
0.920316 0.901297 0.716443
0.025060 0.000000 0.846199
0.180711 0.000000 0.846199
0.323632 0.000000 0.846199
0.460657 0.000000 0.846199
0.593825 0.000000 0.846199
0.732578 0.000000 0.846199
0.854668 0.000000 0.846199
0.920316 0.000000 0.846199
0.025060 0.136147 0.846199
0.180711 0.136147 0.846199
0.323632 0.136147 0.846199
0.460657 0.136147 0.846199
0.593825 0.136147 0.846199
0.732578 0.136147 0.846199
0.854668 0.136147 0.846199
0.920316 0.136147 0.846199
0.025060 0.273458 0.846199
0.180711 0.273458 0.846199
0.323632 0.273458 0.846199
0.460657 0.273458 0.846199
0.593825 0.273458 0.846199
0.732578 0.273458 0.846199
0.854668 0.273458 0.846199
0.920316 0.273458 0.846199
0.025060 0.408142 0.846199
0.180711 0.408142 0.846199
0.323632 0.408142 0.846199
0.460657 0.408142 0.846199
0.593825 0.408142 0.846199
0.732578 0.408142 0.846199
0.854668 0.408142 0.846199
0.920316 0.408142 0.846199
0.025060 0.541122 0.846199
0.180711 0.541122 0.846199
0.323632 0.541122 0.846199
0.460657 0.541122 0.846199
0.593825 0.541122 0.846199
0.732578 0.541122 0.846199
0.854668 0.541122 0.846199
0.920316 0.541122 0.846199
0.025060 0.672842 0.846199
0.180711 0.672842 0.846199
0.323632 0.672842 0.846199
0.460657 0.672842 0.846199
0.593825 0.672842 0.846199
0.732578 0.672842 0.846199
0.854668 0.672842 0.846199
0.920316 0.625549 0.828394
0.025060 0.816789 0.846199
0.180711 0.816789 0.846199
0.323632 0.816789 0.846199
0.460657 0.816789 0.846199
0.593825 0.816789 0.846199
0.732578 0.816789 0.846199
0.854668 0.816789 0.846199
0.920316 0.795131 0.828394
0.025060 0.901297 0.846199
0.180711 0.901297 0.846199
0.323632 0.901297 0.846199
0.460657 0.901297 0.846199
0.593825 0.901297 0.846199
0.732578 0.901297 0.846199
0.854668 0.901297 0.846199
0.920316 0.901297 0.846199
0.025060 0.000000 0.915972
0.180711 0.000000 0.915972
0.323632 0.000000 0.915972
0.460657 0.000000 0.915972
0.593825 0.000000 0.915972
0.732578 0.000000 0.915972
0.854668 0.000000 0.915972
0.920316 0.000000 0.915972
0.025060 0.136147 0.915972
0.180711 0.136147 0.915972
0.323632 0.136147 0.915972
0.460657 0.136147 0.915972
0.593825 0.136147 0.915972
0.732578 0.136147 0.915972
0.854668 0.136147 0.915972
0.920316 0.136147 0.915972
0.025060 0.273458 0.915972
0.180711 0.273458 0.915972
0.323632 0.273458 0.915972
0.460657 0.273458 0.915972
0.593825 0.273458 0.915972
0.732578 0.273458 0.915972
0.854668 0.273458 0.915972
0.920316 0.273458 0.915972
0.025060 0.408142 0.915972
0.180711 0.408142 0.915972
0.323632 0.408142 0.915972
0.460657 0.408142 0.915972
0.593825 0.408142 0.915972
0.732578 0.408142 0.915972
0.854668 0.408142 0.915972
0.920316 0.408142 0.915972
0.025060 0.541122 0.915972
0.180711 0.541122 0.915972
0.323632 0.541122 0.915972
0.460657 0.541122 0.915972
0.593825 0.541122 0.915972
0.732578 0.541122 0.915972
0.854668 0.541122 0.915972
0.920316 0.541122 0.915972
0.025060 0.672842 0.915972
0.180711 0.672842 0.915972
0.323632 0.672842 0.915972
0.460657 0.672842 0.915972
0.593825 0.672842 0.915972
0.732578 0.672842 0.915972
0.854668 0.672842 0.915972
0.920316 0.672842 0.915972
0.025060 0.816789 0.915972
0.180711 0.816789 0.915972
0.323632 0.816789 0.915972
0.460657 0.816789 0.915972
0.593825 0.816789 0.915972
0.732578 0.816789 0.915972
0.854668 0.816789 0.915972
0.920316 0.816789 0.915972
0.025060 0.901297 0.915972
0.180711 0.901297 0.915972
0.323632 0.901297 0.915972
0.460657 0.901297 0.915972
0.593825 0.901297 0.915972
0.732578 0.901297 0.915972
0.854668 0.901297 0.915972
0.920316 0.901297 0.915972
