assets/luts/silver.cube
# Beauty Camera 3D LUT
# Filter: Silver (silver)
# Category: B&W
TITLE "Silver"
LUT_3D_SIZE 8
DOMAIN_MIN 0.000000 0.000000 0.000000
DOMAIN_MAX 0.903226 0.903226 0.903226
0.037463 0.037463 0.037463
0.068339 0.068339 0.068339
0.098362 0.098362 0.098362
0.127982 0.127982 0.127982
0.157406 0.157406 0.157406
0.186749 0.186749 0.186749
0.216084 0.216084 0.216084
0.245464 0.245464 0.245464
0.133343 0.133343 0.133343
0.162744 0.162744 0.162744
0.192081 0.192081 0.192081
0.221422 0.221422 0.221422
0.250814 0.250814 0.250814
0.280291 0.280291 0.280291
0.309879 0.309879 0.309879
0.339598 0.339598 0.339598
0.226761 0.226761 0.226761
0.256166 0.256166 0.256166
0.285661 0.285661 0.285661
0.315272 0.315272 0.315272
0.345017 0.345017 0.345017
0.374911 0.374911 0.374911
0.404966 0.404966 0.404966
0.435192 0.435192 0.435192
0.320670 0.320670 0.320670
0.350441 0.350441 0.350441
0.380363 0.380363 0.380363
0.410448 0.410448 0.410448
0.440706 0.440706 0.440706
0.471145 0.471145 0.471145
0.501769 0.501769 0.501769
0.532188 0.532188 0.532188
0.415937 0.415937 0.415937
0.446227 0.446227 0.446227
0.476699 0.476699 0.476699
0.507339 0.507339 0.507339
0.537663 0.537663 0.537663
0.567477 0.567477 0.567477
0.596795 0.596795 0.596795
0.625631 0.625631 0.625631
0.512891 0.512891 0.512891
0.543121 0.543121 0.543121
0.572844 0.572844 0.572844
0.602074 0.602074 0.602074
0.630823 0.630823 0.630823
0.659103 0.659103 0.659103
0.686924 0.686924 0.686924
0.719744 0.719744 0.719744
0.607336 0.607336 0.607336
0.635999 0.635999 0.635999
0.664195 0.664195 0.664195
0.691934 0.691934 0.691934
0.726245 0.726245 0.726245
0.759104 0.759104 0.759104
0.787584 0.787584 0.787584
0.812319 0.812319 0.812319
0.696929 0.696929 0.696929
0.732578 0.732578 0.732578
0.764588 0.764588 0.764588
0.792343 0.792343 0.792343
0.816458 0.816458 0.816458
0.837451 0.837451 0.837451
0.855763 0.855763 0.855763
0.871766 0.871766 0.871766
0.048841 0.048841 0.048841
0.079323 0.079323 0.079323
0.109166 0.109166 0.109166
0.138697 0.138697 0.138697
0.168081 0.168081 0.168081
0.197414 0.197414 0.197414
0.226761 0.226761 0.226761
0.256166 0.256166 0.256166
0.144047 0.144047 0.144047
0.173415 0.173415 0.173415
0.202747 0.202747 0.202747
0.232102 0.232102 0.232102
0.261521 0.261521 0.261521
0.291036 0.291036 0.291036
0.320670 0.320670 0.320670
0.350441 0.350441 0.350441
0.237445 0.237445 0.237445
0.266880 0.266880 0.266880
0.296415 0.296415 0.296415
0.326072 0.326072 0.326072
0.355869 0.355869 0.355869
0.385821 0.385821 0.385821
0.415937 0.415937 0.415937
0.446227 0.446227 0.446227
0.331479 0.331479 0.331479
0.361303 0.361303 0.361303
0.391284 0.391284 0.391284
0.421431 0.421431 0.421431
0.451754 0.451754 0.451754
0.482260 0.482260 0.482260
0.512891 0.512891 0.512891
0.543121 0.543121 0.543121
0.426931 0.426931 0.426931
0.457286 0.457286 0.457286
0.487826 0.487826 0.487826
0.518426 0.518426 0.518426
0.548562 0.548562 0.548562
0.578195 0.578195 0.578195
0.607336 0.607336 0.607336
0.635999 0.635999 0.635999
0.523943 0.523943 0.523943
0.553987 0.553987 0.553987
0.583529 0.583529 0.583529
0.612583 0.612583 0.612583
0.641160 0.641160 0.641160
0.669272 0.669272 0.669272
0.696929 0.696929 0.696929
0.732578 0.732578 0.732578
0.617814 0.617814 0.617814
0.646306 0.646306 0.646306
0.674334 0.674334 0.674334
0.702716 0.702716 0.702716
0.738745 0.738745 0.738745
0.769932 0.769932 0.769932
0.796982 0.796982 0.796982
0.820493 0.820493 0.820493
0.709663 0.709663 0.709663
0.744754 0.744754 0.744754
0.775139 0.775139 0.775139
0.801504 0.801504 0.801504
0.824428 0.824428 0.824428
0.844399 0.844399 0.844399
0.861831 0.861831 0.861831
0.877077 0.877077 0.877077
0.060034 0.060034 0.060034
0.090226 0.090226 0.090226
0.119930 0.119930 0.119930
0.149393 0.149393 0.149393
0.178749 0.178749 0.178749
0.208081 0.208081 0.208081
0.237445 0.237445 0.237445
0.266880 0.266880 0.266880
0.154736 0.154736 0.154736
0.184082 0.184082 0.184082
0.213416 0.213416 0.213416
0.242790 0.242790 0.242790
0.272241 0.272241 0.272241
0.301797 0.301797 0.301797
0.331479 0.331479 0.331479
0.361303 0.361303 0.361303
0.248139 0.248139 0.248139
0.277607 0.277607 0.277607
0.307184 0.307184 0.307184
0.336890 0.336890 0.336890
0.366742 0.366742 0.366742
0.396752 0.396752 0.396752
0.426931 0.426931 0.426931
0.457286 0.457286 0.457286
0.342307 0.342307 0.342307
0.372187 0.372187 0.372187
0.402226 0.402226 0.402226
0.432437 0.432437 0.432437
0.462825 0.462825 0.462825
0.493399 0.493399 0.493399
0.523943 0.523943 0.523943
0.553987 0.553987 0.553987
0.437948 0.437948 0.437948
0.468370 0.468370 0.468370
0.498979 0.498979 0.498979
0.529444 0.529444 0.529444
0.559395 0.559395 0.559395
0.588848 0.588848 0.588848
0.617814 0.617814 0.617814
0.646306 0.646306 0.646306
0.534927 0.534927 0.534927
0.564787 0.564787 0.564787
0.594150 0.594150 0.594150
0.623029 0.623029 0.623029
0.651436 0.651436 0.651436
0.679382 0.679382 0.679382
0.709663 0.709663 0.709663
0.744754 0.744754 0.744754
0.628229 0.628229 0.628229
0.656551 0.656551 0.656551
0.684414 0.684414 0.684414
0.716428 0.716428 0.716428
0.750607 0.750607 0.750607
0.780213 0.780213 0.780213
0.805913 0.805913 0.805913
0.828266 0.828266 0.828266
0.723016 0.723016 0.723016
0.756309 0.756309 0.756309
0.785159 0.785159 0.785159
0.810211 0.810211 0.810211
0.832009 0.832009 0.832009
0.851012 0.851012 0.851012
0.867611 0.867611 0.867611
0.882138 0.882138 0.882138
0.071094 0.071094 0.071094
0.101068 0.101068 0.101068
0.130663 0.130663 0.130663
0.160075 0.160075 0.160075
0.189415 0.189415 0.189415
0.218753 0.218753 0.218753
0.248139 0.248139 0.248139
0.277607 0.277607 0.277607
0.165413 0.165413 0.165413
0.194747 0.194747 0.194747
0.224091 0.224091 0.224091
0.253489 0.253489 0.253489
0.282976 0.282976 0.282976
0.312575 0.312575 0.312575
0.342307 0.342307 0.342307
0.372187 0.372187 0.372187
0.258843 0.258843 0.258843
0.288348 0.288348 0.288348
0.317970 0.317970 0.317970
0.347728 0.347728 0.347728
0.377636 0.377636 0.377636
0.407706 0.407706 0.407706
0.437948 0.437948 0.437948
0.468370 0.468370 0.468370
0.353154 0.353154 0.353154
0.383091 0.383091 0.383091
0.413192 0.413192 0.413192
0.443466 0.443466 0.443466
0.473921 0.473921 0.473921
0.504556 0.504556 0.504556
0.534927 0.534927 0.534927
0.564787 0.564787 0.564787
0.448990 0.448990 0.448990
0.479479 0.479479 0.479479
0.510117 0.510117 0.510117
0.540394 0.540394 0.540394
0.570162 0.570162 0.570162
0.599437 0.599437 0.599437
0.628229 0.628229 0.628229
0.656551 0.656551 0.656551
0.545844 0.545844 0.545844
0.575521 0.575521 0.575521
0.604707 0.604707 0.604707
0.633413 0.633413 0.633413
0.661651 0.661651 0.661651
0.689431 0.689431 0.689431
0.723016 0.723016 0.723016
0.756309 0.756309 0.756309
0.638582 0.638582 0.638582
0.666736 0.666736 0.666736
0.694433 0.694433 0.694433
0.729432 0.729432 0.729432
0.761864 0.761864 0.761864
0.789979 0.789979 0.789979
0.814402 0.814402 0.814402
0.835659 0.835659 0.835659
0.735682 0.735682 0.735682
0.767277 0.767277 0.767277
0.794678 0.794678 0.794678
0.818488 0.818488 0.818488
0.839220 0.839220 0.839220
0.857308 0.857308 0.857308
0.873118 0.873118 0.873118
0.886963 0.886963 0.886963
0.082056 0.082056 0.082056
0.111861 0.111861 0.111861
0.141373 0.141373 0.141373
0.170748 0.170748 0.170748
0.200080 0.200080 0.200080
0.229431 0.229431 0.229431
0.258843 0.258843 0.258843
0.288348 0.288348 0.288348
0.176082 0.176082 0.176082
0.205414 0.205414 0.205414
0.234773 0.234773 0.234773
0.264200 0.264200 0.264200
0.293725 0.293725 0.293725
0.323370 0.323370 0.323370
0.353154 0.353154 0.353154
0.383091 0.383091 0.383091
0.269560 0.269560 0.269560
0.299105 0.299105 0.299105
0.328775 0.328775 0.328775
0.358586 0.358586 0.358586
0.388551 0.388551 0.388551
0.418683 0.418683 0.418683
0.448990 0.448990 0.448990
0.479479 0.479479 0.479479
0.364022 0.364022 0.364022
0.394017 0.394017 0.394017
0.424180 0.424180 0.424180
0.454519 0.454519 0.454519
0.485042 0.485042 0.485042
0.515660 0.515660 0.515660
0.545844 0.545844 0.545844
0.575521 0.575521 0.575521
0.460055 0.460055 0.460055
0.490612 0.490612 0.490612
0.521187 0.521187 0.521187
0.551277 0.551277 0.551277
0.580864 0.580864 0.580864
0.609962 0.609962 0.609962
0.638582 0.638582 0.638582
0.666736 0.666736 0.666736
0.556693 0.556693 0.556693
0.586191 0.586191 0.586191
0.615201 0.615201 0.615201
0.643735 0.643735 0.643735
0.671805 0.671805 0.671805
0.699421 0.699421 0.699421
0.735682 0.735682 0.735682
0.767277 0.767277 0.767277
0.648873 0.648873 0.648873
0.676860 0.676860 0.676860
0.706212 0.706212 0.706212
0.741769 0.741769 0.741769
0.772552 0.772552 0.772552
0.799258 0.799258 0.799258
0.822473 0.822473 0.822473
0.842694 0.842694 0.842694
0.747699 0.747699 0.747699
0.777692 0.777692 0.777692
0.803722 0.803722 0.803722
0.826359 0.826359 0.826359
0.846083 0.846083 0.846083
0.863303 0.863303 0.863303
0.878365 0.878365 0.878365
0.891564 0.891564 0.891564
0.092942 0.092942 0.092942
0.122616 0.122616 0.122616
0.152065 0.152065 0.152065
0.181416 0.181416 0.181416
0.210749 0.210749 0.210749
0.240117 0.240117 0.240117
0.269560 0.269560 0.269560
0.299105 0.299105 0.299105
0.186749 0.186749 0.186749
0.216084 0.216084 0.216084
0.245464 0.245464 0.245464
0.274924 0.274924 0.274924
0.304490 0.304490 0.304490
0.334184 0.334184 0.334184
0.364022 0.364022 0.364022
0.394017 0.394017 0.394017
0.280291 0.280291 0.280291
0.309879 0.309879 0.309879
0.339598 0.339598 0.339598
0.369464 0.369464 0.369464
0.399489 0.399489 0.399489
0.429683 0.429683 0.429683
0.460055 0.460055 0.460055
0.490612 0.490612 0.490612
0.374911 0.374911 0.374911
0.404966 0.404966 0.404966
0.435192 0.435192 0.435192
0.465597 0.465597 0.465597
0.496188 0.496188 0.496188
0.526696 0.526696 0.526696
0.556693 0.556693 0.556693
0.586191 0.586191 0.586191
0.471145 0.471145 0.471145
0.501769 0.501769 0.501769
0.532188 0.532188 0.532188
0.562093 0.562093 0.562093
0.591501 0.591501 0.591501
0.620424 0.620424 0.620424
0.648873 0.648873 0.648873
0.676860 0.676860 0.676860
0.567477 0.567477 0.567477
0.596795 0.596795 0.596795
0.625631 0.625631 0.625631
0.653996 0.653996 0.653996
0.681900 0.681900 0.681900
0.713068 0.713068 0.713068
0.747699 0.747699 0.747699
0.777692 0.777692 0.777692
0.659103 0.659103 0.659103
0.686924 0.686924 0.686924
0.719744 0.719744 0.719744
0.753476 0.753476 0.753476
0.782702 0.782702 0.782702
0.808075 0.808075 0.808075
0.830149 0.830149 0.830149
0.849389 0.849389 0.849389
0.759104 0.759104 0.759104
0.787584 0.787584 0.787584
0.812319 0.812319 0.812319
0.833845 0.833845 0.833845
0.852615 0.852615 0.852615
0.869013 0.869013 0.869013
0.883366 0.883366 0.883366
0.895952 0.895952 0.895952
0.103770 0.103770 0.103770
0.133343 0.133343 0.133343
0.162744 0.162744 0.162744
0.192081 0.192081 0.192081
0.221422 0.221422 0.221422
0.250814 0.250814 0.250814
0.280291 0.280291 0.280291
0.309879 0.309879 0.309879
0.197414 0.197414 0.197414
0.226761 0.226761 0.226761
0.256166 0.256166 0.256166
0.285661 0.285661 0.285661
0.315272 0.315272 0.315272
0.345017 0.345017 0.345017
0.374911 0.374911 0.374911
0.404966 0.404966 0.404966
0.291036 0.291036 0.291036
0.320670 0.320670 0.320670
0.350441 0.350441 0.350441
0.380363 0.380363 0.380363
0.410448 0.410448 0.410448
0.440706 0.440706 0.440706
0.471145 0.471145 0.471145
0.501769 0.501769 0.501769
0.385821 0.385821 0.385821
0.415937 0.415937 0.415937
0.446227 0.446227 0.446227
0.476699 0.476699 0.476699
0.507339 0.507339 0.507339
0.537663 0.537663 0.537663
0.567477 0.567477 0.567477
0.596795 0.596795 0.596795
0.482260 0.482260 0.482260
0.512891 0.512891 0.512891
0.543121 0.543121 0.543121
0.572844 0.572844 0.572844
0.602074 0.602074 0.602074
0.630823 0.630823 0.630823
0.659103 0.659103 0.659103
0.686924 0.686924 0.686924
0.578195 0.578195 0.578195
0.607336 0.607336 0.607336
0.635999 0.635999 0.635999
0.664195 0.664195 0.664195
0.691934 0.691934 0.691934
0.726245 0.726245 0.726245
0.759104 0.759104 0.759104
0.787584 0.787584 0.787584
0.669272 0.669272 0.669272
0.696929 0.696929 0.696929
0.732578 0.732578 0.732578
0.764588 0.764588 0.764588
0.792343 0.792343 0.792343
0.816458 0.816458 0.816458
0.837451 0.837451 0.837451
0.855763 0.855763 0.855763
0.769932 0.769932 0.769932
0.796982 0.796982 0.796982
0.820493 0.820493 0.820493
0.840968 0.840968 0.840968
0.858834 0.858834 0.858834
0.874453 0.874453 0.874453
0.888134 0.888134 0.888134
0.900138 0.900138 0.900138
0.114553 0.114553 0.114553
0.144047 0.144047 0.144047
0.173415 0.173415 0.173415
0.202747 0.202747 0.202747
0.232102 0.232102 0.232102
0.261521 0.261521 0.261521
0.291036 0.291036 0.291036
0.320670 0.320670 0.320670
0.208081 0.208081 0.208081
0.237445 0.237445 0.237445
0.266880 0.266880 0.266880
0.296415 0.296415 0.296415
0.326072 0.326072 0.326072
0.355869 0.355869 0.355869
0.385821 0.385821 0.385821
0.415937 0.415937 0.415937
0.301797 0.301797 0.301797
0.331479 0.331479 0.331479
0.361303 0.361303 0.361303
0.391284 0.391284 0.391284
0.421431 0.421431 0.421431
0.451754 0.451754 0.451754
0.482260 0.482260 0.482260
0.512891 0.512891 0.512891
0.396752 0.396752 0.396752
0.426931 0.426931 0.426931
0.457286 0.457286 0.457286
0.487826 0.487826 0.487826
0.518426 0.518426 0.518426
0.548562 0.548562 0.548562
0.578195 0.578195 0.578195
0.607336 0.607336 0.607336
0.493399 0.493399 0.493399
0.523943 0.523943 0.523943
0.553987 0.553987 0.553987
0.583529 0.583529 0.583529
0.612583 0.612583 0.612583
0.641160 0.641160 0.641160
0.669272 0.669272 0.669272
0.696929 0.696929 0.696929
0.588848 0.588848 0.588848
0.617814 0.617814 0.617814
0.646306 0.646306 0.646306
0.674334 0.674334 0.674334
0.702716 0.702716 0.702716
0.738745 0.738745 0.738745
0.769932 0.769932 0.769932
0.796982 0.796982 0.796982
0.679382 0.679382 0.679382
0.709663 0.709663 0.709663
0.744754 0.744754 0.744754
0.775139 0.775139 0.775139
0.801504 0.801504 0.801504
0.824428 0.824428 0.824428
0.844399 0.844399 0.844399
0.861831 0.861831 0.861831
0.780213 0.780213 0.780213
0.805913 0.805913 0.805913
0.828266 0.828266 0.828266
0.847746 0.847746 0.847746
0.864756 0.864756 0.864756
0.879638 0.879638 0.879638
0.892680 0.892680 0.892680
0.904133 0.904133 0.904133
