assets/luts/silver.cube
# Beauty Camera 3D LUT
# Filter: Silver (silver)
# Category: B&W
TITLE "Silver"
LUT_3D_SIZE 32
DOMAIN_MIN 0.0 0.0 0.0
DOMAIN_MAX 1.0 1.0 1.0
0.037463 0.037463 0.037463
0.045309 0.045309 0.045309
0.053057 0.053057 0.053057
0.060729 0.060729 0.060729
0.068339 0.068339 0.068339
0.075900 0.075900 0.075900
0.083420 0.083420 0.083420
0.090906 0.090906 0.090906
0.098362 0.098362 0.098362
0.105795 0.105795 0.105795
0.113207 0.113207 0.113207
0.120602 0.120602 0.120602
0.127982 0.127982 0.127982
0.135351 0.135351 0.135351
0.142710 0.142710 0.142710
0.150061 0.150061 0.150061
0.157406 0.157406 0.157406
0.164746 0.164746 0.164746
0.172082 0.172082 0.172082
0.179416 0.179416 0.179416
0.186749 0.186749 0.186749
0.194081 0.194081 0.194081
0.201414 0.201414 0.201414
0.208748 0.208748 0.208748
0.216084 0.216084 0.216084
0.223424 0.223424 0.223424
0.230766 0.230766 0.230766
0.238113 0.238113 0.238113
0.245464 0.245464 0.245464
0.252820 0.252820 0.252820
0.260182 0.260182 0.260182
0.267550 0.267550 0.267550
0.062116 0.062116 0.062116
0.069717 0.069717 0.069717
0.077270 0.077270 0.077270
0.084783 0.084783 0.084783
0.092263 0.092263 0.092263
0.099715 0.099715 0.099715
0.107144 0.107144 0.107144
0.114553 0.114553 0.114553
0.121945 0.121945 0.121945
0.129323 0.129323 0.129323
0.136690 0.136690 0.136690
0.144047 0.144047 0.144047
0.151397 0.151397 0.151397
0.158741 0.158741 0.158741
0.166080 0.166080 0.166080
0.173415 0.173415 0.173415
0.180749 0.180749 0.180749
0.188082 0.188082 0.188082
0.195414 0.195414 0.195414
0.202747 0.202747 0.202747
0.210082 0.210082 0.210082
0.217419 0.217419 0.217419
0.224758 0.224758 0.224758
0.232102 0.232102 0.232102
0.239449 0.239449 0.239449
0.246801 0.246801 0.246801
0.254158 0.254158 0.254158
0.261521 0.261521 0.261521
0.268890 0.268890 0.268890
0.276265 0.276265 0.276265
0.283647 0.283647 0.283647
0.291036 0.291036 0.291036
0.086146 0.086146 0.086146
0.093620 0.093620 0.093620
0.101068 0.101068 0.101068
0.108492 0.108492 0.108492
0.115898 0.115898 0.115898
0.123287 0.123287 0.123287
0.130663 0.130663 0.130663
0.138028 0.138028 0.138028
0.145384 0.145384 0.145384
0.152733 0.152733 0.152733
0.160075 0.160075 0.160075
0.167414 0.167414 0.167414
0.174749 0.174749 0.174749
0.182082 0.182082 0.182082
0.189415 0.189415 0.189415
0.196747 0.196747 0.196747
0.204081 0.204081 0.204081
0.211416 0.211416 0.211416
0.218753 0.218753 0.218753
0.226093 0.226093 0.226093
0.233437 0.233437 0.233437
0.240786 0.240786 0.240786
0.248139 0.248139 0.248139
0.255497 0.255497 0.255497
0.262860 0.262860 0.262860
0.270230 0.270230 0.270230
0.277607 0.277607 0.277607
0.284990 0.284990 0.284990
0.292380 0.292380 0.292380
0.299778 0.299778 0.299778
0.307184 0.307184 0.307184
0.314598 0.314598 0.314598
0.109840 0.109840 0.109840
0.117242 0.117242 0.117242
0.124629 0.124629 0.124629
0.132003 0.132003 0.132003
0.139366 0.139366 0.139366
0.146721 0.146721 0.146721
0.154068 0.154068 0.154068
0.161410 0.161410 0.161410
0.168748 0.168748 0.168748
0.176082 0.176082 0.176082
0.183416 0.183416 0.183416
0.190748 0.190748 0.190748
0.198081 0.198081 0.198081
0.205414 0.205414 0.205414
0.212749 0.212749 0.212749
0.220087 0.220087 0.220087
0.227428 0.227428 0.227428
0.234773 0.234773 0.234773
0.242122 0.242122 0.242122
0.249476 0.249476 0.249476
0.256835 0.256835 0.256835
0.264200 0.264200 0.264200
0.271571 0.271571 0.271571
0.278949 0.278949 0.278949
0.286333 0.286333 0.286333
0.293725 0.293725 0.293725
0.301124 0.301124 0.301124
0.308531 0.308531 0.308531
0.315947 0.315947 0.315947
0.323370 0.323370 0.323370
0.330803 0.330803 0.330803
0.338244 0.338244 0.338244
0.133343 0.133343 0.133343
0.140704 0.140704 0.140704
0.148057 0.148057 0.148057
0.155403 0.155403 0.155403
0.162744 0.162744 0.162744
0.170081 0.170081 0.170081
0.177416 0.177416 0.177416
0.184749 0.184749 0.184749
0.192081 0.192081 0.192081
0.199414 0.199414 0.199414
0.206748 0.206748 0.206748
0.214083 0.214083 0.214083
0.221422 0.221422 0.221422
0.228763 0.228763 0.228763
0.236109 0.236109 0.236109
0.243459 0.243459 0.243459
0.250814 0.250814 0.250814
0.258174 0.258174 0.258174
0.265540 0.265540 0.265540
0.272912 0.272912 0.272912
0.280291 0.280291 0.280291
0.287676 0.287676 0.287676
0.295070 0.295070 0.295070
0.302470 0.302470 0.302470
0.309879 0.309879 0.309879
0.317296 0.317296 0.317296
0.324721 0.324721 0.324721
0.332155 0.332155 0.332155
0.339598 0.339598 0.339598
0.347050 0.347050 0.347050
0.354512 0.354512 0.354512
0.361983 0.361983 0.361983
0.156738 0.156738 0.156738
0.164079 0.164079 0.164079
0.171415 0.171415 0.171415
0.178749 0.178749 0.178749
0.186082 0.186082 0.186082
0.193414 0.193414 0.193414
0.200747 0.200747 0.200747
0.208081 0.208081 0.208081
0.215417 0.215417 0.215417
0.222756 0.222756 0.222756
0.230099 0.230099 0.230099
0.237445 0.237445 0.237445
0.244796 0.244796 0.244796
0.252151 0.252151 0.252151
0.259513 0.259513 0.259513
0.266880 0.266880 0.266880
0.274253 0.274253 0.274253
0.281633 0.281633 0.281633
0.289020 0.289020 0.289020
0.296415 0.296415 0.296415
0.303817 0.303817 0.303817
0.311227 0.311227 0.311227
0.318645 0.318645 0.318645
0.326072 0.326072 0.326072
0.333508 0.333508 0.333508
0.340952 0.340952 0.340952
0.348406 0.348406 0.348406
0.355869 0.355869 0.355869
0.363342 0.363342 0.363342
0.370825 0.370825 0.370825
0.378318 0.378318 0.378318
0.385821 0.385821 0.385821
0.180082 0.180082 0.180082
0.187415 0.187415 0.187415
0.194747 0.194747 0.194747
0.202080 0.202080 0.202080
0.209415 0.209415 0.209415
0.216752 0.216752 0.216752
0.224091 0.224091 0.224091
0.231434 0.231434 0.231434
0.238781 0.238781 0.238781
0.246133 0.246133 0.246133
0.253489 0.253489 0.253489
0.260852 0.260852 0.260852
0.268220 0.268220 0.268220
0.275594 0.275594 0.275594
0.282976 0.282976 0.282976
0.290364 0.290364 0.290364
0.297760 0.297760 0.297760
0.305163 0.305163 0.305163
0.312575 0.312575 0.312575
0.319995 0.319995 0.319995
0.327423 0.327423 0.327423
0.334861 0.334861 0.334861
0.342307 0.342307 0.342307
0.349762 0.349762 0.349762
0.357227 0.357227 0.357227
0.364702 0.364702 0.364702
0.372187 0.372187 0.372187
0.379681 0.379681 0.379681
0.387186 0.387186 0.387186
0.394701 0.394701 0.394701
0.402226 0.402226 0.402226
0.409763 0.409763 0.409763
0.203414 0.203414 0.203414
0.210749 0.210749 0.210749
0.218086 0.218086 0.218086
0.225426 0.225426 0.225426
0.232770 0.232770 0.232770
0.240117 0.240117 0.240117
0.247470 0.247470 0.247470
0.254828 0.254828 0.254828
0.262191 0.262191 0.262191
0.269560 0.269560 0.269560
0.276936 0.276936 0.276936
0.284318 0.284318 0.284318
0.291708 0.291708 0.291708
0.299105 0.299105 0.299105
0.306510 0.306510 0.306510
0.313923 0.313923 0.313923
0.321345 0.321345 0.321345
0.328775 0.328775 0.328775
0.336214 0.336214 0.336214
0.343662 0.343662 0.343662
0.351119 0.351119 0.351119
0.358586 0.358586 0.358586
0.366062 0.366062 0.366062
0.373548 0.373548 0.373548
0.381045 0.381045 0.381045
0.388551 0.388551 0.388551
0.396068 0.396068 0.396068
0.403596 0.403596 0.403596
0.411134 0.411134 0.411134
0.418683 0.418683 0.418683
0.426243 0.426243 0.426243
0.433814 0.433814 0.433814
0.226761 0.226761 0.226761
0.234105 0.234105 0.234105
0.241454 0.241454 0.241454
0.248807 0.248807 0.248807
0.256166 0.256166 0.256166
0.263530 0.263530 0.263530
0.270901 0.270901 0.270901
0.278278 0.278278 0.278278
0.285661 0.285661 0.285661
0.293053 0.293053 0.293053
0.300451 0.300451 0.300451
0.307858 0.307858 0.307858
0.315272 0.315272 0.315272
0.322695 0.322695 0.322695
0.330127 0.330127 0.330127
0.337567 0.337567 0.337567
0.345017 0.345017 0.345017
0.352476 0.352476 0.352476
0.359944 0.359944 0.359944
0.367423 0.367423 0.367423
0.374911 0.374911 0.374911
0.382409 0.382409 0.382409
0.389917 0.389917 0.389917
0.397436 0.397436 0.397436
0.404966 0.404966 0.404966
0.412506 0.412506 0.412506
0.420057 0.420057 0.420057
0.427619 0.427619 0.427619
0.435192 0.435192 0.435192
0.442776 0.442776 0.442776
0.450371 0.450371 0.450371
0.457978 0.457978 0.457978
0.250145 0.250145 0.250145
0.257504 0.257504 0.257504
0.264870 0.264870 0.264870
0.272241 0.272241 0.272241
0.279620 0.279620 0.279620
0.287005 0.287005 0.287005
0.294397 0.294397 0.294397
0.301797 0.301797 0.301797
0.309205 0.309205 0.309205
0.316621 0.316621 0.316621
0.324046 0.324046 0.324046
0.331479 0.331479 0.331479
0.338921 0.338921 0.338921
0.346372 0.346372 0.346372
0.353833 0.353833 0.353833
0.361303 0.361303 0.361303
0.368783 0.368783 0.368783
0.376273 0.376273 0.376273
0.383773 0.383773 0.383773
0.391284 0.391284 0.391284
0.398804 0.398804 0.398804
0.406336 0.406336 0.406336
0.413878 0.413878 0.413878
0.421431 0.421431 0.421431
0.428995 0.428995 0.428995
0.436570 0.436570 0.436570
0.444156 0.444156 0.444156
0.451754 0.451754 0.451754
0.459363 0.459363 0.459363
0.466983 0.466983 0.466983
0.474616 0.474616 0.474616
0.482260 0.482260 0.482260
0.273582 0.273582 0.273582
0.280962 0.280962 0.280962
0.288348 0.288348 0.288348
0.295742 0.295742 0.295742
0.303143 0.303143 0.303143
0.310553 0.310553 0.310553
0.317970 0.317970 0.317970
0.325397 0.325397 0.325397
0.332831 0.332831 0.332831
0.340275 0.340275 0.340275
0.347728 0.347728 0.347728
0.355191 0.355191 0.355191
0.362663 0.362663 0.362663
0.370144 0.370144 0.370144
0.377636 0.377636 0.377636
0.385138 0.385138 0.385138
0.392650 0.392650 0.392650
0.400173 0.400173 0.400173
0.407706 0.407706 0.407706
0.415250 0.415250 0.415250
0.422805 0.422805 0.422805
0.430371 0.430371 0.430371
0.437948 0.437948 0.437948
0.445537 0.445537 0.445537
0.453136 0.453136 0.453136
0.460747 0.460747 0.460747
0.468370 0.468370 0.468370
0.476005 0.476005 0.476005
0.483651 0.483651 0.483651
0.491309 0.491309 0.491309
0.498979 0.498979 0.498979
0.506644 0.506644 0.506644
0.297087 0.297087 0.297087
0.304490 0.304490 0.304490
0.311901 0.311901 0.311901
0.319320 0.319320 0.319320
0.326748 0.326748 0.326748
0.334184 0.334184 0.334184
0.341630 0.341630 0.341630
0.349084 0.349084 0.349084
0.356548 0.356548 0.356548
0.364022 0.364022 0.364022
0.371506 0.371506 0.371506
0.378999 0.378999 0.378999
0.386503 0.386503 0.386503
0.394017 0.394017 0.394017
0.401542 0.401542 0.401542
0.409077 0.409077 0.409077
0.416623 0.416623 0.416623
0.424180 0.424180 0.424180
0.431748 0.431748 0.431748
0.439327 0.439327 0.439327
0.446918 0.446918 0.446918
0.454519 0.454519 0.454519
0.462133 0.462133 0.462133
0.469757 0.469757 0.469757
0.477394 0.477394 0.477394
0.485042 0.485042 0.485042
0.492702 0.492702 0.492702
0.500374 0.500374 0.500374
0.508034 0.508034 0.508034
0.515660 0.515660 0.515660
0.523254 0.523254 0.523254
0.530816 0.530816 0.530816
0.320670 0.320670 0.320670
0.328099 0.328099 0.328099
0.335537 0.335537 0.335537
0.342984 0.342984 0.342984
0.350441 0.350441 0.350441
0.357907 0.357907 0.357907
0.365382 0.365382 0.365382
0.372867 0.372867 0.372867
0.380363 0.380363 0.380363
0.387869 0.387869 0.387869
0.395385 0.395385 0.395385
0.402911 0.402911 0.402911
0.410448 0.410448 0.410448
0.417996 0.417996 0.417996
0.425555 0.425555 0.425555
0.433125 0.433125 0.433125
0.440706 0.440706 0.440706
0.448299 0.448299 0.448299
0.455903 0.455903 0.455903
0.463518 0.463518 0.463518
0.471145 0.471145 0.471145
0.478784 0.478784 0.478784
0.486434 0.486434 0.486434
0.494096 0.494096 0.494096
0.501769 0.501769 0.501769
0.509423 0.509423 0.509423
0.517044 0.517044 0.517044
0.524632 0.524632 0.524632
0.532188 0.532188 0.532188
0.539712 0.539712 0.539712
0.547204 0.547204 0.547204
0.554664 0.554664 0.554664
0.344339 0.344339 0.344339
0.351797 0.351797 0.351797
0.359265 0.359265 0.359265
0.366742 0.366742 0.366742
0.374230 0.374230 0.374230
0.381727 0.381727 0.381727
0.389234 0.389234 0.389234
0.396752 0.396752 0.396752
0.404281 0.404281 0.404281
0.411820 0.411820 0.411820
0.419370 0.419370 0.419370
0.426931 0.426931 0.426931
0.434503 0.434503 0.434503
0.442086 0.442086 0.442086
0.449680 0.449680 0.449680
0.457286 0.457286 0.457286
0.464904 0.464904 0.464904
0.472533 0.472533 0.472533
0.480174 0.480174 0.480174
0.487826 0.487826 0.487826
0.495491 0.495491 0.495491
0.503163 0.503163 0.503163
0.510811 0.510811 0.510811
0.518426 0.518426 0.518426
0.526008 0.526008 0.526008
0.533558 0.533558 0.533558
0.541076 0.541076 0.541076
0.548562 0.548562 0.548562
0.556017 0.556017 0.556017
0.563441 0.563441 0.563441
0.570833 0.570833 0.570833
0.578195 0.578195 0.578195
0.368103 0.368103 0.368103
0.375592 0.375592 0.375592
0.383091 0.383091 0.383091
0.390600 0.390600 0.390600
0.398120 0.398120 0.398120
0.405651 0.405651 0.405651
0.413192 0.413192 0.413192
0.420744 0.420744 0.420744
0.428307 0.428307 0.428307
0.435881 0.435881 0.435881
0.443466 0.443466 0.443466
0.451063 0.451063 0.451063
0.458671 0.458671 0.458671
0.466290 0.466290 0.466290
0.473921 0.473921 0.473921
0.481564 0.481564 0.481564
0.489219 0.489219 0.489219
0.496886 0.496886 0.496886
0.504556 0.504556 0.504556
0.512198 0.512198 0.512198
0.519807 0.519807 0.519807
0.527383 0.527383 0.527383
0.534927 0.534927 0.534927
0.542440 0.542440 0.542440
0.549920 0.549920 0.549920
0.557369 0.557369 0.557369
0.564787 0.564787 0.564787
0.572174 0.572174 0.572174
0.579530 0.579530 0.579530
0.586855 0.586855 0.586855
0.594150 0.594150 0.594150
0.601415 0.601415 0.601415
0.391967 0.391967 0.391967
0.399489 0.399489 0.399489
0.407021 0.407021 0.407021
0.414564 0.414564 0.414564
0.422118 0.422118 0.422118
0.429683 0.429683 0.429683
0.437259 0.437259 0.437259
0.444846 0.444846 0.444846
0.452445 0.452445 0.452445
0.460055 0.460055 0.460055
0.467677 0.467677 0.467677
0.475310 0.475310 0.475310
0.482955 0.482955 0.482955
0.490612 0.490612 0.490612
0.498281 0.498281 0.498281
0.505948 0.505948 0.505948
0.513584 0.513584 0.513584
0.521187 0.521187 0.521187
0.528757 0.528757 0.528757
0.536296 0.536296 0.536296
0.543802 0.543802 0.543802
0.551277 0.551277 0.551277
0.558720 0.558720 0.558720
0.566133 0.566133 0.566133
0.573514 0.573514 0.573514
0.580864 0.580864 0.580864
0.588184 0.588184 0.588184
0.595473 0.595473 0.595473
0.602733 0.602733 0.602733
0.609962 0.609962 0.609962
0.617161 0.617161 0.617161
0.624331 0.624331 0.624331
0.415937 0.415937 0.415937
0.423493 0.423493 0.423493
0.431060 0.431060 0.431060
0.438638 0.438638 0.438638
0.446227 0.446227 0.446227
0.453828 0.453828 0.453828
0.461440 0.461440 0.461440
0.469064 0.469064 0.469064
0.476699 0.476699 0.476699
0.484346 0.484346 0.484346
0.492005 0.492005 0.492005
0.499676 0.499676 0.499676
0.507339 0.507339 0.507339
0.514968 0.514968 0.514968
0.522565 0.522565 0.522565
0.530130 0.530130 0.530130
0.537663 0.537663 0.537663
0.545163 0.545163 0.545163
0.552633 0.552633 0.552633
0.560070 0.560070 0.560070
0.567477 0.567477 0.567477
0.574852 0.574852 0.574852
0.582197 0.582197 0.582197
0.589512 0.589512 0.589512
0.596795 0.596795 0.596795
0.604049 0.604049 0.604049
0.611273 0.611273 0.611273
0.618467 0.618467 0.618467
0.625631 0.625631 0.625631
0.632766 0.632766 0.632766
0.639872 0.639872 0.639872
0.646948 0.646948 0.646948
0.440017 0.440017 0.440017
0.447608 0.447608 0.447608
0.455211 0.455211 0.455211
0.462825 0.462825 0.462825
0.470451 0.470451 0.470451
0.478089 0.478089 0.478089
0.485738 0.485738 0.485738
0.493399 0.493399 0.493399
0.501072 0.501072 0.501072
0.508728 0.508728 0.508728
0.516352 0.516352 0.516352
0.523943 0.523943 0.523943
0.531502 0.531502 0.531502
0.539029 0.539029 0.539029
0.546524 0.546524 0.546524
0.553987 0.553987 0.553987
0.561419 0.561419 0.561419
0.568820 0.568820 0.568820
0.576190 0.576190 0.576190
0.583529 0.583529 0.583529
0.590838 0.590838 0.590838
0.598117 0.598117 0.598117
0.605365 0.605365 0.605365
0.612583 0.612583 0.612583
0.619772 0.619772 0.619772
0.626931 0.626931 0.626931
0.634060 0.634060 0.634060
0.641160 0.641160 0.641160
0.648232 0.648232 0.648232
0.655274 0.655274 0.655274
0.662287 0.662287 0.662287
0.669272 0.669272 0.669272
0.464211 0.464211 0.464211
0.471839 0.471839 0.471839
0.479479 0.479479 0.479479
0.487130 0.487130 0.487130
0.494794 0.494794 0.494794
0.502467 0.502467 0.502467
0.510117 0.510117 0.510117
0.517735 0.517735 0.517735
0.525320 0.525320 0.525320
0.532873 0.532873 0.532873
0.540394 0.540394 0.540394
0.547883 0.547883 0.547883
0.555341 0.555341 0.555341
0.562767 0.562767 0.562767
0.570162 0.570162 0.570162
0.577527 0.577527 0.577527
0.584861 0.584861 0.584861
0.592164 0.592164 0.592164
0.599437 0.599437 0.599437
0.606679 0.606679 0.606679
0.613892 0.613892 0.613892
0.621075 0.621075 0.621075
0.628229 0.628229 0.628229
0.635353 0.635353 0.635353
0.642448 0.642448 0.642448
0.649514 0.649514 0.649514
0.656551 0.656551 0.656551
0.663560 0.663560 0.663560
0.670539 0.670539 0.670539
0.677491 0.677491 0.677491
0.684414 0.684414 0.684414
0.691309 0.691309 0.691309
0.488523 0.488523 0.488523
0.496188 0.496188 0.496188
0.503860 0.503860 0.503860
0.511504 0.511504 0.511504
0.519116 0.519116 0.519116
0.526696 0.526696 0.526696
0.534243 0.534243 0.534243
0.541758 0.541758 0.541758
0.549241 0.549241 0.549241
0.556693 0.556693 0.556693
0.564114 0.564114 0.564114
0.571504 0.571504 0.571504
0.578863 0.578863 0.578863
0.586191 0.586191 0.586191
0.593488 0.593488 0.593488
0.600756 0.600756 0.600756
0.607993 0.607993 0.607993
0.615201 0.615201 0.615201
0.622378 0.622378 0.622378
0.629527 0.629527 0.629527
0.636645 0.636645 0.636645
0.643735 0.643735 0.643735
0.650796 0.650796 0.650796
0.657828 0.657828 0.657828
0.664831 0.664831 0.664831
0.671805 0.671805 0.671805
0.678751 0.678751 0.678751
0.685669 0.685669 0.685669
0.692559 0.692559 0.692559
0.699421 0.699421 0.699421
0.708804 0.708804 0.708804
0.718091 0.718091 0.718091
0.512891 0.512891 0.512891
0.520497 0.520497 0.520497
0.528070 0.528070 0.528070
0.535612 0.535612 0.535612
0.543121 0.543121 0.543121
0.550599 0.550599 0.550599
0.558045 0.558045 0.558045
0.565460 0.565460 0.565460
0.572844 0.572844 0.572844
0.580197 0.580197 0.580197
0.587520 0.587520 0.587520
0.594812 0.594812 0.594812
0.602074 0.602074 0.602074
0.609306 0.609306 0.609306
0.616508 0.616508 0.616508
0.623680 0.623680 0.623680
0.630823 0.630823 0.630823
0.637937 0.637937 0.637937
0.645021 0.645021 0.645021
0.652076 0.652076 0.652076
0.659103 0.659103 0.659103
0.666101 0.666101 0.666101
0.673070 0.673070 0.673070
0.680011 0.680011 0.680011
0.686924 0.686924 0.686924
0.693809 0.693809 0.693809
0.700950 0.700950 0.700950
0.710518 0.710518 0.710518
0.719744 0.719744 0.719744
0.728639 0.728639 0.728639
0.737219 0.737219 0.737219
0.745494 0.745494 0.745494
0.536979 0.536979 0.536979
0.544483 0.544483 0.544483
0.551955 0.551955 0.551955
0.559395 0.559395 0.559395
0.566805 0.566805 0.566805
0.574183 0.574183 0.574183
0.581531 0.581531 0.581531
0.588848 0.588848 0.588848
0.596134 0.596134 0.596134
0.603391 0.603391 0.603391
0.610617 0.610617 0.610617
0.617814 0.617814 0.617814
0.624981 0.624981 0.624981
0.632119 0.632119 0.632119
0.639227 0.639227 0.639227
0.646306 0.646306 0.646306
0.653356 0.653356 0.653356
0.660377 0.660377 0.660377
0.667370 0.667370 0.667370
0.674334 0.674334 0.674334
0.681270 0.681270 0.681270
0.688178 0.688178 0.688178
0.695058 0.695058 0.695058
0.702716 0.702716 0.702716
0.712221 0.712221 0.712221
0.721385 0.721385 0.721385
0.730222 0.730222 0.730222
0.738745 0.738745 0.738745
0.746966 0.746966 0.746966
0.754897 0.754897 0.754897
0.762549 0.762549 0.762549
0.769932 0.769932 0.769932
0.560745 0.560745 0.560745
0.568149 0.568149 0.568149
0.575521 0.575521 0.575521
0.582863 0.582863 0.582863
0.590175 0.590175 0.590175
0.597456 0.597456 0.597456
0.604707 0.604707 0.604707
0.611928 0.611928 0.611928
0.619119 0.619119 0.619119
0.626281 0.626281 0.626281
0.633413 0.633413 0.633413
0.640516 0.640516 0.640516
0.647590 0.647590 0.647590
0.654635 0.654635 0.654635
0.661651 0.661651 0.661651
0.668639 0.668639 0.668639
0.675598 0.675598 0.675598
0.682528 0.682528 0.682528
0.689431 0.689431 0.689431
0.696306 0.696306 0.696306
0.704470 0.704470 0.704470
0.713912 0.713912 0.713912
0.723016 0.723016 0.723016
0.731795 0.731795 0.731795
0.740262 0.740262 0.740262
0.748430 0.748430 0.748430
0.756309 0.756309 0.756309
0.763911 0.763911 0.763911
0.771246 0.771246 0.771246
0.778326 0.778326 0.778326
0.785159 0.785159 0.785159
0.791755 0.791755 0.791755
0.584195 0.584195 0.584195
0.591501 0.591501 0.591501
0.598777 0.598777 0.598777
0.606022 0.606022 0.606022
0.613238 0.613238 0.613238
0.620424 0.620424 0.620424
0.627580 0.627580 0.627580
0.634707 0.634707 0.634707
0.641804 0.641804 0.641804
0.648873 0.648873 0.648873
0.655913 0.655913 0.655913
0.662924 0.662924 0.662924
0.669906 0.669906 0.669906
0.676860 0.676860 0.676860
0.683786 0.683786 0.683786
0.690683 0.690683 0.690683
0.697553 0.697553 0.697553
0.706212 0.706212 0.706212
0.715592 0.715592 0.715592
0.724636 0.724636 0.724636
0.733357 0.733357 0.733357
0.741769 0.741769 0.741769
0.749883 0.749883 0.749883
0.757711 0.757711 0.757711
0.765264 0.765264 0.765264
0.772552 0.772552 0.772552
0.779586 0.779586 0.779586
0.786375 0.786375 0.786375
0.792930 0.792930 0.792930
0.799258 0.799258 0.799258
0.805368 0.805368 0.805368
0.811268 0.811268 0.811268
0.607336 0.607336 0.607336
0.614547 0.614547 0.614547
0.621727 0.621727 0.621727
0.628878 0.628878 0.628878
0.635999 0.635999 0.635999
0.643092 0.643092 0.643092
0.650155 0.650155 0.650155
0.657190 0.657190 0.657190
0.664195 0.664195 0.664195
0.671172 0.671172 0.671172
0.678121 0.678121 0.678121
0.685042 0.685042 0.685042
0.691934 0.691934 0.691934
0.698799 0.698799 0.698799
0.707943 0.707943 0.707943
0.717261 0.717261 0.717261
0.726245 0.726245 0.726245
0.734910 0.734910 0.734910
0.743266 0.743266 0.743266
0.751327 0.751327 0.751327
0.759104 0.759104 0.759104
0.766608 0.766608 0.766608
0.773850 0.773850 0.773850
0.780838 0.780838 0.780838
0.787584 0.787584 0.787584
0.794097 0.794097 0.794097
0.800384 0.800384 0.800384
0.806456 0.806456 0.806456
0.812319 0.812319 0.812319
0.817983 0.817983 0.817983
0.823453 0.823453 0.823453
0.828739 0.828739 0.828739
0.630175 0.630175 0.630175
0.637291 0.637291 0.637291
0.644378 0.644378 0.644378
0.651436 0.651436 0.651436
0.658465 0.658465 0.658465
0.665466 0.665466 0.665466
0.672438 0.672438 0.672438
0.679382 0.679382 0.679382
0.686297 0.686297 0.686297
0.693184 0.693184 0.693184
0.700062 0.700062 0.700062
0.709663 0.709663 0.709663
0.718919 0.718919 0.718919
0.727844 0.727844 0.727844
0.736451 0.736451 0.736451
0.744754 0.744754 0.744754
0.752762 0.752762 0.752762
0.760489 0.760489 0.760489
0.767944 0.767944 0.767944
0.775139 0.775139 0.775139
0.782083 0.782083 0.782083
0.788786 0.788786 0.788786
0.795256 0.795256 0.795256
0.801504 0.801504 0.801504
0.807537 0.807537 0.807537
0.813364 0.813364 0.813364
0.818992 0.818992 0.818992
0.824428 0.824428 0.824428
0.829680 0.829680 0.829680
0.834755 0.834755 0.834755
0.839659 0.839659 0.839659
0.844399 0.844399 0.844399
0.652716 0.652716 0.652716
0.659740 0.659740 0.659740
0.666736 0.666736 0.666736
0.673703 0.673703 0.673703
0.680641 0.680641 0.680641
0.687551 0.687551 0.687551
0.694433 0.694433 0.694433
0.701834 0.701834 0.701834
0.711371 0.711371 0.711371
0.720566 0.720566 0.720566
0.729432 0.729432 0.729432
0.737983 0.737983 0.737983
0.746231 0.746231 0.746231
0.754188 0.754188 0.754188
0.761864 0.761864 0.761864
0.769271 0.769271 0.769271
0.776420 0.776420 0.776420
0.783319 0.783319 0.783319
0.789979 0.789979 0.789979
0.796409 0.796409 0.796409
0.802617 0.802617 0.802617
0.808612 0.808612 0.808612
0.814402 0.814402 0.814402
0.819994 0.819994 0.819994
0.825396 0.825396 0.825396
0.830616 0.830616 0.830616
0.835659 0.835659 0.835659
0.840533 0.840533 0.840533
0.845244 0.845244 0.845244
0.849797 0.849797 0.849797
0.854198 0.854198 0.854198
0.858454 0.858454 0.858454
0.674966 0.674966 0.674966
0.681900 0.681900 0.681900
0.688805 0.688805 0.688805
0.695682 0.695682 0.695682
0.703594 0.703594 0.703594
0.713068 0.713068 0.713068
0.722202 0.722202 0.722202
0.731010 0.731010 0.731010
0.739505 0.739505 0.739505
0.747699 0.747699 0.747699
0.755604 0.755604 0.755604
0.763231 0.763231 0.763231
0.770590 0.770590 0.770590
0.777692 0.777692 0.777692
0.784548 0.784548 0.784548
0.791165 0.791165 0.791165
0.797554 0.797554 0.797554
0.803722 0.803722 0.803722
0.809679 0.809679 0.809679
