assets/luts/silver.cube
# Beauty Camera 3D LUT
# Filter: Silver (silver)
# Category: B&W
TITLE "Silver"
LUT_3D_SIZE 5
DOMAIN_MIN 0.000000 0.000000 0.000000
DOMAIN_MAX 0.903226 0.903226 0.903226
0.037463 0.037463 0.037463
0.090906 0.090906 0.090906
0.142710 0.142710 0.142710
0.194081 0.194081 0.194081
0.245464 0.245464 0.245464
0.203414 0.203414 0.203414
0.254828 0.254828 0.254828
0.306510 0.306510 0.306510
0.358586 0.358586 0.358586
0.411134 0.411134 0.411134
0.368103 0.368103 0.368103
0.420744 0.420744 0.420744
0.473921 0.473921 0.473921
0.527383 0.527383 0.527383
0.579530 0.579530 0.579530
0.536979 0.536979 0.536979
0.588848 0.588848 0.588848
0.639227 0.639227 0.639227
0.688178 0.688178 0.688178
0.746966 0.746966 0.746966
0.696929 0.696929 0.696929
0.757011 0.757011 0.757011
0.804821 0.804821 0.804821
0.842265 0.842265 0.842265
0.871766 0.871766 0.871766
0.057250 0.057250 0.057250
0.109840 0.109840 0.109840
0.161410 0.161410 0.161410
0.212749 0.212749 0.212749
0.264200 0.264200 0.264200
0.222089 0.222089 0.222089
0.273582 0.273582 0.273582
0.325397 0.325397 0.325397
0.377636 0.377636 0.377636
0.430371 0.430371 0.430371
0.387186 0.387186 0.387186
0.440017 0.440017 0.440017
0.493399 0.493399 0.493399
0.546524 0.546524 0.546524
0.598117 0.598117 0.598117
0.556017 0.556017 0.556017
0.607336 0.607336 0.607336
0.657190 0.657190 0.657190
0.707943 0.707943 0.707943
0.766608 0.766608 0.766608
0.719744 0.719744 0.719744
0.775780 0.775780 0.775780
0.819494 0.819494 0.819494
0.853804 0.853804 0.853804
0.880895 0.880895 0.880895
0.076586 0.076586 0.076586
0.128653 0.128653 0.128653
0.180082 0.180082 0.180082
0.231434 0.231434 0.231434
0.282976 0.282976 0.282976
0.240786 0.240786 0.240786
0.292380 0.292380 0.292380
0.344339 0.344339 0.344339
0.396752 0.396752 0.396752
0.449680 0.449680 0.449680
0.406336 0.406336 0.406336
0.459363 0.459363 0.459363
0.512891 0.512891 0.512891
0.565460 0.565460 0.565460
0.616508 0.616508 0.616508
0.574852 0.574852 0.574852
0.625631 0.625631 0.625631
0.674966 0.674966 0.674966
0.731010 0.731010 0.731010
0.784548 0.784548 0.784548
0.741769 0.741769 0.741769
0.792930 0.792930 0.792930
0.832930 0.832930 0.832930
0.864395 0.864395 0.864395
0.889291 0.889291 0.889291
0.095654 0.095654 0.095654
0.147389 0.147389 0.147389
0.198747 0.198747 0.198747
0.250145 0.250145 0.250145
0.301797 0.301797 0.301797
0.259513 0.259513 0.259513
0.311227 0.311227 0.311227
0.363342 0.363342 0.363342
0.415937 0.415937 0.415937
0.469064 0.469064 0.469064
0.425555 0.425555 0.425555
0.478784 0.478784 0.478784
0.532188 0.532188 0.532188
0.584195 0.584195 0.584195
0.634707 0.634707 0.634707
0.593488 0.593488 0.593488
0.643735 0.643735 0.643735
0.692559 0.692559 0.692559
0.752046 0.752046 0.752046
0.800945 0.800945 0.800945
0.761864 0.761864 0.761864
0.808612 0.808612 0.808612
0.845244 0.845244 0.845244
0.874121 0.874121 0.874121
0.897017 0.897017 0.897017
0.114553 0.114553 0.114553
0.166080 0.166080 0.166080
0.217419 0.217419 0.217419
0.268890 0.268890 0.268890
0.320670 0.320670 0.320670
0.278278 0.278278 0.278278
0.330127 0.330127 0.330127
0.382409 0.382409 0.382409
0.435192 0.435192 0.435192
0.488523 0.488523 0.488523
0.444846 0.444846 0.444846
0.498281 0.498281 0.498281
0.551277 0.551277 0.551277
0.602733 0.602733 0.602733
0.652716 0.652716 0.652716
0.611928 0.611928 0.611928
0.661651 0.661651 0.661651
0.713912 0.713912 0.713912
0.771246 0.771246 0.771246
0.815946 0.815946 0.815946
0.780213 0.780213 0.780213
0.822964 0.822964 0.822964
0.856537 0.856537 0.856537
0.883060 0.883060 0.883060
0.904133 0.904133 0.904133
