assets/luts/sunset.cube
# Beauty Camera 3D LUT
# Filter: Sunset (sunset)
# Category: Warm
TITLE "Sunset"
LUT_3D_SIZE 32
DOMAIN_MIN 0.0 0.0 0.0
DOMAIN_MAX 1.0 1.0 1.0
0.012019 0.000000 0.000000
0.067572 0.000000 0.000000
0.119579 0.000000 0.000000
0.169428 0.000000 0.000000
0.217737 0.000000 0.000000
0.264856 0.000000 0.000000
0.311008 0.000000 0.000000
0.356351 0.000000 0.000000
0.400997 0.000000 0.000000
0.445034 0.000000 0.000000
0.488530 0.000000 0.000000
0.531541 0.000000 0.000000
0.574112 0.000000 0.000000
0.616281 0.000000 0.000000
0.658080 0.000000 0.000000
0.699537 0.000000 0.000000
0.752828 0.000000 0.000000
0.796514 0.000000 0.000000
0.832256 0.000000 0.000000
0.861548 0.000000 0.000000
0.885590 0.000000 0.000000
0.905352 0.000000 0.000000
0.921617 0.000000 0.000000
0.935022 0.000000 0.000000
0.946083 0.000000 0.000000
0.955219 0.000000 0.000000
0.962775 0.000000 0.000000
0.969030 0.000000 0.000000
0.974214 0.000000 0.000000
0.978513 0.000000 0.000000
0.982082 0.000000 0.000000
0.985047 0.000000 0.000000
0.007249 0.000000 0.000000
0.062802 0.000000 0.000000
0.114810 0.000000 0.000000
0.164659 0.000000 0.000000
0.212967 0.000000 0.000000
0.260086 0.000000 0.000000
0.306239 0.000000 0.000000
0.351581 0.000000 0.000000
0.396227 0.000000 0.000000
0.440264 0.000000 0.000000
0.483760 0.000000 0.000000
0.526771 0.000000 0.000000
0.569342 0.000000 0.000000
0.611511 0.000000 0.000000
0.653311 0.000000 0.000000
0.694768 0.000000 0.000000
0.747150 0.000000 0.000000
0.791839 0.000000 0.000000
0.828403 0.000000 0.000000
0.858367 0.000000 0.000000
0.882962 0.000000 0.000000
0.903177 0.000000 0.000000
0.919816 0.000000 0.000000
0.933529 0.000000 0.000000
0.944844 0.000000 0.000000
0.954191 0.000000 0.000000
0.961920 0.000000 0.000000
0.968319 0.000000 0.000000
0.973621 0.000000 0.000000
0.978019 0.000000 0.000000
0.981670 0.000000 0.000000
0.984703 0.000000 0.000000
0.002559 0.037581 0.000000
0.058113 0.035719 0.000000
0.110120 0.033976 0.000000
0.159969 0.032305 0.000000
0.208278 0.030686 0.000000
0.255396 0.029107 0.000000
0.301549 0.027560 0.000000
0.346891 0.026040 0.000000
0.391538 0.024544 0.000000
0.435575 0.023068 0.000000
0.479071 0.021610 0.000000
0.522082 0.020168 0.000000
0.564653 0.018741 0.000000
0.606822 0.017328 0.000000
0.648621 0.015927 0.000000
0.690078 0.014537 0.000000
0.741440 0.013158 0.000000
0.787138 0.011789 0.000000
0.824528 0.010430 0.000000
0.855169 0.009079 0.000000
0.880319 0.007737 0.000000
0.900991 0.006402 0.000000
0.918006 0.005075 0.000000
0.932028 0.003754 0.000000
0.943598 0.002441 0.000000
0.953156 0.001134 0.000000
0.961060 0.000000 0.000000
0.967604 0.000000 0.000000
0.973026 0.000000 0.000000
0.977523 0.000000 0.000000
0.981256 0.000000 0.000000
0.984358 0.000000 0.000000
0.000000 0.075543 0.000000
0.053464 0.073681 0.000000
0.105471 0.071938 0.000000
0.155320 0.070267 0.000000
0.203629 0.068648 0.000000
0.250748 0.067068 0.000000
0.296900 0.065521 0.000000
0.342243 0.064002 0.000000
0.386889 0.062505 0.000000
0.430926 0.061029 0.000000
0.474422 0.059571 0.000000
0.517433 0.058130 0.000000
0.560004 0.056703 0.000000
0.602173 0.055289 0.000000
0.643972 0.053888 0.000000
0.685429 0.052499 0.000000
0.735652 0.051120 0.000000
0.782374 0.049751 0.000000
0.820600 0.048391 0.000000
0.851927 0.047041 0.000000
0.877640 0.045698 0.000000
0.898775 0.044363 0.000000
0.916170 0.043036 0.000000
0.930507 0.041716 0.000000
0.942336 0.040403 0.000000
0.952108 0.039096 0.000000
0.960189 0.037795 0.000000
0.966878 0.036500 0.000000
0.972422 0.035211 0.000000
0.977019 0.033927 0.000000
0.980836 0.032649 0.000000
0.984008 0.031375 0.000000
0.000000 0.113277 0.000000
0.048843 0.111415 0.000000
0.100850 0.109672 0.000000
0.150699 0.108001 0.000000
0.199008 0.106382 0.000000
0.246127 0.104802 0.000000
0.292279 0.103255 0.000000
0.337622 0.101736 0.000000
0.382268 0.100239 0.000000
0.426305 0.098763 0.000000
0.469801 0.097305 0.000000
0.512812 0.095864 0.000000
0.555383 0.094437 0.000000
0.597552 0.093023 0.000000
0.639351 0.091622 0.000000
0.680809 0.090233 0.000000
0.729771 0.088854 0.000000
0.777532 0.087485 0.000000
0.816609 0.086125 0.000000
0.848633 0.084775 0.000000
0.874917 0.083432 0.000000
0.896523 0.082097 0.000000
0.914305 0.080770 0.000000
0.928961 0.079450 0.000000
0.941053 0.078137 0.000000
0.951042 0.076830 0.000000
0.959303 0.075529 0.000000
0.966142 0.074234 0.000000
0.971808 0.072945 0.000000
0.976508 0.071661 0.000000
0.980410 0.070383 0.000000
0.983652 0.069109 0.000000
0.000000 0.150838 0.000000
0.044243 0.148976 0.000000
0.096251 0.147233 0.000000
0.146100 0.145562 0.000000
0.194408 0.143943 0.000000
0.241527 0.142364 0.000000
0.287680 0.140817 0.000000
0.333022 0.139297 0.000000
0.377668 0.137801 0.000000
0.421705 0.136325 0.000000
0.465202 0.134867 0.000000
0.508212 0.133425 0.000000
0.550783 0.131998 0.000000
0.592952 0.130585 0.000000
0.634752 0.129184 0.000000
0.676209 0.127794 0.000000
0.723787 0.126415 0.000000
0.772606 0.125046 0.000000
0.812548 0.123687 0.000000
0.845281 0.122336 0.000000
0.872147 0.120993 0.000000
0.894231 0.119659 0.000000
0.912408 0.118332 0.000000
0.927387 0.117011 0.000000
0.939748 0.115698 0.000000
0.949958 0.114391 0.000000
0.958402 0.113090 0.000000
0.965392 0.111795 0.000000
0.971184 0.110506 0.000000
0.975988 0.109222 0.000000
0.979976 0.107944 0.000000
0.983290 0.106671 0.000000
0.000000 0.188260 0.000000
0.039661 0.186398 0.000000
0.091668 0.184655 0.000000
0.141517 0.182984 0.000000
0.189826 0.181365 0.000000
0.236944 0.179786 0.000000
0.283097 0.178239 0.000000
0.328440 0.176719 0.000000
0.373086 0.175223 0.000000
0.417123 0.173747 0.000000
0.460619 0.172289 0.000000
0.503630 0.170847 0.000000
0.546201 0.169420 0.000000
0.588370 0.168007 0.000000
0.630169 0.166606 0.000000
0.671626 0.165216 0.000000
0.717693 0.163837 0.000000
0.767589 0.162468 0.000000
0.808412 0.161109 0.000000
0.841867 0.159758 0.000000
0.869327 0.158416 0.000000
0.891898 0.157081 0.000000
0.910475 0.155754 0.000000
0.925785 0.154433 0.000000
0.938418 0.153120 0.000000
0.948854 0.151813 0.000000
0.957484 0.150512 0.000000
0.964628 0.149218 0.000000
0.970548 0.147928 0.000000
0.975458 0.146645 0.000000
0.979535 0.145366 0.000000
0.982921 0.144093 0.000000
0.000000 0.225566 0.000000
0.035092 0.223704 0.000000
0.087100 0.221961 0.000000
0.136949 0.220290 0.000000
0.185257 0.218671 0.000000
0.232376 0.217091 0.000000
0.278529 0.215544 0.000000
0.323871 0.214025 0.000000
0.368517 0.212528 0.000000
0.412554 0.211052 0.000000
0.456051 0.209594 0.000000
0.499061 0.208153 0.000000
0.541632 0.206726 0.000000
0.583801 0.205312 0.000000
0.625601 0.203911 0.000000
0.667058 0.202522 0.000000
0.711485 0.201143 0.000000
0.762478 0.199774 0.000000
0.804198 0.198414 0.000000
0.838390 0.197064 0.000000
0.866453 0.195721 0.000000
0.889520 0.194386 0.000000
0.908506 0.193059 0.000000
0.924153 0.191739 0.000000
0.937064 0.190426 0.000000
0.947729 0.189119 0.000000
0.956549 0.187818 0.000000
0.963850 0.186523 0.000000
0.969900 0.185234 0.000000
0.974919 0.183950 0.000000
0.979084 0.182672 0.000000
0.982546 0.181398 0.000000
0.000000 0.262771 0.000000
0.030536 0.260909 0.000000
0.082544 0.259166 0.000000
0.132392 0.257495 0.000000
0.180701 0.255876 0.000000
0.227820 0.254297 0.000000
0.273973 0.252750 0.000000
0.319315 0.251230 0.000000
0.363961 0.249734 0.000000
0.407998 0.248257 0.000000
0.451494 0.246800 0.000000
0.494505 0.245358 0.000000
0.537076 0.243931 0.000000
0.579245 0.242518 0.000000
0.621045 0.241117 0.000000
0.662502 0.239727 0.000000
0.705157 0.238348 0.000000
0.757268 0.236979 0.000000
0.799904 0.235620 0.000000
0.834845 0.234269 0.000000
0.863524 0.232926 0.000000
0.887097 0.231592 0.000000
0.906499 0.230265 0.000000
0.922490 0.228944 0.000000
0.935684 0.227631 0.000000
0.946583 0.226324 0.000000
0.955596 0.225023 0.000000
0.963057 0.223728 0.000000
0.969240 0.222439 0.000000
0.974368 0.221155 0.000000
0.978626 0.219877 0.000000
0.982163 0.218604 0.000000
0.000000 0.299889 0.000000
0.025991 0.298027 0.000000
0.077998 0.296283 0.000000
0.127847 0.294613 0.000000
0.176156 0.292993 0.000000
0.223275 0.291414 0.000000
0.269427 0.289867 0.000000
0.314770 0.288347 0.000000
0.359416 0.286851 0.000000
0.403453 0.285375 0.000000
0.446949 0.283917 0.000000
0.489960 0.282475 0.000000
0.532531 0.281049 0.000000
0.574700 0.279635 0.000000
0.616499 0.278234 0.000000
0.657956 0.276845 0.000000
0.699096 0.275466 0.000000
0.751957 0.274097 0.000000
0.795526 0.272737 0.000000
0.831231 0.271386 0.000000
0.860538 0.270044 0.000000
0.884627 0.268709 0.000000
0.904454 0.267382 0.000000
0.920794 0.266062 0.000000
0.934276 0.264748 0.000000
0.945414 0.263442 0.000000
0.954624 0.262141 0.000000
0.962249 0.260846 0.000000
0.968567 0.259557 0.000000
0.973808 0.258273 0.000000
0.978158 0.256994 0.000000
0.981773 0.255721 0.000000
0.000000 0.336928 0.000000
0.021455 0.335066 0.000000
0.073462 0.333323 0.000000
0.123311 0.331652 0.000000
0.171620 0.330033 0.000000
0.218739 0.328453 0.000000
0.264892 0.326906 0.000000
0.310234 0.325387 0.000000
0.354880 0.323890 0.000000
0.398917 0.322414 0.000000
0.442413 0.320956 0.000000
0.485424 0.319515 0.000000
0.527995 0.318088 0.000000
0.570164 0.316674 0.000000
0.611963 0.315273 0.000000
0.653421 0.313884 0.000000
0.694560 0.312505 0.000000
0.746541 0.311136 0.000000
0.791061 0.309777 0.000000
0.827546 0.308426 0.000000
0.857493 0.307083 0.000000
0.882108 0.305748 0.000000
0.902368 0.304421 0.000000
0.919064 0.303101 0.000000
0.932841 0.301788 0.000000
0.944222 0.300481 0.000000
0.953634 0.299180 0.000000
0.961425 0.297885 0.000000
0.967881 0.296596 0.000000
0.973236 0.295312 0.000000
0.977681 0.294034 0.000000
0.981375 0.292760 0.000000
0.000000 0.373897 0.000000
0.016928 0.372035 0.000000
0.068935 0.370291 0.000000
0.118784 0.368621 0.000000
0.167093 0.367001 0.000000
0.214212 0.365422 0.000000
0.260364 0.363875 0.000000
0.305707 0.362355 0.000000
0.350353 0.360859 0.000000
0.394390 0.359383 0.000000
0.437886 0.357925 0.000000
0.480897 0.356484 0.000000
0.523468 0.355057 0.000000
0.565637 0.353643 0.000000
0.607436 0.352242 0.000000
0.648894 0.350853 0.000000
0.690033 0.349474 0.000000
0.741018 0.348105 0.000000
0.786508 0.346745 0.000000
0.823788 0.345394 0.000000
0.854387 0.344052 0.000000
0.879538 0.342717 0.000000
0.900240 0.341390 0.000000
0.917301 0.340070 0.000000
0.931378 0.338757 0.000000
0.943007 0.337450 0.000000
0.952623 0.336149 0.000000
0.960584 0.334854 0.000000
0.967181 0.333565 0.000000
0.972652 0.332281 0.000000
0.977195 0.331003 0.000000
0.980969 0.329729 0.000000
0.000000 0.410801 0.000000
0.012409 0.408939 0.000000
0.064416 0.407196 0.000000
0.114265 0.405525 0.000000
0.162574 0.403906 0.000000
0.209692 0.402327 0.000000
0.255845 0.400780 0.000000
0.301187 0.399260 0.000000
0.345834 0.397764 0.000000
0.389871 0.396288 0.000000
0.433367 0.394830 0.000000
0.476378 0.393388 0.000000
0.518949 0.391961 0.000000
0.561118 0.390548 0.000000
0.602917 0.389147 0.000000
0.644374 0.387757 0.000000
0.685513 0.386379 0.000000
0.735384 0.385010 0.000000
0.781864 0.383650 0.000000
0.819955 0.382299 0.000000
0.851220 0.380957 0.000000
0.876918 0.379622 0.000000
0.898070 0.378295 0.000000
0.915502 0.376975 0.000000
0.929885 0.375661 0.000000
0.941767 0.374354 0.000000
0.951593 0.373053 0.000000
0.959727 0.371759 0.000000
0.966467 0.370469 0.000000
0.972058 0.369186 0.000000
0.976699 0.367907 0.000000
0.980555 0.366634 0.000000
0.000000 0.447647 0.000000
0.007897 0.445785 0.000000
0.059904 0.444042 0.000000
0.109753 0.442371 0.000000
0.158062 0.440752 0.000000
0.205180 0.439173 0.000000
0.251333 0.437626 0.000000
0.296675 0.436106 0.000000
0.341322 0.434610 0.000000
0.385359 0.433134 0.000000
0.428855 0.431676 0.000000
0.471866 0.430234 0.000000
0.514437 0.428807 0.000000
0.556606 0.427394 0.000000
0.598405 0.425993 0.000000
0.639862 0.424603 0.000000
0.681001 0.423224 0.000000
0.729637 0.421855 0.000000
0.777126 0.420496 0.000000
0.816045 0.419145 0.000000
0.847988 0.417803 0.000000
0.874245 0.416468 0.000000
0.895856 0.415141 0.000000
0.913666 0.413821 0.000000
0.928362 0.412507 0.000000
0.940502 0.411200 0.000000
0.950541 0.409899 0.000000
0.958852 0.408605 0.000000
0.965739 0.407315 0.000000
0.971451 0.406032 0.000000
0.976193 0.404753 0.000000
0.980133 0.403480 0.000000
0.000000 0.484439 0.000000
0.003391 0.482577 0.000000
0.055399 0.480834 0.000000
0.105247 0.479163 0.000000
0.153556 0.477544 0.000000
0.200675 0.475964 0.000000
0.246828 0.474417 0.000000
0.292170 0.472898 0.000000
0.336816 0.471401 0.000000
0.380853 0.469925 0.000000
0.424349 0.468467 0.000000
0.467360 0.467026 0.000000
0.509931 0.465599 0.000000
0.552100 0.464185 0.000000
0.593899 0.462784 0.000000
0.635357 0.461395 0.000000
0.676496 0.460016 0.000000
0.723774 0.458647 0.000000
0.772293 0.457288 0.000000
0.812055 0.455937 0.000000
0.844692 0.454594 0.000000
0.871518 0.453260 0.000000
0.893597 0.451932 0.000000
0.911794 0.450612 0.000000
0.926809 0.449299 0.000000
0.939212 0.447992 0.000000
0.949469 0.446691 0.000000
0.957960 0.445396 0.000000
0.964996 0.444107 0.000000
0.970832 0.442823 0.000000
0.975676 0.441545 0.000000
0.979702 0.440271 0.000000
0.000000 0.521180 0.000000
0.000000 0.519318 0.000000
0.050899 0.517575 0.000000
0.100748 0.515904 0.000000
0.149057 0.514285 0.000000
0.196176 0.512706 0.000000
0.242328 0.511159 0.000000
0.287671 0.509639 0.000000
0.332317 0.508142 0.000000
0.376354 0.506666 0.000000
0.419850 0.505209 0.000000
0.462861 0.503767 0.000000
0.505432 0.502340 0.000000
0.547601 0.500927 0.000000
0.589400 0.499526 0.000000
0.630857 0.498136 0.000000
0.671997 0.496757 0.000000
0.717792 0.495388 0.000000
0.767362 0.494029 0.000000
0.807985 0.492678 0.000000
0.841328 0.491335 0.000000
0.868735 0.490001 0.000000
0.891293 0.488674 0.000000
0.909884 0.487353 0.000000
0.925224 0.486040 0.000000
0.937895 0.484733 0.000000
0.948374 0.483432 0.000000
0.957049 0.482137 0.000000
0.964238 0.480848 0.000000
0.970200 0.479564 0.000000
0.975150 0.478286 0.000000
0.979262 0.477013 0.000000
0.000000 0.557874 0.000000
0.000000 0.556012 0.000000
0.046406 0.554269 0.000000
0.096255 0.552598 0.000000
0.144564 0.550979 0.000000
0.191682 0.549400 0.000000
0.237835 0.547853 0.000000
0.283177 0.546333 0.000000
0.327823 0.544837 0.000000
0.371860 0.543361 0.000000
0.415357 0.541903 0.000000
0.458368 0.540461 0.000000
0.500938 0.539034 0.000000
0.543107 0.537621 0.000000
0.584907 0.536220 0.000000
0.626364 0.534830 0.000000
0.667503 0.533451 0.000000
0.711688 0.532083 0.000000
0.762330 0.530723 0.000000
0.803832 0.529372 0.000000
0.837897 0.528030 0.000000
0.865896 0.526695 0.000000
0.888942 0.525368 0.000000
0.907935 0.524048 0.000000
0.923606 0.522734 0.000000
0.936552 0.521427 0.000000
0.947258 0.520126 0.000000
0.956120 0.518832 0.000000
0.963464 0.517542 0.000000
0.969555 0.516259 0.000000
0.974612 0.514980 0.000000
0.978814 0.513707 0.000000
0.000000 0.594524 0.000000
0.000000 0.592662 0.000000
0.041918 0.590919 0.000000
0.091767 0.589248 0.000000
0.140075 0.587629 0.000000
0.187194 0.586050 0.000000
0.233347 0.584503 0.000000
0.278689 0.582983 0.000000
0.323335 0.581487 0.000000
0.367372 0.580011 0.000000
0.410869 0.578553 0.000000
0.453879 0.577111 0.000000
0.496450 0.575684 0.000000
0.538619 0.574271 0.000000
0.580419 0.572870 0.000000
0.621876 0.571480 0.000000
0.663015 0.570102 0.000000
0.705460 0.568733 0.000000
0.757196 0.567373 0.000000
0.799595 0.566022 0.000000
0.834395 0.564680 0.000000
0.862999 0.563345 0.000000
0.886543 0.562018 0.000000
0.905946 0.560698 0.000000
0.921956 0.559384 0.000000
0.935182 0.558077 0.000000
0.946119 0.556776 0.000000
0.955172 0.555482 0.000000
0.962675 0.554192 0.000000
0.968898 0.552909 0.000000
0.974064 0.551630 0.000000
0.978356 0.550357 0.000000
0.000000 0.631133 0.000000
0.000000 0.629271 0.000000
0.037435 0.627528 0.000000
0.087284 0.625857 0.000000
0.135592 0.624238 0.000000
0.182711 0.622658 0.000000
0.228864 0.621111 0.000000
0.274206 0.619592 0.000000
0.318852 0.618095 0.000000
0.362889 0.616619 0.000000
0.406386 0.615161 0.000000
0.449396 0.613720 0.000000
0.491967 0.612293 0.000000
0.534136 0.610879 0.000000
0.575936 0.609478 0.000000
0.617393 0.608089 0.000000
0.658532 0.606710 0.000000
0.699374 0.605341 0.000000
0.751957 0.603982 0.000000
0.795271 0.602631 0.000000
0.830822 0.601288 0.000000
0.860043 0.599954 0.000000
0.884095 0.598626 0.000000
0.903917 0.597306 0.000000
0.920272 0.595993 0.000000
0.933783 0.594686 0.000000
0.944956 0.593385 0.000000
0.954205 0.592090 0.000000
0.961870 0.590801 0.000000
0.968227 0.589517 0.000000
0.973504 0.588239 0.000000
0.977889 0.586965 0.000000
0.000000 0.667702 0.000000
0.000000 0.665840 0.000000
0.032956 0.664097 0.000000
0.082805 0.662426 0.000000
0.131114 0.660807 0.000000
0.178233 0.659228 0.000000
0.224385 0.657681 0.000000
0.269728 0.656161 0.000000
0.314374 0.654665 0.000000
0.358411 0.653189 0.000000
0.401907 0.651731 0.000000
0.444918 0.650289 0.000000
0.487489 0.648862 0.000000
0.529658 0.647449 0.000000
0.571457 0.646048 0.000000
0.612915 0.644658 0.000000
0.654054 0.643279 0.000000
0.694896 0.641910 0.000000
0.746611 0.640551 0.000000
0.790858 0.639200 0.000000
0.827175 0.637858 0.000000
0.857027 0.636523 0.000000
0.881597 0.635196 0.000000
0.901846 0.633876 0.000000
0.918554 0.632562 0.000000
0.932356 0.631255 0.000000
0.943770 0.629954 0.000000
0.953218 0.628660 0.000000
0.961048 0.627370 0.000000
0.967542 0.626087 0.000000
0.972933 0.624808 0.000000
0.977412 0.623535 0.000000
0.000000 0.705989 0.000000
0.000000 0.703370 0.000000
0.028483 0.700898 0.000000
0.078332 0.698958 0.000000
0.126641 0.697339 0.000000
0.173759 0.695760 0.000000
0.219912 0.694213 0.000000
0.265254 0.692693 0.000000
0.309900 0.691197 0.000000
0.353937 0.689721 0.000000
0.397434 0.688263 0.000000
0.440445 0.686821 0.000000
0.483015 0.685394 0.000000
0.525184 0.683981 0.000000
0.566984 0.682580 0.000000
0.608441 0.681191 0.000000
0.649580 0.679812 0.000000
0.690422 0.678443 0.000000
0.741155 0.677083 0.000000
0.786355 0.675732 0.000000
0.823454 0.674390 0.000000
0.853948 0.673055 0.000000
0.879047 0.671728 0.000000
0.899732 0.670408 0.000000
0.916800 0.669094 0.000000
0.930899 0.667787 0.000000
0.942559 0.666487 0.000000
0.952211 0.665192 0.000000
0.960209 0.663903 0.000000
0.966843 0.662619 0.000000
0.972350 0.661340 0.000000
0.976926 0.660067 0.000000
0.000000 0.752893 0.000000
0.000000 0.750692 0.000000
0.024013 0.748614 0.000000
0.073862 0.746606 0.000000
0.122171 0.744644 0.000000
0.169290 0.742717 0.000000
0.215442 0.740814 0.000000
0.260785 0.738932 0.000000
0.305431 0.737065 0.000000
0.349468 0.735210 0.000000
0.392964 0.733366 0.000000
0.435975 0.731529 0.000000
0.478546 0.729699 0.000000
0.520715 0.727873 0.000000
0.562514 0.726052 0.000000
0.603972 0.724233 0.000000
0.645111 0.722416 0.000000
0.685953 0.720601 0.000000
0.735587 0.718786 0.000000
0.781759 0.716971 0.000000
0.819656 0.715156 0.000000
0.850806 0.713340 0.000000
0.876446 0.711523 0.000000
0.897575 0.709703 0.000000
0.915010 0.707882 0.000000
0.929413 0.706059 0.000000
0.941323 0.704232 0.000000
0.951183 0.702403 0.000000
0.959353 0.700570 0.000000
0.966130 0.699116 0.000000
0.971755 0.697837 0.000000
0.976430 0.696564 0.000000
0.000000 0.792281 0.000000
0.000000 0.790431 0.000000
0.019548 0.788684 0.000000
0.069397 0.786996 0.000000
0.117706 0.785347 0.000000
0.164825 0.783727 0.000000
0.210977 0.782128 0.000000
0.256320 0.780545 0.000000
0.300966 0.778976 0.000000
0.345003 0.777417 0.000000
0.388499 0.775866 0.000000
0.431510 0.774322 0.000000
0.474081 0.772784 0.000000
0.516250 0.771249 0.000000
0.558049 0.769718 0.000000
0.599506 0.768189 0.000000
0.640646 0.766662 0.000000
0.681488 0.765136 0.000000
0.729904 0.763611 0.000000
0.777069 0.762085 0.000000
0.815781 0.760559 0.000000
0.847600 0.759033 0.000000
0.873790 0.757505 0.000000
0.895374 0.755976 0.000000
0.913184 0.754445 0.000000
0.927896 0.752912 0.000000
0.940062 0.751377 0.000000
0.950134 0.749839 0.000000
0.958480 0.748298 0.000000
0.965402 0.746755 0.000000
0.971148 0.745209 0.000000
0.975923 0.743659 0.000000
0.000000 0.825364 0.000000
0.000000 0.823808 0.000000
0.015087 0.822340 0.000000
0.064936 0.820921 0.000000
0.113245 0.819535 0.000000
0.160363 0.818172 0.000000
0.206516 0.816828 0.000000
0.251858 0.815497 0.000000
0.296504 0.814178 0.000000
0.340541 0.812867 0.000000
0.384038 0.811564 0.000000
0.427049 0.810266 0.000000
0.469620 0.808972 0.000000
0.511788 0.807682 0.000000
0.553588 0.806395 0.000000
0.595045 0.805109 0.000000
0.636184 0.803826 0.000000
0.677026 0.802543 0.000000
0.724105 0.801260 0.000000
0.772282 0.799978 0.000000
0.811825 0.798695 0.000000
0.844328 0.797411 0.000000
0.871080 0.796127 0.000000
0.893128 0.794841 0.000000
0.911320 0.793554 0.000000
0.926348 0.792265 0.000000
0.938775 0.790974 0.000000
0.949063 0.789682 0.000000
0.957588 0.788386 0.000000
0.964659 0.787089 0.000000
0.970529 0.785789 0.000000
0.975406 0.784486 0.000000
0.000000 0.853156 0.000000
0.000000 0.851849 0.000000
0.010629 0.850614 0.000000
0.060478 0.849420 0.000000
0.108787 0.848255 0.000000
0.155906 0.847109 0.000000
0.202058 0.845979 0.000000
0.247401 0.844860 0.000000
0.292047 0.843751 0.000000
0.336084 0.842649 0.000000
0.379580 0.841553 0.000000
0.422591 0.840461 0.000000
0.465162 0.839373 0.000000
0.507331 0.838289 0.000000
0.549130 0.837206 0.000000
0.590587 0.836125 0.000000
0.631727 0.835046 0.000000
0.672569 0.833967 0.000000
0.718186 0.832889 0.000000
0.767397 0.831810 0.000000
0.807788 0.830732 0.000000
0.840988 0.829652 0.000000
0.868315 0.828572 0.000000
0.890835 0.827491 0.000000
0.909417 0.826409 0.000000
0.924768 0.825325 0.000000
0.937462 0.824240 0.000000
0.947970 0.823153 0.000000
0.956678 0.822064 0.000000
0.963901 0.820973 0.000000
0.969897 0.819879 0.000000
0.974879 0.818784 0.000000
0.000000 0.876509 0.000000
0.000000 0.875409 0.000000
0.006175 0.874370 0.000000
0.056024 0.873367 0.000000
0.104333 0.872387 0.000000
0.151452 0.871423 0.000000
0.197604 0.870473 0.000000
0.242947 0.869532 0.000000
0.287593 0.868599 0.000000
0.331630 0.867672 0.000000
0.375126 0.866750 0.000000
0.418137 0.865832 0.000000
0.460708 0.864917 0.000000
0.502877 0.864005 0.000000
0.544676 0.863095 0.000000
0.586133 0.862186 0.000000
0.627273 0.861278 0.000000
0.668115 0.860371 0.000000
0.712145 0.859464 0.000000
0.762411 0.858557 0.000000
0.803668 0.857650 0.000000
0.837580 0.856742 0.000000
0.865492 0.855834 0.000000
0.888495 0.854925 0.000000
0.907476 0.854015 0.000000
0.923155 0.853103 0.000000
0.936121 0.852191 0.000000
0.946855 0.851276 0.000000
0.955750 0.850361 0.000000
0.963127 0.849443 0.000000
0.969251 0.848524 0.000000
0.974340 0.847602 0.000000
0.000000 0.896133 0.000000
0.000000 0.895208 0.000000
0.001725 0.894335 0.000000
0.051574 0.893491 0.000000
0.099883 0.892666 0.000000
0.147001 0.891856 0.000000
0.193154 0.891056 0.000000
0.238496 0.890265 0.000000
0.283142 0.889480 0.000000
0.327179 0.888701 0.000000
0.370676 0.887926 0.000000
0.413687 0.887154 0.000000
0.456257 0.886384 0.000000
0.498426 0.885617 0.000000
0.540226 0.884851 0.000000
0.581683 0.884087 0.000000
0.622822 0.883323 0.000000
0.663664 0.882560 0.000000
0.705980 0.881797 0.000000
0.757322 0.881035 0.000000
0.799463 0.880272 0.000000
0.834101 0.879508 0.000000
0.862611 0.878744 0.000000
0.886107 0.877980 0.000000
0.905494 0.877214 0.000000
0.921509 0.876448 0.000000
0.934753 0.875680 0.000000
0.945717 0.874911 0.000000
0.954802 0.874141 0.000000
0.962337 0.873369 0.000000
0.968593 0.872596 0.000000
0.973790 0.871821 0.000000
0.000000 0.912628 0.000000
0.000000 0.911850 0.000000
0.000000 0.911115 0.000000
0.047126 0.910405 0.000000
0.095435 0.909712 0.000000
0.142554 0.909030 0.000000
0.188707 0.908357 0.000000
0.234049 0.907692 0.000000
0.278695 0.907032 0.000000
0.322732 0.906376 0.000000
0.366228 0.905724 0.000000
0.409239 0.905074 0.000000
0.451810 0.904427 0.000000
0.493979 0.903782 0.000000
0.535778 0.903138 0.000000
0.577236 0.902495 0.000000
0.618375 0.901852 0.000000
0.659217 0.901210 0.000000
0.699781 0.900569 0.000000
