assets/luts/sunset.cube
# Beauty Camera 3D LUT
# Filter: Sunset (sunset)
# Category: Warm
TITLE "Sunset"
LUT_3D_SIZE 8
DOMAIN_MIN 0.000000 0.000000 0.000000
DOMAIN_MAX 0.903226 0.903226 0.903226
0.012019 0.000000 0.000000
0.217737 0.000000 0.000000
0.400997 0.000000 0.000000
0.574112 0.000000 0.000000
0.752828 0.000000 0.000000
0.885590 0.000000 0.000000
0.946083 0.000000 0.000000
0.974214 0.000000 0.000000
0.000000 0.113277 0.000000
0.199008 0.106382 0.000000
0.382268 0.100239 0.000000
0.555383 0.094437 0.000000
0.729771 0.088854 0.000000
0.874917 0.083432 0.000000
0.941053 0.078137 0.000000
0.971808 0.072945 0.000000
0.000000 0.262771 0.000000
0.180701 0.255876 0.000000
0.363961 0.249734 0.000000
0.537076 0.243931 0.000000
0.705157 0.238348 0.000000
0.863524 0.232926 0.000000
0.935684 0.227631 0.000000
0.969240 0.222439 0.000000
0.000000 0.410801 0.000000
0.162574 0.403906 0.000000
0.345834 0.397764 0.000000
0.518949 0.391961 0.000000
0.685513 0.386379 0.000000
0.851220 0.380957 0.000000
0.929885 0.375661 0.000000
0.966467 0.370469 0.000000
0.000000 0.557874 0.000000
0.144564 0.550979 0.000000
0.327823 0.544837 0.000000
0.500938 0.539034 0.000000
0.667503 0.533451 0.000000
0.837897 0.528030 0.000000
0.923606 0.522734 0.000000
0.963464 0.517542 0.000000
0.000000 0.705989 0.000000
0.126641 0.697339 0.000000
0.309900 0.691197 0.000000
0.483015 0.685394 0.000000
0.649580 0.679812 0.000000
0.823454 0.674390 0.000000
0.916800 0.669094 0.000000
0.960209 0.663903 0.000000
0.000000 0.853156 0.000000
0.108787 0.848255 0.000000
0.292047 0.843751 0.000000
0.465162 0.839373 0.000000
0.631727 0.835046 0.000000
0.807788 0.830732 0.000000
0.909417 0.826409 0.000000
0.956678 0.822064 0.000000
0.000000 0.926494 0.000000
0.090991 0.924041 0.000000
0.274251 0.921786 0.000000
0.447366 0.919595 0.000000
0.613931 0.917429 0.000000
0.790790 0.915269 0.000000
0.901407 0.913105 0.000000
0.952847 0.910930 0.000000
0.010607 0.000000 0.089484
0.216326 0.000000 0.082589
0.399586 0.000000 0.076446
0.572701 0.000000 0.070644
0.751161 0.000000 0.065061
0.884818 0.000000 0.059639
0.945719 0.000000 0.054344
0.974040 0.000000 0.049152
0.000000 0.111866 0.070755
0.197597 0.104970 0.063860
0.380857 0.098828 0.057717
0.553972 0.093026 0.051915
0.727949 0.087443 0.046332
0.874074 0.082021 0.040910
0.940656 0.076725 0.035615
0.971618 0.071534 0.030423
0.000000 0.261360 0.052448
0.179290 0.254465 0.045553
0.362550 0.248322 0.039411
0.535665 0.242520 0.033608
0.703168 0.236937 0.028025
0.862604 0.231515 0.022603
0.935250 0.226220 0.017308
0.969033 0.221028 0.012116
0.000000 0.409390 0.034321
0.161163 0.402495 0.027425
0.344422 0.396352 0.021283
0.517537 0.390550 0.015481
0.684102 0.384967 0.009898
0.850216 0.379545 0.004476
0.929412 0.374250 0.000000
0.966241 0.369058 0.000000
0.000000 0.556463 0.016310
0.143152 0.549568 0.009415
0.326412 0.543425 0.003273
0.499527 0.537623 0.000000
0.666092 0.532040 0.000000
0.836804 0.526618 0.000000
0.923091 0.521323 0.000000
0.963218 0.516131 0.000000
0.000000 0.704006 0.000000
0.125229 0.695928 0.000000
0.308489 0.689786 0.000000
0.481604 0.683983 0.000000
0.648169 0.678400 0.000000
0.822263 0.672979 0.000000
0.916239 0.667683 0.000000
0.959941 0.662491 0.000000
0.000000 0.852166 0.000000
0.107376 0.847232 0.000000
0.290636 0.842697 0.000000
0.463751 0.838290 0.000000
0.630315 0.833934 0.000000
0.806492 0.829590 0.000000
0.908807 0.825238 0.000000
0.956386 0.820864 0.000000
0.000000 0.925999 0.000000
0.089580 0.923528 0.000000
0.272840 0.921259 0.000000
0.445955 0.919053 0.000000
0.612520 0.916872 0.000000
0.789379 0.914698 0.000000
0.900742 0.912519 0.000000
0.952529 0.910330 0.000000
0.009065 0.000000 0.227940
0.214784 0.000000 0.221045
0.398044 0.000000 0.214902
0.571159 0.000000 0.209100
0.749328 0.000000 0.203517
0.883970 0.000000 0.198095
0.945319 0.000000 0.192800
0.973848 0.000000 0.187608
0.000000 0.110324 0.209211
0.196055 0.103429 0.202316
0.379315 0.097286 0.196173
0.552430 0.091484 0.190371
0.725944 0.085901 0.184788
0.873146 0.080479 0.179366
0.940218 0.075184 0.174071
0.971409 0.069992 0.168879
0.000000 0.259818 0.190904
0.177748 0.252923 0.184009
0.361008 0.246780 0.177867
0.534123 0.240978 0.172064
0.700981 0.235395 0.166481
0.861591 0.229973 0.161060
0.934773 0.224678 0.155764
0.968805 0.219486 0.150572
0.000000 0.407848 0.172777
0.159621 0.400953 0.165881
0.342881 0.394811 0.159739
0.515996 0.389008 0.153937
0.682560 0.383425 0.148354
0.849113 0.378004 0.142932
0.928892 0.372708 0.137637
0.965992 0.367516 0.132445
0.000000 0.554921 0.154766
0.141610 0.548026 0.147871
0.324870 0.541884 0.141729
0.497985 0.536081 0.135926
0.664550 0.530498 0.130344
0.835601 0.525076 0.124922
0.922525 0.519781 0.119626
0.962947 0.514589 0.114434
0.000000 0.701825 0.136843
0.123687 0.694386 0.129948
0.306947 0.688244 0.123806
0.480062 0.682441 0.118003
0.646627 0.676859 0.112421
0.820954 0.671437 0.106999
0.915622 0.666141 0.101703
0.959646 0.660949 0.096511
0.000000 0.851077 0.118990
0.105834 0.846106 0.112095
0.289094 0.841538 0.105952
0.462209 0.837099 0.100150
0.628773 0.832710 0.094567
0.805066 0.828334 0.089145
0.908134 0.823951 0.083850
0.956065 0.819544 0.078658
0.000000 0.925453 0.101194
0.088038 0.922965 0.094299
0.271298 0.920678 0.088157
0.444413 0.918456 0.082354
0.610978 0.916259 0.076771
0.787827 0.914069 0.071349
0.900010 0.911875 0.066054
0.952179 0.909669 0.060862
0.007458 0.000000 0.372306
0.213176 0.000000 0.365411
0.396436 0.000000 0.359268
0.569551 0.000000 0.353466
0.747401 0.000000 0.347883
0.883078 0.000000 0.342461
0.944899 0.000000 0.337166
0.973647 0.000000 0.331974
0.000000 0.108716 0.353577
0.194447 0.101821 0.346682
0.377707 0.095678 0.340540
0.550822 0.089876 0.334737
0.723838 0.084293 0.329154
0.872171 0.078871 0.323732
0.939759 0.073576 0.318437
0.971189 0.068384 0.313245
0.000000 0.258210 0.335270
0.176141 0.251315 0.328375
0.359400 0.245173 0.322233
0.532515 0.239370 0.316430
0.699080 0.233787 0.310848
0.860527 0.228366 0.305426
0.934272 0.223070 0.300130
0.968565 0.217878 0.294938
0.000000 0.406240 0.317143
0.158013 0.399345 0.310248
0.341273 0.393203 0.304105
0.514388 0.387401 0.298303
0.680953 0.381818 0.292720
0.847953 0.376396 0.287298
0.928346 0.371100 0.282003
0.965731 0.365909 0.276811
0.000000 0.553313 0.299132
0.140003 0.546418 0.292237
0.323263 0.540276 0.286095
0.496378 0.534473 0.280293
0.662942 0.528891 0.274710
0.834337 0.523469 0.269288
0.921929 0.518173 0.263992
0.962662 0.512982 0.258801
0.000000 0.699674 0.281209
0.122080 0.692778 0.274314
0.305340 0.686636 0.268172
0.478455 0.680834 0.262369
0.645019 0.675251 0.256787
0.819578 0.669829 0.251365
0.914973 0.664534 0.246069
0.959335 0.659342 0.240878
0.000000 0.849932 0.263356
0.104226 0.844923 0.256461
0.287486 0.840320 0.250318
0.460601 0.835847 0.244516
0.627166 0.831424 0.238933
0.803568 0.827015 0.233511
0.907428 0.822598 0.228216
0.955727 0.818157 0.223024
0.000000 0.924880 0.245560
0.086430 0.922373 0.238665
0.269690 0.920069 0.232523
0.442805 0.917829 0.226720
0.609370 0.915616 0.221137
0.786196 0.913409 0.215716
0.899242 0.911197 0.210420
0.951812 0.908974 0.205228
0.005804 0.000000 0.520770
0.211523 0.000000 0.513875
0.394783 0.000000 0.507733
0.567898 0.000000 0.501930
0.745405 0.000000 0.496347
0.882154 0.000000 0.490926
0.944463 0.000000 0.485630
0.973439 0.000000 0.480438
0.000000 0.107063 0.502041
0.192794 0.100167 0.495146
0.376054 0.094025 0.489004
0.549169 0.088223 0.483201
0.721655 0.082640 0.477619
0.871161 0.077218 0.472197
0.939283 0.071923 0.466901
0.970961 0.066731 0.461710
0.000000 0.256557 0.483735
0.174487 0.249662 0.476839
0.357747 0.243519 0.470697
0.530862 0.237717 0.464895
0.697427 0.232134 0.459312
0.859425 0.226712 0.453890
0.933752 0.221417 0.448594
0.968316 0.216225 0.443403
0.000000 0.404587 0.465607
0.156360 0.397692 0.458712
0.339619 0.391550 0.452569
0.512735 0.385747 0.446767
0.679299 0.380164 0.441184
0.846751 0.374743 0.435762
0.927779 0.369447 0.430467
0.965460 0.364255 0.425275
0.000000 0.551660 0.447597
0.138349 0.544765 0.440702
0.321609 0.538623 0.434559
0.494724 0.532820 0.428757
0.661289 0.527237 0.423174
0.833028 0.521815 0.417752
0.921312 0.516520 0.412457
0.962367 0.511328 0.407265
0.000000 0.698020 0.429674
0.120426 0.691125 0.422779
0.303686 0.684983 0.416636
0.476801 0.679180 0.410834
0.643366 0.673598 0.405251
0.818152 0.668176 0.399829
0.914301 0.662880 0.394534
0.959014 0.657688 0.389342
0.000000 0.848746 0.411820
0.102573 0.843697 0.404925
0.285833 0.839058 0.398783
0.458948 0.834549 0.392980
0.625512 0.830092 0.387397
0.802015 0.825648 0.381976
0.906697 0.821195 0.376680
0.955377 0.816720 0.371488
0.000000 0.924287 0.394025
0.084777 0.921759 0.387129
0.268037 0.919437 0.380987
0.441152 0.917180 0.375185
0.607717 0.914949 0.369602
0.784506 0.912724 0.364180
0.898445 0.910495 0.358884
0.951431 0.908255 0.353693
0.004116 0.000000 0.672402
0.209834 0.000000 0.665507
0.393094 0.000000 0.659364
0.566209 0.000000 0.653562
0.743349 0.000000 0.647979
0.881202 0.000000 0.642557
0.944015 0.000000 0.637262
0.973225 0.000000 0.632070
0.000000 0.105374 0.653673
0.191105 0.098479 0.646778
0.374365 0.092336 0.640635
0.547480 0.086534 0.634833
0.719408 0.080951 0.629250
0.870121 0.075529 0.623828
0.938792 0.070234 0.618533
0.970727 0.065042 0.613341
0.000000 0.254868 0.635366
0.172799 0.247973 0.628471
0.356058 0.241831 0.622329
0.529174 0.236028 0.616526
0.695738 0.230446 0.610943
0.858290 0.225024 0.605522
0.933217 0.219728 0.600226
0.968061 0.214536 0.595034
0.000000 0.402899 0.617239
0.154671 0.396003 0.610344
0.337931 0.389861 0.604201
0.511046 0.384059 0.598399
0.677611 0.378476 0.592816
0.845514 0.373054 0.587394
0.927196 0.367758 0.582099
0.965181 0.362567 0.576907
0.000000 0.549971 0.599228
0.136661 0.543076 0.592333
0.319921 0.536934 0.586191
0.493036 0.531132 0.580388
0.659600 0.525549 0.574806
0.831680 0.520127 0.569384
0.920677 0.514831 0.564088
0.962063 0.509640 0.558897
0.000000 0.696332 0.581305
0.118738 0.689437 0.574410
0.301998 0.683294 0.568268
0.475113 0.677492 0.562465
0.641677 0.671909 0.556883
0.816683 0.666487 0.551461
0.913609 0.661192 0.546165
0.958683 0.656000 0.540973
0.000000 0.847525 0.563452
0.100884 0.842435 0.556557
0.284144 0.837759 0.550414
0.457259 0.833213 0.544612
0.623824 0.828720 0.539029
0.800417 0.824240 0.533607
0.905944 0.819752 0.528312
0.955017 0.815240 0.523120
0.000000 0.923675 0.545656
0.083089 0.921128 0.538761
0.266348 0.918787 0.532619
0.439463 0.916511 0.526816
0.606028 0.914262 0.521233
0.782767 0.912020 0.515811
0.897626 0.909773 0.510516
0.951039 0.907514 0.505324
0.002398 0.000000 0.835847
0.208117 0.000000 0.830368
0.391377 0.000000 0.825333
0.564492 0.000000 0.820440
0.741241 0.000000 0.815602
0.880227 0.000000 0.810779
0.943555 0.000000 0.805947
0.973005 0.000000 0.801090
0.000000 0.103657 0.820535
0.189388 0.096761 0.814544
0.372648 0.090619 0.809040
0.545763 0.084817 0.803690
0.717104 0.079234 0.798401
0.869054 0.073812 0.793128
0.938290 0.068516 0.787846
0.970487 0.063325 0.782535
0.000000 0.253151 0.804188
0.171081 0.246256 0.797652
0.354341 0.240113 0.791646
0.527456 0.234311 0.785809
0.694021 0.228728 0.780038
0.857126 0.223306 0.774285
0.932669 0.218011 0.768521
0.967798 0.212819 0.762727
0.000000 0.401181 0.786534
0.152954 0.394286 0.779409
0.336213 0.388143 0.772861
0.509329 0.382341 0.766498
0.675893 0.376758 0.760207
0.844245 0.371336 0.753935
0.926598 0.366041 0.747651
0.964895 0.360849 0.741335
0.000000 0.548254 0.767418
0.134943 0.541359 0.759655
0.318203 0.535216 0.752521
0.491318 0.529414 0.745588
0.657883 0.523831 0.738734
0.830298 0.518409 0.731900
0.920025 0.513114 0.725054
0.961752 0.507922 0.718172
0.000000 0.694614 0.746696
0.117020 0.687719 0.738241
0.300280 0.681577 0.730472
0.473395 0.675774 0.722921
0.639960 0.670191 0.715456
0.815178 0.664770 0.708014
0.912900 0.659474 0.700557
0.958344 0.654282 0.695199
0.000000 0.846273 0.724219
0.099167 0.841142 0.715014
0.282427 0.836426 0.706555
0.455542 0.831844 0.698837
0.622106 0.827313 0.693254
0.798778 0.822797 0.687832
0.905171 0.818272 0.682537
0.954647 0.813723 0.677345
0.000000 0.923048 0.699881
0.081371 0.920480 0.692986
0.264631 0.918120 0.686844
0.437746 0.915826 0.681041
0.604311 0.913558 0.675459
0.780983 0.911297 0.670037
0.896785 0.909032 0.664741
0.950637 0.906755 0.659550
0.000656 0.000000 0.922063
0.206375 0.000000 0.919461
0.389635 0.000000 0.917071
0.562750 0.000000 0.914748
0.739086 0.000000 0.912451
0.879229 0.000000 0.910161
0.943085 0.000000 0.907867
0.972780 0.000000 0.905561
0.000000 0.101915 0.914793
0.187646 0.095019 0.911949
0.370906 0.088877 0.909335
0.544021 0.083075 0.906795
0.714747 0.077492 0.904284
0.867963 0.072070 0.901781
0.937776 0.066774 0.899272
0.970241 0.061583 0.896751
0.000000 0.251409 0.907031
0.169339 0.244514 0.903928
0.352599 0.238371 0.901077
0.525714 0.232569 0.898305
0.692279 0.226986 0.895565
0.855936 0.221564 0.892834
0.932108 0.216269 0.890097
0.967530 0.211077 0.887346
0.000000 0.399439 0.898650
0.151212 0.392544 0.895267
0.334471 0.386401 0.892158
0.507586 0.380599 0.889137
0.674151 0.375016 0.886150
0.842948 0.369594 0.883172
0.925987 0.364299 0.880189
0.964603 0.359107 0.877190
0.000000 0.546512 0.889574
0.133201 0.539617 0.885888
0.316461 0.533474 0.882501
0.489576 0.527672 0.879209
0.656141 0.522089 0.875955
0.828884 0.516667 0.872711
0.919359 0.511372 0.869460
0.961433 0.506180 0.866192
0.000000 0.692872 0.879735
0.115278 0.685977 0.875721
0.298538 0.679835 0.872032
0.471653 0.674032 0.868447
0.638218 0.668449 0.864903
0.813639 0.663028 0.861370
0.912174 0.657732 0.857829
0.957997 0.652540 0.854271
0.000000 0.844992 0.869064
0.097425 0.839818 0.864693
0.280685 0.835064 0.860677
0.453800 0.830443 0.856774
0.620364 0.825875 0.852915
0.797102 0.821321 0.849068
0.904381 0.816758 0.845214
0.954270 0.812171 0.841339
0.000000 0.922407 0.857484
0.079629 0.919818 0.852727
0.262889 0.917438 0.848356
0.436004 0.915125 0.844108
0.602569 0.912838 0.839908
0.779158 0.910558 0.835720
0.895925 0.908274 0.831525
0.950225 0.905978 0.827308
