assets/luts/sunset.cube
# Beauty Camera 3D LUT
# Filter: Sunset (sunset)
# Category: Warm
TITLE "Sunset"
LUT_3D_SIZE 5
DOMAIN_MIN 0.000000 0.000000 0.000000
DOMAIN_MAX 0.903226 0.903226 0.903226
0.012019 0.000000 0.000000
0.356351 0.000000 0.000000
0.658080 0.000000 0.000000
0.905352 0.000000 0.000000
0.974214 0.000000 0.000000
0.000000 0.225566 0.000000
0.323871 0.214025 0.000000
0.625601 0.203911 0.000000
0.889520 0.194386 0.000000
0.969900 0.185234 0.000000
0.000000 0.484439 0.000000
0.292170 0.472898 0.000000
0.593899 0.462784 0.000000
0.871518 0.453260 0.000000
0.964996 0.444107 0.000000
0.000000 0.752893 0.000000
0.260785 0.738932 0.000000
0.562514 0.726052 0.000000
0.850806 0.713340 0.000000
0.959353 0.700570 0.000000
0.000000 0.926494 0.000000
0.229605 0.922341 0.000000
0.531334 0.918510 0.000000
0.826926 0.914729 0.000000
0.952847 0.910930 0.000000
0.009458 0.000000 0.192665
0.353790 0.000000 0.181124
0.655520 0.000000 0.171010
0.904191 0.000000 0.161485
0.973897 0.000000 0.152333
0.000000 0.223005 0.160185
0.321311 0.211464 0.148644
0.623040 0.201351 0.138531
0.888165 0.191826 0.129006
0.969531 0.182674 0.119853
0.000000 0.481879 0.128484
0.289610 0.470337 0.116943
0.591339 0.460224 0.106830
0.869942 0.450699 0.097305
0.964566 0.441547 0.088152
0.000000 0.749861 0.097099
0.258225 0.735730 0.085558
0.559954 0.722691 0.075445
0.848976 0.709824 0.065920
0.958854 0.697839 0.056767
0.000000 0.925592 0.065919
0.227045 0.921389 0.054378
0.528774 0.917510 0.044265
0.824803 0.913683 0.034740
0.952269 0.909838 0.025587
0.006636 0.000000 0.446096
0.350968 0.000000 0.434554
0.652698 0.000000 0.424441
0.902894 0.000000 0.414916
0.973544 0.000000 0.405764
0.000000 0.220183 0.413616
0.318489 0.208642 0.402075
0.620218 0.198529 0.391962
0.886652 0.189004 0.382437
0.969119 0.179851 0.373284
0.000000 0.479056 0.381915
0.286787 0.467515 0.370374
0.588517 0.457402 0.360261
0.868182 0.447877 0.350736
0.964087 0.438724 0.341583
0.000000 0.746477 0.350530
0.255402 0.732154 0.338989
0.557132 0.718939 0.328875
0.846933 0.705898 0.319350
0.958298 0.695017 0.310198
0.000000 0.924586 0.319350
0.224222 0.920325 0.307809
0.525952 0.916394 0.297696
0.822432 0.912515 0.288171
0.951623 0.908618 0.279018
0.003689 0.000000 0.714947
0.348021 0.000000 0.699191
0.649750 0.000000 0.689078
0.901522 0.000000 0.679553
0.973170 0.000000 0.670401
0.000000 0.217236 0.678253
0.315542 0.205695 0.666712
0.617271 0.195582 0.656599
0.885050 0.186057 0.647074
0.968683 0.176904 0.637921
0.000000 0.476109 0.646552
0.283840 0.464568 0.635011
0.585570 0.454455 0.624898
0.866319 0.444930 0.615373
0.963579 0.435777 0.606220
0.000000 0.742894 0.615167
0.252455 0.728369 0.603626
0.554185 0.714967 0.593512
0.844770 0.701741 0.583987
0.957708 0.692070 0.574835
0.000000 0.923520 0.583987
0.221275 0.919199 0.572446
0.523005 0.915213 0.562333
0.819923 0.911278 0.552808
0.950939 0.907326 0.543655
0.000656 0.000000 0.922063
0.344988 0.000000 0.917660
0.646718 0.000000 0.913597
0.900089 0.000000 0.909588
0.972780 0.000000 0.905561
0.000000 0.214203 0.909027
0.312509 0.202662 0.903887
0.614238 0.192549 0.899145
0.883378 0.183024 0.894465
0.968227 0.173872 0.889764
0.000000 0.473077 0.894203
0.280808 0.461535 0.888226
0.582537 0.451422 0.882711
0.864374 0.441897 0.877269
0.963050 0.432745 0.871801
0.000000 0.739154 0.877148
0.249423 0.724417 0.870208
0.551152 0.710821 0.863804
0.842512 0.698190 0.857485
0.957093 0.689037 0.851136
0.000000 0.922407 0.857484
0.218243 0.918024 0.849433
0.519972 0.913979 0.842004
0.817304 0.909988 0.834673
0.950225 0.905978 0.827308
