assets/luts/vintage.cube
# Beauty Camera 3D LUT
# Filter: Vintage (vintage)
# Category: Film
TITLE "Vintage"
LUT_3D_SIZE 32
DOMAIN_MIN 0.0 0.0 0.0
DOMAIN_MAX 1.0 1.0 1.0
0.086272 0.063911 0.035006
0.120070 0.064057 0.035152
0.152906 0.064199 0.035294
0.185070 0.064338 0.035433
0.216719 0.064475 0.035570
0.247953 0.064610 0.035705
0.278838 0.064743 0.035838
0.309424 0.064875 0.035970
0.339749 0.065006 0.036101
0.369840 0.065136 0.036231
0.399722 0.065265 0.036360
0.429414 0.065393 0.036488
0.458933 0.065521 0.036616
0.488291 0.065648 0.036743
0.517501 0.065774 0.036869
0.546573 0.065900 0.036995
0.575515 0.066025 0.037120
0.604336 0.066149 0.037244
0.633043 0.066273 0.037368
0.661641 0.066397 0.037492
0.690137 0.066520 0.037615
0.718536 0.066642 0.037737
0.746841 0.066765 0.037860
0.775058 0.066887 0.037982
0.803191 0.067008 0.038103
0.831242 0.067129 0.038224
0.859215 0.067250 0.038345
0.887113 0.067371 0.038466
0.914939 0.067491 0.038586
0.942696 0.067611 0.038706
0.970385 0.067730 0.038825
0.998010 0.067850 0.038945
0.086691 0.093056 0.035425
0.120489 0.093202 0.035571
0.153325 0.093344 0.035713
0.185489 0.093483 0.035852
0.217139 0.093620 0.035989
0.248372 0.093754 0.036124
0.279258 0.093888 0.036257
0.309844 0.094020 0.036389
0.340168 0.094151 0.036520
0.370259 0.094281 0.036650
0.400141 0.094410 0.036779
0.429834 0.094538 0.036908
0.459352 0.094666 0.037035
0.488710 0.094793 0.037162
0.517920 0.094919 0.037288
0.546992 0.095045 0.037414
0.575934 0.095170 0.037539
0.604755 0.095294 0.037663
0.633462 0.095418 0.037787
0.662060 0.095542 0.037911
0.690556 0.095665 0.038034
0.718955 0.095787 0.038157
0.747261 0.095910 0.038279
0.775478 0.096032 0.038401
0.803610 0.096153 0.038522
0.831661 0.096274 0.038644
0.859634 0.096395 0.038764
0.887532 0.096516 0.038885
0.915358 0.096636 0.039005
0.943115 0.096756 0.039125
0.970805 0.096875 0.039245
0.998430 0.096995 0.039364
0.087107 0.121944 0.035841
0.120905 0.122090 0.035987
0.153741 0.122232 0.036129
0.185905 0.122371 0.036268
0.217554 0.122508 0.036404
0.248788 0.122643 0.036539
0.279673 0.122776 0.036673
0.310259 0.122908 0.036805
0.340583 0.123039 0.036936
0.370675 0.123169 0.037066
0.400557 0.123298 0.037195
0.430249 0.123426 0.037323
0.459768 0.123554 0.037451
0.489126 0.123681 0.037578
0.518336 0.123807 0.037704
0.547407 0.123933 0.037829
0.576350 0.124058 0.037954
0.605171 0.124182 0.038079
0.633878 0.124306 0.038203
0.662476 0.124430 0.038327
0.690972 0.124553 0.038450
0.719370 0.124675 0.038572
0.747676 0.124798 0.038695
0.775893 0.124920 0.038816
0.804025 0.125041 0.038938
0.832077 0.125162 0.039059
0.860050 0.125283 0.039180
0.887948 0.125404 0.039301
0.915774 0.125524 0.039421
0.943531 0.125644 0.039541
0.971220 0.125763 0.039660
0.998845 0.125883 0.039780
0.087520 0.150658 0.036254
0.121318 0.150804 0.036400
0.154154 0.150946 0.036542
0.186318 0.151085 0.036681
0.217967 0.151221 0.036818
0.249201 0.151356 0.036952
0.280086 0.151490 0.037086
0.310672 0.151622 0.037218
0.340997 0.151753 0.037349
0.371088 0.151883 0.037479
0.400970 0.152012 0.037608
0.430662 0.152140 0.037736
0.460181 0.152268 0.037864
0.489539 0.152394 0.037991
0.518749 0.152521 0.038117
0.547821 0.152646 0.038242
0.576763 0.152771 0.038368
0.605584 0.152896 0.038492
0.634291 0.153020 0.038616
0.662889 0.153143 0.038740
0.691385 0.153266 0.038863
0.719784 0.153389 0.038985
0.748089 0.153511 0.039108
0.776306 0.153633 0.039230
0.804439 0.153755 0.039351
0.832490 0.153876 0.039472
0.860463 0.153997 0.039593
0.888361 0.154117 0.039714
0.916187 0.154238 0.039834
0.943944 0.154358 0.039954
0.971633 0.154477 0.040073
0.999258 0.154596 0.040193
0.087931 0.179239 0.036665
0.121729 0.179385 0.036811
0.154565 0.179527 0.036953
0.186729 0.179666 0.037092
0.218378 0.179803 0.037229
0.249612 0.179938 0.037364
0.280497 0.180071 0.037497
0.311084 0.180203 0.037629
0.341408 0.180334 0.037760
0.371499 0.180464 0.037890
0.401381 0.180593 0.038019
0.431073 0.180722 0.038148
0.460592 0.180849 0.038275
0.489950 0.180976 0.038402
0.519160 0.181102 0.038528
0.548232 0.181228 0.038654
0.577174 0.181353 0.038779
0.605995 0.181477 0.038903
0.634702 0.181601 0.039027
0.663300 0.181725 0.039151
0.691796 0.181848 0.039274
0.720195 0.181971 0.039397
0.748500 0.182093 0.039519
0.776717 0.182215 0.039641
0.804850 0.182336 0.039762
0.832901 0.182458 0.039883
0.860874 0.182578 0.040004
0.888772 0.182699 0.040125
0.916598 0.182819 0.040245
0.944355 0.182939 0.040365
0.972045 0.183059 0.040485
0.999669 0.183178 0.040604
0.088340 0.207715 0.037075
0.122139 0.207861 0.037221
0.154975 0.208002 0.037363
0.187139 0.208141 0.037502
0.218788 0.208278 0.037638
0.250022 0.208413 0.037773
0.280907 0.208546 0.037907
0.311493 0.208679 0.038039
0.341817 0.208810 0.038170
0.371909 0.208940 0.038300
0.401791 0.209069 0.038429
0.431483 0.209197 0.038557
0.461001 0.209324 0.038685
0.490360 0.209451 0.038812
0.519570 0.209577 0.038938
0.548641 0.209703 0.039063
0.577584 0.209828 0.039188
0.606405 0.209953 0.039313
0.635111 0.210077 0.039437
0.663710 0.210200 0.039560
0.692206 0.210323 0.039684
0.720604 0.210446 0.039806
0.748910 0.210568 0.039928
0.777127 0.210690 0.040050
0.805259 0.210812 0.040172
0.833310 0.210933 0.040293
0.861284 0.211054 0.040414
0.889182 0.211174 0.040534
0.917008 0.211294 0.040655
0.944765 0.211414 0.040775
0.972454 0.211534 0.040894
1.000000 0.211653 0.041014
0.088749 0.236101 0.037483
0.122547 0.236247 0.037629
0.155383 0.236389 0.037771
0.187547 0.236528 0.037910
0.219196 0.236664 0.038047
0.250430 0.236799 0.038182
0.281315 0.236933 0.038315
0.311902 0.237065 0.038447
0.342226 0.237196 0.038578
0.372317 0.237326 0.038708
0.402199 0.237455 0.038837
0.431891 0.237583 0.038966
0.461410 0.237711 0.039093
0.490768 0.237838 0.039220
0.519978 0.237964 0.039346
0.549050 0.238089 0.039472
0.577992 0.238214 0.039597
0.606813 0.238339 0.039721
0.635520 0.238463 0.039845
0.664118 0.238586 0.039969
0.692614 0.238710 0.040092
0.721013 0.238832 0.040215
0.749318 0.238954 0.040337
0.777535 0.239076 0.040459
0.805668 0.239198 0.040580
0.833719 0.239319 0.040701
0.861692 0.239440 0.040822
0.889590 0.239560 0.040943
0.917416 0.239681 0.041063
0.945173 0.239801 0.041183
0.972863 0.239920 0.041303
1.000000 0.240040 0.041422
0.089156 0.264411 0.037890
0.122955 0.264557 0.038036
0.155790 0.264698 0.038178
0.187954 0.264837 0.038317
0.219604 0.264974 0.038454
0.250837 0.265109 0.038589
0.281723 0.265242 0.038722
0.312309 0.265375 0.038854
0.342633 0.265506 0.038985
0.372724 0.265636 0.039115
0.402606 0.265765 0.039245
0.432299 0.265893 0.039373
0.461817 0.266020 0.039500
0.491175 0.266147 0.039627
0.520385 0.266274 0.039753
0.549457 0.266399 0.039879
0.578399 0.266524 0.040004
0.607220 0.266649 0.040128
0.635927 0.266773 0.040252
0.664526 0.266896 0.040376
0.693022 0.267019 0.040499
0.721420 0.267142 0.040622
0.749726 0.267264 0.040744
0.777943 0.267386 0.040866
0.806075 0.267508 0.040988
0.834126 0.267629 0.041109
0.862099 0.267750 0.041230
0.889997 0.267870 0.041350
0.917824 0.267990 0.041470
0.945580 0.268110 0.041590
0.973270 0.268230 0.041710
1.000000 0.268349 0.041829
0.089562 0.292653 0.038297
0.123361 0.292799 0.038443
0.156197 0.292941 0.038585
0.188361 0.293080 0.038724
0.220010 0.293217 0.038860
0.251244 0.293352 0.038995
0.282129 0.293485 0.039129
0.312715 0.293617 0.039261
0.343039 0.293748 0.039392
0.373131 0.293878 0.039522
0.403013 0.294007 0.039651
0.432705 0.294136 0.039779
0.462223 0.294263 0.039907
0.491582 0.294390 0.040033
0.520792 0.294516 0.040160
0.549863 0.294642 0.040285
0.578806 0.294767 0.040410
0.607627 0.294891 0.040535
0.636333 0.295015 0.040659
0.664932 0.295139 0.040782
0.693428 0.295262 0.040905
0.721826 0.295385 0.041028
0.750132 0.295507 0.041150
0.778349 0.295629 0.041272
0.806481 0.295750 0.041394
0.834532 0.295872 0.041515
0.862505 0.295992 0.041636
0.890404 0.296113 0.041756
0.918230 0.296233 0.041877
0.945987 0.296353 0.041996
0.973676 0.296473 0.042116
1.000000 0.296592 0.042235
0.089968 0.320836 0.038702
0.123766 0.320982 0.038848
0.156602 0.321124 0.038990
0.188766 0.321263 0.039129
0.220415 0.321400 0.039266
0.251649 0.321535 0.039401
0.282534 0.321668 0.039534
0.313121 0.321800 0.039666
0.343445 0.321931 0.039797
0.373536 0.322061 0.039927
0.403418 0.322191 0.040056
0.433110 0.322319 0.040185
0.462629 0.322446 0.040312
0.491987 0.322573 0.040439
0.521197 0.322699 0.040565
0.550269 0.322825 0.040691
0.579211 0.322950 0.040816
0.608032 0.323074 0.040940
0.636739 0.323198 0.041064
0.665337 0.323322 0.041188
0.693833 0.323445 0.041311
0.722232 0.323568 0.041434
0.750537 0.323690 0.041556
0.778754 0.323812 0.041678
0.806887 0.323934 0.041799
0.834938 0.324055 0.041920
0.862911 0.324176 0.042041
0.890809 0.324296 0.042162
0.918635 0.324416 0.042282
0.946392 0.324536 0.042402
0.974082 0.324656 0.042522
1.000000 0.324775 0.042641
0.090373 0.348966 0.039107
0.124171 0.349112 0.039253
0.157007 0.349254 0.039395
0.189171 0.349393 0.039534
0.220820 0.349529 0.039670
0.252054 0.349664 0.039805
0.282939 0.349798 0.039939
0.313525 0.349930 0.040071
0.343849 0.350061 0.040202
0.373941 0.350191 0.040332
0.403823 0.350320 0.040461
0.433515 0.350448 0.040589
0.463033 0.350576 0.040717
0.492392 0.350703 0.040844
0.521602 0.350829 0.040970
0.550673 0.350954 0.041095
0.579616 0.351079 0.041220
0.608437 0.351204 0.041345
0.637144 0.351328 0.041469
0.665742 0.351451 0.041592
0.694238 0.351574 0.041716
0.722636 0.351697 0.041838
0.750942 0.351819 0.041960
0.779159 0.351941 0.042082
0.807291 0.352063 0.042204
0.835342 0.352184 0.042325
0.863316 0.352305 0.042446
0.891214 0.352425 0.042566
0.919040 0.352546 0.042687
0.946797 0.352666 0.042807
0.974486 0.352785 0.042926
1.000000 0.352905 0.043046
0.090776 0.377046 0.039511
0.124575 0.377192 0.039657
0.157411 0.377334 0.039799
0.189575 0.377473 0.039938
0.221224 0.377610 0.040074
0.252458 0.377745 0.040209
0.283343 0.377878 0.040343
0.313929 0.378010 0.040475
0.344253 0.378141 0.040606
0.374345 0.378271 0.040736
0.404227 0.378400 0.040865
0.433919 0.378529 0.040993
0.463437 0.378656 0.041121
0.492796 0.378783 0.041248
0.522006 0.378909 0.041374
0.551077 0.379035 0.041499
0.580020 0.379160 0.041624
0.608841 0.379284 0.041749
0.637547 0.379408 0.041873
0.666146 0.379532 0.041996
0.694642 0.379655 0.042119
0.723040 0.379778 0.042242
0.751346 0.379900 0.042364
0.779563 0.380022 0.042486
0.807695 0.380143 0.042608
0.835746 0.380265 0.042729
0.863720 0.380385 0.042850
0.891618 0.380506 0.042970
0.919444 0.380626 0.043091
0.947201 0.380746 0.043211
0.974890 0.380866 0.043330
1.000000 0.380985 0.043450
0.091180 0.405082 0.039914
0.124978 0.405228 0.040060
0.157814 0.405370 0.040202
0.189978 0.405509 0.040341
0.221627 0.405645 0.040478
0.252861 0.405780 0.040613
0.283746 0.405914 0.040746
0.314333 0.406046 0.040878
0.344657 0.406177 0.041009
0.374748 0.406307 0.041139
0.404630 0.406436 0.041268
0.434322 0.406564 0.041396
0.463841 0.406692 0.041524
0.493199 0.406819 0.041651
0.522409 0.406945 0.041777
0.551481 0.407070 0.041903
0.580423 0.407195 0.042028
0.609244 0.407320 0.042152
0.637951 0.407444 0.042276
0.666549 0.407568 0.042400
0.695045 0.407691 0.042523
0.723444 0.407813 0.042646
0.751749 0.407936 0.042768
0.779966 0.408058 0.042890
0.808099 0.408179 0.043011
0.836150 0.408300 0.043132
0.864123 0.408421 0.043253
0.892021 0.408542 0.043374
0.919847 0.408662 0.043494
0.947604 0.408782 0.043614
0.975294 0.408901 0.043733
1.000000 0.409021 0.043853
0.091583 0.433076 0.040317
0.125381 0.433222 0.040463
0.158217 0.433364 0.040605
0.190381 0.433503 0.040744
0.222030 0.433640 0.040880
0.253264 0.433775 0.041015
0.284149 0.433908 0.041149
0.314735 0.434040 0.041281
0.345059 0.434171 0.041412
0.375151 0.434301 0.041542
0.405033 0.434430 0.041671
0.434725 0.434559 0.041799
0.464243 0.434686 0.041927
0.493602 0.434813 0.042054
0.522812 0.434939 0.042180
0.551883 0.435065 0.042305
0.580826 0.435190 0.042430
0.609647 0.435314 0.042555
0.638354 0.435438 0.042679
0.666952 0.435562 0.042802
0.695448 0.435685 0.042926
0.723846 0.435808 0.043048
0.752152 0.435930 0.043171
0.780369 0.436052 0.043292
0.808501 0.436173 0.043414
0.836552 0.436295 0.043535
0.864526 0.436415 0.043656
0.892424 0.436536 0.043776
0.920250 0.436656 0.043897
0.948007 0.436776 0.044017
0.975696 0.436896 0.044136
1.000000 0.437015 0.044256
0.091985 0.461032 0.040719
0.125783 0.461178 0.040865
0.158619 0.461320 0.041007
0.190783 0.461459 0.041146
0.222432 0.461596 0.041283
0.253666 0.461731 0.041417
0.284551 0.461864 0.041551
0.315137 0.461996 0.041683
0.345462 0.462127 0.041814
0.375553 0.462257 0.041944
0.405435 0.462386 0.042073
0.435127 0.462515 0.042201
0.464646 0.462642 0.042329
0.494004 0.462769 0.042456
0.523214 0.462895 0.042582
0.552286 0.463021 0.042708
0.581228 0.463146 0.042833
0.610049 0.463270 0.042957
0.638756 0.463394 0.043081
0.667354 0.463518 0.043205
0.695850 0.463641 0.043328
0.724249 0.463764 0.043450
0.752554 0.463886 0.043573
0.780771 0.464008 0.043695
0.808904 0.464129 0.043816
0.836955 0.464250 0.043937
0.864928 0.464371 0.044058
0.892826 0.464492 0.044179
0.920652 0.464612 0.044299
0.948409 0.464732 0.044419
0.976098 0.464852 0.044538
1.000000 0.464971 0.044658
0.092386 0.488952 0.041121
0.126185 0.489098 0.041267
0.159021 0.489240 0.041409
0.191185 0.489379 0.041547
0.222834 0.489516 0.041684
0.254068 0.489651 0.041819
0.284953 0.489784 0.041953
0.315539 0.489916 0.042085
0.345863 0.490047 0.042216
0.375955 0.490177 0.042346
0.405837 0.490306 0.042475
0.435529 0.490435 0.042603
0.465047 0.490562 0.042731
0.494406 0.490689 0.042857
0.523616 0.490815 0.042984
0.552687 0.490941 0.043109
0.581630 0.491066 0.043234
0.610451 0.491190 0.043359
0.639157 0.491314 0.043483
0.667756 0.491438 0.043606
0.696252 0.491561 0.043729
0.724650 0.491684 0.043852
0.752956 0.491806 0.043974
0.781173 0.491928 0.044096
0.809305 0.492049 0.044218
0.837356 0.492171 0.044339
0.865329 0.492291 0.044460
0.893228 0.492412 0.044580
0.921054 0.492532 0.044701
0.948810 0.492652 0.044820
0.976500 0.492772 0.044940
1.000000 0.492891 0.045059
0.092788 0.516839 0.041522
0.126586 0.516985 0.041668
0.159422 0.517127 0.041810
0.191586 0.517265 0.041949
0.223235 0.517402 0.042085
0.254469 0.517537 0.042220
0.285354 0.517671 0.042354
0.315940 0.517803 0.042486
0.346264 0.517934 0.042617
0.376356 0.518064 0.042747
0.406238 0.518193 0.042876
0.435930 0.518321 0.043004
0.465448 0.518449 0.043132
0.494807 0.518575 0.043259
0.524017 0.518702 0.043385
0.553088 0.518827 0.043510
0.582031 0.518952 0.043635
0.610852 0.519077 0.043760
0.639559 0.519201 0.043884
0.668157 0.519324 0.044007
0.696653 0.519447 0.044131
0.725051 0.519570 0.044253
0.753357 0.519692 0.044376
0.781574 0.519814 0.044497
0.809706 0.519936 0.044619
0.837757 0.520057 0.044740
0.865731 0.520178 0.044861
0.893629 0.520298 0.044981
0.921455 0.520419 0.045102
0.949212 0.520538 0.045222
0.976901 0.520658 0.045341
1.000000 0.520777 0.045461
0.093188 0.544694 0.041923
0.126987 0.544840 0.042069
0.159822 0.544981 0.042210
0.191986 0.545120 0.042349
0.223636 0.545257 0.042486
0.254870 0.545392 0.042621
0.285755 0.545525 0.042754
0.316341 0.545658 0.042887
0.346665 0.545789 0.043018
0.376756 0.545919 0.043148
0.406639 0.546048 0.043277
0.436331 0.546176 0.043405
0.465849 0.546303 0.043532
0.495207 0.546430 0.043659
0.524417 0.546556 0.043785
0.553489 0.546682 0.043911
0.582432 0.546807 0.044036
0.611253 0.546932 0.044161
0.639959 0.547056 0.044285
0.668558 0.547179 0.044408
0.697054 0.547302 0.044531
0.725452 0.547425 0.044654
0.753758 0.547547 0.044776
0.781975 0.547669 0.044898
0.810107 0.547791 0.045020
0.838158 0.547912 0.045141
0.866131 0.548033 0.045262
0.894030 0.548153 0.045382
0.921856 0.548273 0.045502
0.949612 0.548393 0.045622
0.977302 0.548513 0.045742
1.000000 0.548632 0.045861
0.093589 0.572518 0.042323
0.127387 0.572664 0.042469
0.160223 0.572806 0.042611
0.192387 0.572945 0.042750
0.224036 0.573082 0.042886
0.255270 0.573217 0.043021
0.286155 0.573350 0.043155
0.316741 0.573483 0.043287
0.347065 0.573614 0.043418
0.377157 0.573743 0.043548
0.407039 0.573873 0.043677
0.436731 0.574001 0.043805
0.466249 0.574128 0.043933
0.495608 0.574255 0.044060
0.524818 0.574381 0.044186
0.553889 0.574507 0.044311
0.582832 0.574632 0.044436
0.611653 0.574757 0.044561
0.640360 0.574881 0.044685
0.668958 0.575004 0.044808
0.697454 0.575127 0.044932
0.725852 0.575250 0.045054
0.754158 0.575372 0.045177
0.782375 0.575494 0.045298
0.810507 0.575616 0.045420
0.838558 0.575737 0.045541
0.866532 0.575858 0.045662
0.894430 0.575978 0.045782
0.922256 0.576098 0.045903
0.950013 0.576218 0.046023
0.977702 0.576338 0.046142
1.000000 0.576457 0.046262
0.093988 0.600315 0.042723
0.127787 0.600461 0.042869
0.160623 0.600603 0.043011
0.192787 0.600742 0.043150
0.224436 0.600879 0.043286
0.255670 0.601014 0.043421
0.286555 0.601147 0.043555
0.317141 0.601279 0.043687
0.347465 0.601410 0.043818
0.377557 0.601540 0.043948
0.407439 0.601669 0.044077
0.437131 0.601798 0.044205
0.466649 0.601925 0.044333
0.496008 0.602052 0.044459
0.525218 0.602178 0.044586
0.554289 0.602304 0.044711
0.583232 0.602429 0.044836
0.612053 0.602553 0.044961
0.640759 0.602677 0.045085
0.669358 0.602801 0.045208
0.697854 0.602924 0.045331
0.726252 0.603047 0.045454
0.754558 0.603169 0.045576
0.782775 0.603291 0.045698
0.810907 0.603412 0.045820
0.838958 0.603533 0.045941
0.866932 0.603654 0.046062
0.894830 0.603775 0.046182
0.922656 0.603895 0.046303
0.950413 0.604015 0.046422
0.978102 0.604135 0.046542
1.000000 0.604254 0.046661
0.094388 0.628085 0.043122
0.128186 0.628231 0.043268
0.161022 0.628373 0.043410
0.193186 0.628512 0.043549
0.224836 0.628649 0.043686
0.256069 0.628783 0.043821
0.286955 0.628917 0.043954
0.317541 0.629049 0.044086
0.347865 0.629180 0.044217
0.377956 0.629310 0.044347
0.407838 0.629439 0.044476
0.437530 0.629567 0.044605
0.467049 0.629695 0.044732
0.496407 0.629822 0.044859
0.525617 0.629948 0.044985
0.554689 0.630074 0.045111
0.583631 0.630199 0.045236
0.612452 0.630323 0.045360
0.641159 0.630447 0.045484
0.669757 0.630571 0.045608
0.698253 0.630694 0.045731
0.726652 0.630816 0.045854
0.754957 0.630939 0.045976
0.783174 0.631061 0.046098
0.811307 0.631182 0.046219
0.839358 0.631303 0.046341
0.867331 0.631424 0.046461
0.895229 0.631545 0.046582
0.923055 0.631665 0.046702
0.950812 0.631785 0.046822
0.978502 0.631904 0.046942
1.000000 0.632024 0.047061
0.094787 0.655829 0.043521
0.128585 0.655975 0.043667
0.161421 0.656117 0.043809
0.193585 0.656256 0.043948
0.225235 0.656393 0.044085
0.256468 0.656528 0.044220
0.287354 0.656661 0.044353
0.317940 0.656793 0.044485
0.348264 0.656924 0.044616
0.378355 0.657054 0.044746
0.408237 0.657183 0.044875
0.437930 0.657312 0.045004
0.467448 0.657439 0.045131
0.496806 0.657566 0.045258
0.526016 0.657692 0.045384
0.555088 0.657818 0.045510
0.584030 0.657943 0.045635
0.612851 0.658067 0.045759
0.641558 0.658191 0.045883
0.670156 0.658315 0.046007
0.698652 0.658438 0.046130
0.727051 0.658561 0.046253
0.755357 0.658683 0.046375
0.783574 0.658805 0.046497
0.811706 0.658926 0.046618
0.839757 0.659048 0.046740
0.867730 0.659168 0.046860
0.895628 0.659289 0.046981
0.923455 0.659409 0.047101
0.951211 0.659529 0.047221
0.978901 0.659649 0.047341
1.000000 0.659768 0.047460
0.095186 0.683549 0.043920
0.128984 0.683695 0.044066
0.161820 0.683837 0.044208
0.193984 0.683976 0.044347
0.225633 0.684113 0.044484
0.256867 0.684248 0.044619
0.287752 0.684381 0.044752
0.318339 0.684513 0.044884
0.348663 0.684644 0.045015
0.378754 0.684774 0.045145
0.408636 0.684903 0.045274
0.438328 0.685032 0.045402
0.467847 0.685159 0.045530
0.497205 0.685286 0.045657
0.526415 0.685412 0.045783
0.555487 0.685538 0.045909
0.584429 0.685663 0.046034
0.613250 0.685787 0.046158
0.641957 0.685911 0.046282
0.670555 0.686035 0.046406
0.699051 0.686158 0.046529
0.727450 0.686281 0.046652
0.755755 0.686403 0.046774
0.783972 0.686525 0.046896
0.812105 0.686646 0.047017
0.840156 0.686767 0.047138
0.868129 0.686888 0.047259
0.896027 0.687009 0.047380
0.923853 0.687129 0.047500
0.951610 0.687249 0.047620
0.979300 0.687369 0.047740
1.000000 0.687488 0.047859
0.095584 0.711246 0.044319
0.129383 0.711392 0.044465
0.162218 0.711534 0.044606
0.194382 0.711672 0.044745
0.226032 0.711809 0.044882
0.257266 0.711944 0.045017
0.288151 0.712078 0.045150
0.318737 0.712210 0.045283
0.349061 0.712341 0.045414
0.379152 0.712471 0.045544
0.409035 0.712600 0.045673
0.438727 0.712728 0.045801
0.468245 0.712856 0.045928
0.497604 0.712982 0.046055
0.526813 0.713109 0.046181
0.555885 0.713234 0.046307
0.584828 0.713359 0.046432
0.613649 0.713484 0.046557
0.642355 0.713608 0.046681
0.670954 0.713731 0.046804
0.699450 0.713854 0.046927
0.727848 0.713977 0.047050
0.756154 0.714099 0.047172
0.784371 0.714221 0.047294
0.812503 0.714343 0.047416
0.840554 0.714464 0.047537
0.868527 0.714585 0.047658
0.896426 0.714705 0.047778
0.924252 0.714826 0.047898
0.952008 0.714945 0.048018
0.979698 0.715065 0.048138
1.000000 0.715184 0.048257
0.095982 0.738920 0.044717
0.129781 0.739066 0.044863
0.162617 0.739208 0.045005
0.194781 0.739347 0.045143
0.226430 0.739483 0.045280
0.257664 0.739618 0.045415
0.288549 0.739752 0.045549
0.319135 0.739884 0.045681
0.349459 0.740015 0.045812
0.379551 0.740145 0.045942
0.409433 0.740274 0.046071
0.439125 0.740402 0.046199
0.468643 0.740530 0.046327
0.498002 0.740657 0.046453
0.527212 0.740783 0.046580
0.556283 0.740908 0.046705
0.585226 0.741033 0.046830
0.614047 0.741158 0.046955
0.642753 0.741282 0.047079
0.671352 0.741405 0.047202
0.699848 0.741529 0.047325
0.728246 0.741651 0.047448
0.756552 0.741774 0.047570
0.784769 0.741895 0.047692
0.812901 0.742017 0.047814
0.840952 0.742138 0.047935
0.868925 0.742259 0.048056
0.896824 0.742379 0.048176
0.924650 0.742500 0.048297
0.952407 0.742620 0.048416
0.980096 0.742739 0.048536
1.000000 0.742859 0.048655
0.096380 0.766573 0.045114
0.130179 0.766719 0.045260
0.163014 0.766860 0.045402
0.195178 0.766999 0.045541
0.226828 0.767136 0.045678
0.258061 0.767271 0.045813
0.288947 0.767404 0.045946
0.319533 0.767537 0.046079
0.349857 0.767668 0.046210
0.379948 0.767798 0.046340
0.409831 0.767927 0.046469
0.439523 0.768055 0.046597
0.469041 0.768182 0.046724
0.498399 0.768309 0.046851
0.527609 0.768435 0.046977
0.556681 0.768561 0.047103
0.585624 0.768686 0.047228
0.614445 0.768811 0.047353
0.643151 0.768935 0.047477
0.671750 0.769058 0.047600
0.700246 0.769181 0.047723
0.728644 0.769304 0.047846
0.756950 0.769426 0.047968
0.785167 0.769548 0.048090
0.813299 0.769670 0.048212
0.841350 0.769791 0.048333
0.869323 0.769912 0.048454
0.897222 0.770032 0.048574
0.925048 0.770152 0.048694
0.952804 0.770272 0.048814
0.980494 0.770392 0.048934
1.000000 0.770511 0.049053
0.096778 0.794205 0.045512
0.130576 0.794351 0.045658
0.163412 0.794493 0.045800
0.195576 0.794631 0.045939
0.227225 0.794768 0.046076
0.258459 0.794903 0.046210
0.289344 0.795037 0.046344
0.319930 0.795169 0.046476
0.350255 0.795300 0.046607
0.380346 0.795430 0.046737
0.410228 0.795559 0.046866
0.439920 0.795687 0.046994
0.469439 0.795815 0.047122
0.498797 0.795941 0.047249
0.528007 0.796068 0.047375
0.557079 0.796193 0.047501
0.586021 0.796318 0.047626
0.614842 0.796443 0.047750
0.643549 0.796567 0.047874
0.672147 0.796690 0.047998
0.700643 0.796813 0.048121
0.729042 0.796936 0.048243
0.757347 0.797058 0.048366
0.785564 0.797180 0.048488
0.813697 0.797302 0.048609
0.841748 0.797423 0.048730
0.869721 0.797544 0.048851
0.897619 0.797664 0.048972
0.925445 0.797785 0.049092
0.953202 0.797904 0.049212
0.980891 0.798024 0.049331
1.000000 0.798143 0.049451
0.097175 0.821817 0.045909
0.130973 0.821963 0.046055
0.163809 0.822105 0.046197
0.195973 0.822244 0.046336
0.227623 0.822380 0.046473
0.258856 0.822515 0.046608
0.289742 0.822649 0.046741
0.320328 0.822781 0.046873
0.350652 0.822912 0.047004
0.380743 0.823042 0.047134
0.410625 0.823171 0.047263
0.440317 0.823299 0.047392
0.469836 0.823427 0.047519
0.499194 0.823554 0.047646
0.528404 0.823680 0.047772
0.557476 0.823805 0.047898
0.586418 0.823930 0.048023
0.615239 0.824055 0.048147
0.643946 0.824179 0.048271
