assets/luts/vintage.cube
# Beauty Camera 3D LUT
# Filter: Vintage (vintage)
# Category: Film
TITLE "Vintage"
LUT_3D_SIZE 8
DOMAIN_MIN 0.000000 0.000000 0.000000
DOMAIN_MAX 0.903226 0.903226 0.903226
0.086272 0.063911 0.035006
0.216719 0.064475 0.035570
0.339749 0.065006 0.036101
0.458933 0.065521 0.036616
0.575515 0.066025 0.037120
0.690137 0.066520 0.037615
0.803191 0.067008 0.038103
0.914939 0.067491 0.038586
0.087931 0.179239 0.036665
0.218378 0.179803 0.037229
0.341408 0.180334 0.037760
0.460592 0.180849 0.038275
0.577174 0.181353 0.038779
0.691796 0.181848 0.039274
0.804850 0.182336 0.039762
0.916598 0.182819 0.040245
0.089562 0.292653 0.038297
0.220010 0.293217 0.038860
0.343039 0.293748 0.039392
0.462223 0.294263 0.039907
0.578806 0.294767 0.040410
0.693428 0.295262 0.040905
0.806481 0.295750 0.041394
0.918230 0.296233 0.041877
0.091180 0.405082 0.039914
0.221627 0.405645 0.040478
0.344657 0.406177 0.041009
0.463841 0.406692 0.041524
0.580423 0.407195 0.042028
0.695045 0.407691 0.042523
0.808099 0.408179 0.043011
0.919847 0.408662 0.043494
0.092788 0.516839 0.041522
0.223235 0.517402 0.042085
0.346264 0.517934 0.042617
0.465448 0.518449 0.043132
0.582031 0.518952 0.043635
0.696653 0.519447 0.044131
0.809706 0.519936 0.044619
0.921455 0.520419 0.045102
0.094388 0.628085 0.043122
0.224836 0.628649 0.043686
0.347865 0.629180 0.044217
0.467049 0.629695 0.044732
0.583631 0.630199 0.045236
0.698253 0.630694 0.045731
0.811307 0.631182 0.046219
0.923055 0.631665 0.046702
0.095982 0.738920 0.044717
0.226430 0.739483 0.045280
0.349459 0.740015 0.045812
0.468643 0.740530 0.046327
0.585226 0.741033 0.046830
0.699848 0.741529 0.047325
0.812901 0.742017 0.047814
0.924650 0.742500 0.048297
0.097572 0.849410 0.046306
0.228020 0.849974 0.046870
0.351049 0.850505 0.047401
0.470233 0.851020 0.047916
0.586815 0.851524 0.048420
0.701437 0.852019 0.048915
0.814491 0.852507 0.049403
0.926239 0.852990 0.049886
0.086388 0.064027 0.114084
0.216836 0.064591 0.114648
0.339865 0.065122 0.115179
0.459049 0.065637 0.115694
0.575631 0.066141 0.116198
0.690253 0.066636 0.116693
0.803307 0.067125 0.117181
0.915056 0.067607 0.117664
0.088047 0.179356 0.115743
0.218495 0.179919 0.116307
0.341524 0.180451 0.116838
0.460708 0.180966 0.117353
0.577291 0.181469 0.117857
0.691913 0.181964 0.118352
0.804966 0.182453 0.118840
0.916715 0.182936 0.119323
0.089679 0.292770 0.117375
0.220126 0.293333 0.117938
0.343156 0.293865 0.118470
0.462340 0.294380 0.118985
0.578922 0.294883 0.119488
0.693544 0.295378 0.119983
0.806598 0.295867 0.120472
0.918346 0.296350 0.120955
0.091296 0.405198 0.118992
0.221744 0.405762 0.119556
0.344773 0.406293 0.120087
0.463957 0.406808 0.120602
0.580539 0.407312 0.121106
0.695162 0.407807 0.121601
0.808215 0.408295 0.122089
0.919964 0.408778 0.122572
0.092904 0.516955 0.120600
0.223352 0.517519 0.121163
0.346381 0.518050 0.121695
0.465565 0.518565 0.122210
0.582147 0.519069 0.122713
0.696769 0.519564 0.123209
0.809823 0.520052 0.123697
0.921571 0.520535 0.124180
0.094504 0.628201 0.122200
0.224952 0.628765 0.122764
0.347981 0.629296 0.123295
0.467165 0.629811 0.123810
0.583748 0.630315 0.124314
0.698370 0.630810 0.124809
0.811423 0.631298 0.125297
0.923172 0.631781 0.125780
0.096099 0.739036 0.123795
0.226546 0.739600 0.124358
0.349576 0.740131 0.124890
0.468760 0.740646 0.125405
0.585342 0.741150 0.125908
0.699964 0.741645 0.126403
0.813018 0.742133 0.126892
0.924766 0.742616 0.127375
0.097688 0.849526 0.125384
0.228136 0.850090 0.125948
0.351165 0.850621 0.126479
0.470349 0.851136 0.126994
0.586932 0.851640 0.127498
0.701554 0.852135 0.127993
0.814607 0.852623 0.128481
0.926356 0.853106 0.128964
0.086522 0.064161 0.204866
0.216969 0.064725 0.205429
0.339998 0.065256 0.205961
0.459183 0.065771 0.206476
0.575765 0.066275 0.206979
0.690387 0.066770 0.207475
0.803441 0.067258 0.207963
0.915189 0.067741 0.208446
0.088181 0.179489 0.206525
0.218628 0.180053 0.207089
0.341658 0.180584 0.207620
0.460842 0.181099 0.208135
0.577424 0.181603 0.208639
0.692046 0.182098 0.209134
0.805100 0.182586 0.209622
0.916848 0.183069 0.210105
0.089812 0.292903 0.208157
0.220260 0.293467 0.208720
0.343289 0.293998 0.209252
0.462473 0.294513 0.209766
0.579056 0.295017 0.210270
0.693678 0.295512 0.210765
0.806731 0.296000 0.211254
0.918480 0.296483 0.211736
0.091430 0.405332 0.209774
0.221877 0.405895 0.210338
0.344907 0.406427 0.210869
0.464091 0.406942 0.211384
0.580673 0.407445 0.211888
0.695295 0.407941 0.212383
0.808349 0.408429 0.212871
0.920097 0.408912 0.213354
0.093037 0.517089 0.211382
0.223485 0.517652 0.211945
0.346514 0.518184 0.212477
0.465698 0.518698 0.212992
0.582281 0.519202 0.213495
0.696903 0.519697 0.213990
0.809956 0.520186 0.214479
0.921705 0.520668 0.214962
0.094638 0.628335 0.212982
0.225085 0.628898 0.213546
0.348115 0.629430 0.214077
0.467299 0.629945 0.214592
0.583881 0.630448 0.215096
0.698503 0.630944 0.215591
0.811557 0.631432 0.216079
0.923305 0.631915 0.216562
0.096232 0.739170 0.214577
0.226680 0.739733 0.215140
0.349709 0.740265 0.215672
0.468893 0.740780 0.216186
0.585476 0.741283 0.216690
0.700098 0.741778 0.217185
0.813151 0.742267 0.217674
0.924900 0.742750 0.218156
0.097822 0.849660 0.216166
0.228269 0.850223 0.216730
0.351299 0.850755 0.217261
0.470483 0.851270 0.217776
0.587065 0.851773 0.218280
0.701687 0.852269 0.218775
0.814741 0.852757 0.219263
0.926489 0.853240 0.219746
0.086664 0.064304 0.301791
0.217112 0.064867 0.302355
0.340141 0.065399 0.302886
0.459325 0.065914 0.303401
0.575908 0.066417 0.303905
0.690530 0.066912 0.304400
0.803583 0.067401 0.304889
0.915332 0.067883 0.305371
0.088323 0.179632 0.303451
0.218771 0.180195 0.304014
0.341800 0.180727 0.304546
0.460984 0.181242 0.305060
0.577567 0.181745 0.305564
0.692189 0.182241 0.306059
0.805242 0.182729 0.306548
0.916991 0.183212 0.307030
0.089955 0.293046 0.305082
0.220403 0.293609 0.305646
0.343432 0.294141 0.306177
0.462616 0.294656 0.306692
0.579198 0.295159 0.307196
0.693820 0.295655 0.307691
0.806874 0.296143 0.308179
0.918622 0.296626 0.308662
0.091572 0.405474 0.306700
0.222020 0.406038 0.307263
0.345049 0.406570 0.307795
0.464233 0.407084 0.308309
0.580816 0.407588 0.308813
0.695438 0.408083 0.309308
0.808491 0.408572 0.309797
0.920240 0.409054 0.310279
0.093180 0.517231 0.308307
0.223628 0.517795 0.308871
0.346657 0.518326 0.309402
0.465841 0.518841 0.309917
0.582423 0.519345 0.310421
0.697045 0.519840 0.310916
0.810099 0.520328 0.311404
0.921848 0.520811 0.311887
0.094780 0.628478 0.309908
0.225228 0.629041 0.310471
0.348257 0.629573 0.311003
0.467441 0.630087 0.311518
0.584024 0.630591 0.312021
0.698646 0.631086 0.312516
0.811699 0.631575 0.313005
0.923448 0.632057 0.313487
0.096375 0.739312 0.311502
0.226823 0.739876 0.312066
0.349852 0.740407 0.312597
0.469036 0.740922 0.313112
0.585618 0.741426 0.313616
0.700240 0.741921 0.314111
0.813294 0.742409 0.314599
0.925042 0.742892 0.315082
0.097964 0.849803 0.313092
0.228412 0.850366 0.313655
0.351441 0.850898 0.314187
0.470625 0.851412 0.314701
0.587208 0.851916 0.315205
0.701830 0.852411 0.315700
0.814883 0.852900 0.316189
0.926632 0.853382 0.316671
0.086813 0.064453 0.403064
0.217261 0.065016 0.403628
0.340290 0.065548 0.404159
0.459474 0.066063 0.404674
0.576057 0.066566 0.405178
0.690679 0.067061 0.405673
0.803732 0.067550 0.406162
0.915481 0.068032 0.406644
0.088472 0.179781 0.404724
0.218920 0.180344 0.405287
0.341949 0.180876 0.405819
0.461133 0.181391 0.406333
0.577716 0.181894 0.406837
0.692338 0.182390 0.407332
0.805391 0.182878 0.407821
0.917140 0.183361 0.408303
0.090104 0.293195 0.406355
0.220552 0.293758 0.406919
0.343581 0.294290 0.407450
0.462765 0.294805 0.407965
0.579347 0.295308 0.408469
0.693969 0.295804 0.408964
0.807023 0.296292 0.409452
0.918771 0.296775 0.409935
0.091721 0.405623 0.407973
0.222169 0.406187 0.408536
0.345198 0.406719 0.409068
0.464382 0.407233 0.409582
0.580965 0.407737 0.410086
0.695587 0.408232 0.410581
0.808640 0.408721 0.411070
0.920389 0.409203 0.411552
0.093329 0.517380 0.409580
0.223777 0.517944 0.410144
0.346806 0.518475 0.410675
0.465990 0.518990 0.411190
0.582572 0.519494 0.411694
0.697194 0.519989 0.412189
0.810248 0.520477 0.412677
0.921997 0.520960 0.413160
0.094929 0.628627 0.411181
0.225377 0.629190 0.411744
0.348406 0.629722 0.412276
0.467590 0.630236 0.412791
0.584173 0.630740 0.413294
0.698795 0.631235 0.413789
0.811848 0.631724 0.414278
0.923597 0.632206 0.414761
0.096524 0.739461 0.412775
0.226972 0.740025 0.413339
0.350001 0.740556 0.413870
0.469185 0.741071 0.414385
0.585767 0.741575 0.414889
0.700389 0.742070 0.415384
0.813443 0.742558 0.415872
0.925191 0.743041 0.416355
0.098113 0.849952 0.414365
0.228561 0.850515 0.414928
0.351590 0.851047 0.415460
0.470774 0.851561 0.415975
0.587357 0.852065 0.416478
0.701979 0.852560 0.416973
0.815032 0.853049 0.417462
0.926781 0.853531 0.417944
0.086967 0.064607 0.507745
0.217415 0.065170 0.508309
0.340444 0.065702 0.508840
0.459628 0.066217 0.509355
0.576211 0.066720 0.509859
0.690833 0.067215 0.510354
0.803886 0.067704 0.510842
0.915635 0.068186 0.511325
0.088626 0.179935 0.509404
0.219074 0.180498 0.509968
0.342103 0.181030 0.510499
0.461287 0.181545 0.511014
0.577870 0.182048 0.511518
0.692492 0.182544 0.512013
0.805545 0.183032 0.512501
0.917294 0.183515 0.512984
0.090258 0.293349 0.511036
0.220706 0.293912 0.511599
0.343735 0.294444 0.512131
0.462919 0.294959 0.512646
0.579501 0.295462 0.513149
0.694123 0.295958 0.513645
0.807177 0.296446 0.514133
0.918925 0.296929 0.514616
0.091875 0.405777 0.512653
0.222323 0.406341 0.513217
0.345352 0.406873 0.513748
0.464536 0.407387 0.514263
0.581119 0.407891 0.514767
0.695741 0.408386 0.515262
0.808794 0.408875 0.515750
0.920543 0.409357 0.516233
0.093483 0.517534 0.514261
0.223931 0.518098 0.514825
0.346960 0.518629 0.515356
0.466144 0.519144 0.515871
0.582726 0.519648 0.516375
0.697348 0.520143 0.516870
0.810402 0.520631 0.517358
0.922151 0.521114 0.517841
0.095083 0.628781 0.515861
0.225531 0.629344 0.516425
0.348560 0.629876 0.516956
0.467744 0.630390 0.517471
0.584327 0.630894 0.517975
0.698949 0.631389 0.518470
0.812002 0.631878 0.518959
0.923751 0.632360 0.519441
0.096678 0.739615 0.517456
0.227126 0.740179 0.518019
0.350155 0.740710 0.518551
0.469339 0.741225 0.519066
0.585921 0.741729 0.519569
0.700543 0.742224 0.520065
0.813597 0.742712 0.520553
0.925345 0.743195 0.521036
0.098267 0.850106 0.519045
0.228715 0.850669 0.519609
0.351744 0.851201 0.520140
0.470928 0.851715 0.520655
0.587511 0.852219 0.521159
0.702133 0.852714 0.521654
0.815186 0.853203 0.522142
0.926935 0.853685 0.522625
0.087125 0.064765 0.615247
0.217573 0.065328 0.615811
0.340602 0.065860 0.616342
0.459786 0.066375 0.616857
0.576369 0.066878 0.617361
0.690991 0.067374 0.617856
0.804044 0.067862 0.618344
0.915793 0.068345 0.618827
0.088785 0.180093 0.616906
0.219232 0.180657 0.617470
0.342261 0.181188 0.618001
0.461446 0.181703 0.618516
0.578028 0.182207 0.619020
0.692650 0.182702 0.619515
0.805703 0.183190 0.620003
0.917452 0.183673 0.620486
0.090416 0.293507 0.618538
0.220864 0.294071 0.619101
0.343893 0.294602 0.619633
0.463077 0.295117 0.620148
0.579659 0.295621 0.620651
0.694282 0.296116 0.621147
0.807335 0.296604 0.621635
0.919084 0.297087 0.622118
0.092033 0.405936 0.620155
0.222481 0.406499 0.620719
0.345510 0.407031 0.621250
0.464694 0.407546 0.621765
0.581277 0.408049 0.622269
0.695899 0.408544 0.622764
0.808952 0.409033 0.623252
0.920701 0.409516 0.623735
0.093641 0.517692 0.621763
0.224089 0.518256 0.622326
0.347118 0.518787 0.622858
0.466302 0.519302 0.623373
0.582885 0.519806 0.623876
0.697507 0.520301 0.624372
0.810560 0.520789 0.624860
0.922309 0.521272 0.625343
0.095242 0.628939 0.623363
0.225689 0.629502 0.623927
0.348718 0.630034 0.624458
0.467903 0.630549 0.624973
0.584485 0.631052 0.625477
0.699107 0.631547 0.625972
0.812160 0.632036 0.626460
0.923909 0.632519 0.626943
0.096836 0.739774 0.624958
0.227284 0.740337 0.625521
0.350313 0.740869 0.626053
0.469497 0.741383 0.626568
0.586079 0.741887 0.627071
0.700701 0.742382 0.627566
0.813755 0.742871 0.628055
0.925504 0.743353 0.628538
0.098426 0.850264 0.626547
0.228873 0.850827 0.627111
0.351902 0.851359 0.627642
0.471087 0.851874 0.628157
0.587669 0.852377 0.628661
0.702291 0.852872 0.629156
0.815344 0.853361 0.629644
0.927093 0.853844 0.630127
0.087287 0.064927 0.725166
0.217735 0.065490 0.725730
0.340764 0.066022 0.726261
0.459948 0.066536 0.726776
0.576530 0.067040 0.727280
0.691153 0.067535 0.727775
0.804206 0.068024 0.728263
0.915955 0.068506 0.728746
0.088946 0.180255 0.726825
0.219394 0.180818 0.727389
0.342423 0.181350 0.727920
0.461607 0.181865 0.728435
0.578190 0.182368 0.728939
0.692812 0.182863 0.729434
0.805865 0.183352 0.729922
0.917614 0.183835 0.730405
0.090578 0.293669 0.728457
0.221025 0.294232 0.729020
0.344055 0.294764 0.729552
0.463239 0.295279 0.730067
0.579821 0.295782 0.730570
0.694443 0.296277 0.731066
0.807497 0.296766 0.731554
0.919245 0.297249 0.732037
0.092195 0.406097 0.730074
0.222643 0.406661 0.730638
0.345672 0.407192 0.731169
0.464856 0.407707 0.731684
0.581439 0.408211 0.732188
0.696061 0.408706 0.732683
0.809114 0.409194 0.733171
0.920863 0.409677 0.733654
0.093803 0.517854 0.731682
0.224251 0.518418 0.732245
0.347280 0.518949 0.732777
0.466464 0.519464 0.733292
0.583046 0.519968 0.733795
0.697668 0.520463 0.734291
0.810722 0.520951 0.734779
0.922470 0.521434 0.735262
0.095403 0.629100 0.733282
0.225851 0.629664 0.733846
0.348880 0.630195 0.734377
0.468064 0.630710 0.734892
0.584647 0.631214 0.735396
0.699269 0.631709 0.735891
0.812322 0.632198 0.736379
0.924071 0.632680 0.736862
0.096998 0.739935 0.734877
0.227445 0.740499 0.735440
0.350475 0.741030 0.735972
0.469659 0.741545 0.736487
0.586241 0.742049 0.736990
0.700863 0.742544 0.737485
0.813917 0.743032 0.737974
0.925665 0.743515 0.738457
0.098587 0.850425 0.736466
0.229035 0.850989 0.737030
0.352064 0.851520 0.737561
0.471248 0.852035 0.738076
0.587831 0.852539 0.738580
0.702453 0.853034 0.739075
0.815506 0.853523 0.739563
0.927255 0.854005 0.740046
