assets/luts/vintage.cube
# Beauty Camera 3D LUT
# Filter: Vintage (vintage)
# Category: Film
TITLE "Vintage"
LUT_3D_SIZE 5
DOMAIN_MIN 0.000000 0.000000 0.000000
DOMAIN_MAX 0.903226 0.903226 0.903226
0.086272 0.063911 0.035006
0.309424 0.064875 0.035970
0.517501 0.065774 0.036869
0.718536 0.066642 0.037737
0.914939 0.067491 0.038586
0.089156 0.264411 0.037890
0.312309 0.265375 0.038854
0.520385 0.266274 0.039753
0.721420 0.267142 0.040622
0.917824 0.267990 0.041470
0.091985 0.461032 0.040719
0.315137 0.461996 0.041683
0.523214 0.462895 0.042582
0.724249 0.463764 0.043450
0.920652 0.464612 0.044299
0.094787 0.655829 0.043521
0.317940 0.656793 0.044485
0.526016 0.657692 0.045384
0.727051 0.658561 0.046253
0.923455 0.659409 0.047101
0.097572 0.849410 0.046306
0.320725 0.850374 0.047270
0.528801 0.851273 0.048169
0.729836 0.852141 0.049038
0.926239 0.852990 0.049886
0.086487 0.064127 0.181490
0.309640 0.065091 0.182454
0.517716 0.065990 0.183353
0.718751 0.066858 0.184221
0.915155 0.067706 0.185069
0.089372 0.264626 0.184374
0.312524 0.265590 0.185338
0.520601 0.266489 0.186237
0.721636 0.267357 0.187105
0.918039 0.268206 0.187954
0.092200 0.461248 0.187203
0.315353 0.462212 0.188167
0.523429 0.463111 0.189065
0.724464 0.463979 0.189934
0.920868 0.464828 0.190782
0.095003 0.656045 0.190005
0.318155 0.657009 0.190969
0.526232 0.657908 0.191868
0.727266 0.658776 0.192736
0.923670 0.659625 0.193585
0.097787 0.849626 0.192790
0.320940 0.850590 0.193754
0.529017 0.851488 0.194653
0.730051 0.852357 0.195521
0.926455 0.853205 0.196370
0.086738 0.064377 0.351955
0.309891 0.065341 0.352919
0.517967 0.066240 0.353818
0.719002 0.067109 0.354686
0.915406 0.067957 0.355535
0.089622 0.264877 0.354839
0.312775 0.265841 0.355803
0.520852 0.266740 0.356702
0.721886 0.267608 0.357570
0.918290 0.268457 0.358419
0.092451 0.461498 0.357668
0.315604 0.462463 0.358632
0.523680 0.463361 0.359531
0.724715 0.464230 0.360399
0.921119 0.465078 0.361248
0.095253 0.656296 0.360470
0.318406 0.657260 0.361434
0.526483 0.658159 0.362333
0.727517 0.659027 0.363201
0.923921 0.659875 0.364050
0.098038 0.849876 0.363255
0.321191 0.850840 0.364219
0.529267 0.851739 0.365118
0.730302 0.852608 0.365986
0.926706 0.853456 0.366835
0.087006 0.064646 0.534374
0.310159 0.065610 0.535338
0.518236 0.066509 0.536237
0.719270 0.067377 0.537106
0.915674 0.068226 0.537954
0.089891 0.265145 0.537259
0.313044 0.266109 0.538223
0.521120 0.267008 0.539122
0.722155 0.267877 0.539990
0.918558 0.268725 0.540839
0.092719 0.461767 0.540087
0.315872 0.462731 0.541051
0.523949 0.463630 0.541950
0.724983 0.464498 0.542819
0.921387 0.465347 0.543667
0.095522 0.656564 0.542890
0.318674 0.657528 0.543854
0.526751 0.658427 0.544753
0.727786 0.659295 0.545621
0.924189 0.660144 0.546470
0.098307 0.850145 0.545675
0.321459 0.851109 0.546639
0.529536 0.852008 0.547537
0.730570 0.852876 0.548406
0.926974 0.853725 0.549254
0.087287 0.064927 0.725166
0.310440 0.065891 0.726130
0.518516 0.066789 0.727029
0.719551 0.067658 0.727898
0.915955 0.068506 0.728746
0.090172 0.265426 0.728050
0.313324 0.266390 0.729015
0.521401 0.267289 0.729913
0.722435 0.268157 0.730782
0.918839 0.269006 0.731630
0.093000 0.462048 0.730879
0.316153 0.463012 0.731843
0.524229 0.463911 0.732742
0.725264 0.464779 0.733610
0.921668 0.465627 0.734459
0.095802 0.656845 0.733681
0.318955 0.657809 0.734645
0.527032 0.658708 0.735544
0.728066 0.659576 0.736413
0.924470 0.660425 0.737261
0.098587 0.850425 0.736466
0.321740 0.851389 0.737430
0.529816 0.852288 0.738329
0.730851 0.853157 0.739198
0.927255 0.854005 0.740046
