assets/luts/warm.cube
# Beauty Camera 3D LUT
# Filter: Warm (warm)
# Category: Warm
TITLE "Warm"
LUT_3D_SIZE 5
DOMAIN_MIN 0.000000 0.000000 0.000000
DOMAIN_MAX 0.903226 0.903226 0.903226
0.026087 0.010569 0.000000
0.285812 0.006413 0.000000
0.553588 0.002129 0.000000
0.807888 0.000000 0.000000
1.000000 0.000000 0.000000
0.013146 0.241896 0.000000
0.272871 0.237741 0.000000
0.540648 0.233456 0.000000
0.794948 0.229387 0.000000
1.000000 0.225820 0.000000
0.000000 0.488710 0.000000
0.259064 0.484554 0.000000
0.526840 0.480270 0.000000
0.781141 0.476201 0.000000
1.000000 0.472634 0.000000
0.000000 0.735070 0.000000
0.245282 0.730914 0.000000
0.513059 0.726630 0.000000
0.767359 0.722561 0.000000
0.990299 0.718994 0.000000
0.000000 0.954275 0.000000
0.233020 0.950119 0.000000
0.500796 0.945835 0.000000
0.755096 0.941766 0.000000
0.978036 0.938199 0.000000
0.025017 0.009499 0.197806
0.284743 0.005344 0.193651
0.552519 0.001059 0.189366
0.806819 0.000000 0.185297
1.000000 0.000000 0.181730
0.012077 0.240827 0.184866
0.271802 0.236671 0.180710
0.539578 0.232387 0.176426
0.793879 0.228318 0.172357
1.000000 0.224751 0.168790
0.000000 0.487641 0.171058
0.257995 0.483485 0.166903
0.525771 0.479201 0.162618
0.780071 0.475132 0.158550
1.000000 0.471565 0.154983
0.000000 0.734000 0.157277
0.244213 0.729845 0.153121
0.511990 0.725560 0.148837
0.766290 0.721492 0.144768
0.989230 0.717924 0.141201
0.000000 0.953206 0.145014
0.231951 0.949050 0.140858
0.499727 0.944766 0.136574
0.754027 0.940697 0.132505
0.976967 0.937130 0.128938
0.023765 0.008247 0.430669
0.283491 0.004092 0.426514
0.551267 0.000000 0.422229
0.805567 0.000000 0.418160
1.000000 0.000000 0.414593
0.010825 0.239575 0.417729
0.270550 0.235419 0.413573
0.538326 0.231135 0.409288
0.792626 0.227066 0.405220
1.000000 0.223499 0.401653
0.000000 0.486389 0.403921
0.256743 0.482233 0.399766
0.524519 0.477949 0.395481
0.778819 0.473880 0.391412
1.000000 0.470313 0.387845
0.000000 0.732748 0.390140
0.242961 0.728593 0.385984
0.510737 0.724308 0.381700
0.765038 0.720239 0.377631
0.987978 0.716672 0.374064
0.000000 0.951954 0.377877
0.230699 0.947798 0.373721
0.498475 0.943513 0.369437
0.752775 0.939445 0.365368
0.975715 0.935878 0.361801
0.022402 0.006884 0.684168
0.282128 0.002729 0.680012
0.549904 0.000000 0.675728
0.804204 0.000000 0.671659
1.000000 0.000000 0.668092
0.009462 0.238212 0.671227
0.269187 0.234056 0.667071
0.536963 0.229772 0.662787
0.791263 0.225703 0.658718
1.000000 0.222136 0.655151
0.000000 0.485026 0.657420
0.255380 0.480870 0.653264
0.523156 0.476585 0.648980
0.777456 0.472517 0.644911
1.000000 0.468950 0.641344
0.000000 0.731385 0.643638
0.241598 0.727230 0.639482
0.509374 0.722945 0.635198
0.763675 0.718876 0.631129
0.986615 0.715309 0.627562
0.000000 0.950591 0.631375
0.229335 0.946435 0.627220
0.497112 0.942150 0.622935
0.751412 0.938082 0.618866
0.974352 0.934515 0.615299
0.021129 0.005611 0.920914
0.280855 0.001456 0.916758
0.548631 0.000000 0.912474
0.802931 0.000000 0.908405
1.000000 0.000000 0.904838
0.008189 0.236939 0.907973
0.267914 0.232783 0.903817
0.535690 0.228499 0.899533
0.789990 0.224430 0.895464
1.000000 0.220863 0.891897
0.000000 0.483753 0.894166
0.254107 0.479597 0.890010
0.521883 0.475313 0.885726
0.776183 0.471244 0.881657
0.999124 0.467677 0.878090
0.000000 0.730112 0.880384
0.240325 0.725957 0.876228
0.508101 0.721672 0.871944
0.762402 0.717603 0.867875
0.985342 0.714036 0.864308
0.000000 0.949318 0.868121
0.228063 0.945162 0.863966
0.495839 0.940877 0.859681
0.750139 0.936809 0.855613
0.973079 0.933242 0.852045
