assets/luts/warm.cube
# Beauty Camera 3D LUT
# Filter: Warm (warm)
# Category: Warm
TITLE "Warm"
LUT_3D_SIZE 8
DOMAIN_MIN 0.000000 0.000000 0.000000
DOMAIN_MAX 0.903226 0.903226 0.903226
0.026087 0.010569 0.000000
0.174979 0.008186 0.000000
0.323186 0.005815 0.000000
0.475605 0.003376 0.000000
0.629702 0.000911 0.000000
0.773573 0.000000 0.000000
0.907059 0.000000 0.000000
1.000000 0.000000 0.000000
0.018752 0.141689 0.000000
0.167644 0.139307 0.000000
0.315851 0.136935 0.000000
0.468270 0.134497 0.000000
0.622367 0.132031 0.000000
0.766238 0.129729 0.000000
0.899724 0.127593 0.000000
1.000000 0.125613 0.000000
0.011239 0.275988 0.000000
0.160131 0.273606 0.000000
0.308338 0.271235 0.000000
0.460757 0.268796 0.000000
0.614854 0.266330 0.000000
0.758725 0.264028 0.000000
0.892211 0.261893 0.000000
1.000000 0.259912 0.000000
0.003395 0.416198 0.000000
0.152288 0.413816 0.000000
0.300494 0.411444 0.000000
0.452913 0.409006 0.000000
0.607011 0.406540 0.000000
0.750882 0.404238 0.000000
0.884367 0.402102 0.000000
1.000000 0.400122 0.000000
0.000000 0.561884 0.000000
0.144138 0.559502 0.000000
0.292344 0.557130 0.000000
0.444763 0.554692 0.000000
0.598861 0.552226 0.000000
0.742732 0.549924 0.000000
0.876218 0.547788 0.000000
0.999987 0.545808 0.000000
0.000000 0.701570 0.000000
0.136324 0.699188 0.000000
0.284530 0.696816 0.000000
0.436949 0.694377 0.000000
0.591047 0.691912 0.000000
0.734918 0.689610 0.000000
0.868403 0.687474 0.000000
0.992173 0.685494 0.000000
0.000000 0.832254 0.000000
0.129013 0.829872 0.000000
0.277219 0.827500 0.000000
0.429639 0.825062 0.000000
0.583736 0.822596 0.000000
0.727607 0.820294 0.000000
0.861093 0.818158 0.000000
0.984862 0.816178 0.000000
0.000000 0.954275 0.000000
0.122187 0.951893 0.000000
0.270393 0.949521 0.000000
0.422813 0.947082 0.000000
0.576910 0.944617 0.000000
0.720781 0.942315 0.000000
0.854267 0.940179 0.000000
0.978036 0.938199 0.000000
0.025503 0.009985 0.107436
0.174396 0.007603 0.105054
0.322602 0.005232 0.102683
0.475022 0.002793 0.100244
0.629119 0.000327 0.097778
0.772990 0.000000 0.095476
0.906476 0.000000 0.093341
1.000000 0.000000 0.091360
0.018168 0.141106 0.100101
0.167061 0.138723 0.097719
0.315267 0.136352 0.095348
0.467687 0.133913 0.092909
0.621784 0.131448 0.090443
0.765655 0.129146 0.088141
0.899141 0.127010 0.086006
1.000000 0.125030 0.084025
0.010655 0.275405 0.092588
0.159548 0.273023 0.090206
0.307754 0.270651 0.087835
0.460174 0.268213 0.085396
0.614271 0.265747 0.082930
0.758142 0.263445 0.080628
0.891628 0.261309 0.078493
1.000000 0.259329 0.076512
0.002812 0.415615 0.084745
0.151705 0.413232 0.082363
0.299911 0.410861 0.079991
0.452330 0.408422 0.077552
0.606427 0.405957 0.075087
0.750299 0.403655 0.072785
0.883784 0.401519 0.070649
1.000000 0.399539 0.068669
0.000000 0.561301 0.076595
0.143555 0.558918 0.074213
0.291761 0.556547 0.071841
0.444180 0.554108 0.069403
0.598278 0.551643 0.066937
0.742149 0.549341 0.064635
0.875634 0.547205 0.062499
0.999404 0.545225 0.060519
0.000000 0.700987 0.068781
0.135740 0.698604 0.066398
0.283947 0.696233 0.064027
0.436366 0.693794 0.061588
0.590463 0.691329 0.059123
0.734334 0.689027 0.056821
0.867820 0.686891 0.054685
0.991590 0.684911 0.052705
0.000000 0.831671 0.061470
0.128430 0.829288 0.059088
0.276636 0.826917 0.056716
0.429055 0.824478 0.054278
0.583153 0.822013 0.051812
0.727024 0.819711 0.049510
0.860509 0.817575 0.047374
0.984279 0.815595 0.045394
0.000000 0.953692 0.054644
0.121604 0.951309 0.052262
0.269810 0.948938 0.049890
0.422229 0.946499 0.047452
0.576327 0.944034 0.044986
0.720198 0.941732 0.042684
0.853683 0.939596 0.040548
0.977453 0.937616 0.038568
0.024848 0.009330 0.229241
0.173741 0.006948 0.226859
0.321948 0.004577 0.224487
0.474367 0.002138 0.222049
0.628464 0.000000 0.219583
0.772335 0.000000 0.217281
0.905821 0.000000 0.215145
1.000000 0.000000 0.213165
0.017513 0.140451 0.221906
0.166406 0.138069 0.219524
0.314612 0.135697 0.217152
0.467032 0.133258 0.214714
0.621129 0.130793 0.212248
0.765000 0.128491 0.209946
0.898486 0.126355 0.207810
1.000000 0.124375 0.205830
0.010001 0.274750 0.214393
0.158893 0.272368 0.212011
0.307100 0.269996 0.209639
0.459519 0.267558 0.207201
0.613616 0.265092 0.204735
0.757487 0.262790 0.202433
0.890973 0.260654 0.200297
1.000000 0.258674 0.198317
0.002157 0.414960 0.206550
0.151050 0.412577 0.204167
0.299256 0.410206 0.201796
0.451675 0.407767 0.199357
0.605773 0.405302 0.196892
0.749644 0.403000 0.194590
0.883129 0.400864 0.192454
1.000000 0.398884 0.190474
0.000000 0.560646 0.198400
0.142900 0.558264 0.196017
0.291106 0.555892 0.193646
0.443525 0.553453 0.191207
0.597623 0.550988 0.188742
0.741494 0.548686 0.186440
0.874979 0.546550 0.184304
0.998749 0.544570 0.182324
0.000000 0.700332 0.190585
0.135086 0.697949 0.188203
0.283292 0.695578 0.185832
0.435711 0.693139 0.183393
0.589808 0.690674 0.180928
0.733680 0.688372 0.178626
0.867165 0.686236 0.176490
0.990935 0.684256 0.174509
0.000000 0.831016 0.183275
0.127775 0.828633 0.180893
0.275981 0.826262 0.178521
0.428400 0.823823 0.176082
0.582498 0.821358 0.173617
0.726369 0.819056 0.171315
0.859854 0.816920 0.169179
0.983624 0.814940 0.167199
0.000000 0.953037 0.176449
0.120949 0.950654 0.174066
0.269155 0.948283 0.171695
0.421574 0.945844 0.169256
0.575672 0.943379 0.166791
0.719543 0.941077 0.164489
0.853028 0.938941 0.162353
0.976798 0.936961 0.160373
0.024139 0.008621 0.361133
0.173032 0.006239 0.358751
0.321238 0.003868 0.356380
0.473657 0.001429 0.353941
0.627755 0.000000 0.351476
0.771626 0.000000 0.349174
0.905112 0.000000 0.347038
1.000000 0.000000 0.345057
0.016804 0.139742 0.353798
0.165697 0.137359 0.351416
0.313903 0.134988 0.349045
0.466322 0.132549 0.346606
0.620420 0.130084 0.344140
0.764291 0.127782 0.341838
0.897776 0.125646 0.339703
1.000000 0.123666 0.337722
0.009291 0.274041 0.346285
0.158184 0.271658 0.343903
0.306390 0.269287 0.341532
0.458810 0.266848 0.339093
0.612907 0.264383 0.336628
0.756778 0.262081 0.334326
0.890264 0.259945 0.332190
1.000000 0.257965 0.330209
0.001448 0.414250 0.338442
0.150341 0.411868 0.336060
0.298547 0.409497 0.333688
0.450966 0.407058 0.331250
0.605063 0.404593 0.328784
0.748935 0.402291 0.326482
0.882420 0.400155 0.324346
1.000000 0.398174 0.322366
0.000000 0.559937 0.330292
0.142191 0.557554 0.327910
0.290397 0.555183 0.325538
0.442816 0.552744 0.323100
0.596913 0.550279 0.320634
0.740785 0.547977 0.318332
0.874270 0.545841 0.316196
0.998040 0.543861 0.314216
0.000000 0.699622 0.322478
0.134376 0.697240 0.320096
0.282583 0.694869 0.317724
0.435002 0.692430 0.315286
0.589099 0.689964 0.312820
0.732970 0.687663 0.310518
0.866456 0.685527 0.308382
0.990226 0.683546 0.306402
0.000000 0.830307 0.315167
0.127066 0.827924 0.312785
0.275272 0.825553 0.310414
0.427691 0.823114 0.307975
0.581789 0.820649 0.305509
0.725660 0.818347 0.303207
0.859145 0.816211 0.301072
0.982915 0.814231 0.299091
0.000000 0.952327 0.308341
0.120240 0.949945 0.305959
0.268446 0.947574 0.303588
0.420865 0.945135 0.301149
0.574963 0.942670 0.298683
0.718834 0.940368 0.296381
0.852319 0.938232 0.294246
0.976089 0.936251 0.292265
0.023379 0.007861 0.502553
0.172272 0.005479 0.500170
0.320478 0.003107 0.497799
0.472897 0.000669 0.495360
0.626994 0.000000 0.492895
0.770866 0.000000 0.490593
0.904351 0.000000 0.488457
1.000000 0.000000 0.486477
0.016044 0.138981 0.495218
0.164937 0.136599 0.492835
0.313143 0.134228 0.490464
0.465562 0.131789 0.488025
0.619659 0.129323 0.485560
0.763531 0.127021 0.483258
0.897016 0.124886 0.481122
1.000000 0.122905 0.479142
0.008531 0.273280 0.487705
0.157424 0.270898 0.485323
0.305630 0.268527 0.482951
0.458049 0.266088 0.480512
0.612147 0.263622 0.478047
0.756018 0.261321 0.475745
0.889503 0.259185 0.473609
1.000000 0.257204 0.471629
0.000687 0.413490 0.479861
0.149580 0.411108 0.477479
0.297786 0.408736 0.475108
0.450206 0.406298 0.472669
0.604303 0.403832 0.470203
0.748174 0.401530 0.467901
0.881660 0.399394 0.465766
1.000000 0.397414 0.463785
0.000000 0.559176 0.471711
0.141430 0.556794 0.469329
0.289637 0.554423 0.466958
0.442056 0.551984 0.464519
0.596153 0.549518 0.462053
0.740024 0.547216 0.459752
0.873510 0.545081 0.457616
0.997280 0.543100 0.455635
0.000000 0.698862 0.463897
0.133616 0.696480 0.461515
0.281822 0.694108 0.459144
0.434241 0.691670 0.456705
0.588339 0.689204 0.454239
0.732210 0.686902 0.451937
0.865696 0.684766 0.449802
0.989465 0.682786 0.447821
0.000000 0.829546 0.456587
0.126305 0.827164 0.454204
0.274512 0.824793 0.451833
0.426931 0.822354 0.449394
0.581028 0.819888 0.446929
0.724899 0.817586 0.444627
0.858385 0.815451 0.442491
0.982155 0.813470 0.440511
0.000000 0.951567 0.449760
0.119479 0.949185 0.447378
0.267686 0.946813 0.445007
0.420105 0.944375 0.442568
0.574202 0.941909 0.440103
0.718073 0.939607 0.437801
0.851559 0.937471 0.435665
0.975329 0.935491 0.433684
0.022594 0.007076 0.648592
0.171486 0.004693 0.646210
0.319693 0.002322 0.643838
0.472112 0.000000 0.641400
0.626209 0.000000 0.638934
0.770080 0.000000 0.636632
0.903566 0.000000 0.634496
1.000000 0.000000 0.632516
0.015259 0.138196 0.641257
0.164151 0.135814 0.638874
0.312358 0.133442 0.636503
0.464777 0.131004 0.634064
0.618874 0.128538 0.631599
0.762745 0.126236 0.629297
0.896231 0.124100 0.627161
1.000000 0.122120 0.625181
0.007746 0.272495 0.633744
0.156638 0.270113 0.631362
0.304845 0.267742 0.628990
0.457264 0.265303 0.626552
0.611361 0.262837 0.624086
0.755232 0.260535 0.621784
0.888718 0.258399 0.619648
1.000000 0.256419 0.617668
0.000000 0.412705 0.625900
0.148795 0.410323 0.623518
0.297001 0.407951 0.621147
0.449420 0.405513 0.618708
0.603518 0.403047 0.616242
0.747389 0.400745 0.613940
0.880874 0.398609 0.611805
1.000000 0.396629 0.609824
0.000000 0.558391 0.617750
0.140645 0.556009 0.615368
0.288851 0.553637 0.612997
0.441270 0.551199 0.610558
0.595368 0.548733 0.608093
0.739239 0.546431 0.605791
0.872725 0.544295 0.603655
0.996494 0.542315 0.601674
0.000000 0.698077 0.609936
0.132831 0.695694 0.607554
0.281037 0.693323 0.605183
0.433456 0.690884 0.602744
0.587554 0.688419 0.600278
0.731425 0.686117 0.597976
0.864910 0.683981 0.595841
0.988680 0.682001 0.593860
0.000000 0.828761 0.602626
0.125520 0.826379 0.600243
0.273726 0.824007 0.597872
0.426146 0.821569 0.595433
0.580243 0.819103 0.592968
0.724114 0.816801 0.590666
0.857600 0.814665 0.588530
0.981369 0.812685 0.586550
0.000000 0.950782 0.595800
0.118694 0.948399 0.593417
0.266900 0.946028 0.591046
0.419320 0.943589 0.588607
0.573417 0.941124 0.586142
0.717288 0.938822 0.583840
0.850774 0.936686 0.581704
0.974543 0.934706 0.579724
0.021842 0.006324 0.788305
0.170735 0.003942 0.785923
0.318941 0.001571 0.783551
0.471361 0.000000 0.781113
0.625458 0.000000 0.778647
0.769329 0.000000 0.776345
0.902815 0.000000 0.774209
1.000000 0.000000 0.772229
0.014507 0.137445 0.780970
0.163400 0.135062 0.778588
0.311606 0.132691 0.776216
0.464026 0.130252 0.773777
0.618123 0.127787 0.771312
0.761994 0.125485 0.769010
0.895480 0.123349 0.766874
1.000000 0.121369 0.764894
0.006994 0.271744 0.773457
0.155887 0.269362 0.771075
0.304094 0.266990 0.768703
0.456513 0.264552 0.766265
0.610610 0.262086 0.763799
0.754481 0.259784 0.761497
0.887967 0.257648 0.759361
1.000000 0.255668 0.757381
0.000000 0.411954 0.765613
0.148044 0.409571 0.763231
0.296250 0.407200 0.760860
0.448669 0.404761 0.758421
0.602767 0.402296 0.755955
0.746638 0.399994 0.753654
0.880123 0.397858 0.751518
1.000000 0.395878 0.749537
0.000000 0.557640 0.757464
0.139894 0.555258 0.755081
0.288100 0.552886 0.752710
0.440519 0.550447 0.750271
0.594617 0.547982 0.747806
0.738488 0.545680 0.745504
0.871973 0.543544 0.743368
0.995743 0.541564 0.741388
0.000000 0.697326 0.749649
0.132080 0.694943 0.747267
0.280286 0.692572 0.744896
0.432705 0.690133 0.742457
0.586802 0.687668 0.739991
0.730674 0.685366 0.737689
0.864159 0.683230 0.735554
0.987929 0.681250 0.733573
0.000000 0.828010 0.742339
0.124769 0.825627 0.739956
0.272975 0.823256 0.737585
0.425394 0.820817 0.735146
0.579492 0.818352 0.732681
0.723363 0.816050 0.730379
0.856848 0.813914 0.728243
0.980618 0.811934 0.726263
0.000000 0.950031 0.735513
0.117943 0.947648 0.733130
0.266149 0.945277 0.730759
0.418568 0.942838 0.728320
0.572666 0.940373 0.725855
0.716537 0.938071 0.723553
0.850022 0.935935 0.721417
0.973792 0.933955 0.719437
0.021129 0.005611 0.920914
0.170022 0.003229 0.918531
0.318228 0.000858 0.916160
0.470648 0.000000 0.913721
0.624745 0.000000 0.911256
0.768616 0.000000 0.908954
0.902102 0.000000 0.906818
1.000000 0.000000 0.904838
0.013794 0.136732 0.913579
0.162687 0.134349 0.911196
0.310893 0.131978 0.908825
0.463313 0.129539 0.906386
0.617410 0.127074 0.903921
0.761281 0.124772 0.901619
0.894767 0.122636 0.899483
1.000000 0.120656 0.897503
0.006281 0.271031 0.906066
0.155174 0.268649 0.903683
0.303381 0.266277 0.901312
0.455800 0.263839 0.898873
0.609897 0.261373 0.896408
0.753768 0.259071 0.894106
0.887254 0.256935 0.891970
1.000000 0.254955 0.889990
0.000000 0.411241 0.898222
0.147331 0.408858 0.895840
0.295537 0.406487 0.893469
0.447956 0.404048 0.891030
0.602054 0.401583 0.888564
0.745925 0.399281 0.886262
0.879410 0.397145 0.884127
1.000000 0.395165 0.882146
0.000000 0.556927 0.890072
0.139181 0.554544 0.887690
0.287387 0.552173 0.885319
0.439806 0.549734 0.882880
0.593904 0.547269 0.880414
0.737775 0.544967 0.878112
0.871260 0.542831 0.875977
0.995030 0.540851 0.873996
0.000000 0.696613 0.882258
0.131367 0.694230 0.879876
0.279573 0.691859 0.877505
0.431992 0.689420 0.875066
0.586089 0.686955 0.872600
0.729961 0.684653 0.870298
0.863446 0.682517 0.868162
0.987216 0.680537 0.866182
0.000000 0.827297 0.874947
0.124056 0.824914 0.872565
0.272262 0.822543 0.870194
0.424681 0.820104 0.867755
0.578779 0.817639 0.865290
0.722650 0.815337 0.862988
0.856135 0.813201 0.860852
0.979905 0.811221 0.858871
0.000000 0.949318 0.868121
0.117230 0.946935 0.865739
0.265436 0.944564 0.863368
0.417855 0.942125 0.860929
0.571953 0.939660 0.858464
0.715824 0.937358 0.856162
0.849309 0.935222 0.854026
0.973079 0.933242 0.852045
