assets/luts/warm.cube
# Beauty Camera 3D LUT
# Filter: Warm (warm)
# Category: Warm
TITLE "Warm"
LUT_3D_SIZE 32
DOMAIN_MIN 0.0 0.0 0.0
DOMAIN_MAX 1.0 1.0 1.0
0.026087 0.010569 0.000000
0.064312 0.009957 0.000000
0.101465 0.009363 0.000000
0.138263 0.008774 0.000000
0.174979 0.008186 0.000000
0.211757 0.007598 0.000000
0.248682 0.007007 0.000000
0.285812 0.006413 0.000000
0.323186 0.005815 0.000000
0.360832 0.005213 0.000000
0.398774 0.004606 0.000000
0.437027 0.003994 0.000000
0.475605 0.003376 0.000000
0.514518 0.002754 0.000000
0.553588 0.002129 0.000000
0.592008 0.001514 0.000000
0.629702 0.000911 0.000000
0.666690 0.000319 0.000000
0.702987 0.000000 0.000000
0.738611 0.000000 0.000000
0.773573 0.000000 0.000000
0.807888 0.000000 0.000000
0.841567 0.000000 0.000000
0.874621 0.000000 0.000000
0.907059 0.000000 0.000000
0.938890 0.000000 0.000000
0.970124 0.000000 0.000000
1.000000 0.000000 0.000000
1.000000 0.000000 0.000000
1.000000 0.000000 0.000000
1.000000 0.000000 0.000000
1.000000 0.000000 0.000000
0.024237 0.043640 0.000000
0.062462 0.043028 0.000000
0.099615 0.042434 0.000000
0.136413 0.041845 0.000000
0.173129 0.041257 0.000000
0.209907 0.040669 0.000000
0.246832 0.040078 0.000000
0.283962 0.039484 0.000000
0.321336 0.038886 0.000000
0.358982 0.038284 0.000000
0.396924 0.037677 0.000000
0.435177 0.037065 0.000000
0.473755 0.036447 0.000000
0.512668 0.035825 0.000000
0.551738 0.035200 0.000000
0.590158 0.034585 0.000000
0.627852 0.033982 0.000000
0.664840 0.033390 0.000000
0.701137 0.032809 0.000000
0.736760 0.032239 0.000000
0.771723 0.031680 0.000000
0.806038 0.031131 0.000000
0.839717 0.030592 0.000000
0.872771 0.030063 0.000000
0.905209 0.029544 0.000000
0.937040 0.029035 0.000000
0.968274 0.028535 0.000000
0.998918 0.028045 0.000000
1.000000 0.027564 0.000000
1.000000 0.027092 0.000000
1.000000 0.026629 0.000000
1.000000 0.026176 0.000000
0.022413 0.076241 0.000000
0.060638 0.075629 0.000000
0.097791 0.075035 0.000000
0.134589 0.074446 0.000000
0.171306 0.073859 0.000000
0.208083 0.073270 0.000000
0.245009 0.072679 0.000000
0.282138 0.072085 0.000000
0.319512 0.071487 0.000000
0.357159 0.070885 0.000000
0.395100 0.070278 0.000000
0.433353 0.069666 0.000000
0.471931 0.069049 0.000000
0.510844 0.068426 0.000000
0.549915 0.067801 0.000000
0.588334 0.067186 0.000000
0.626028 0.066583 0.000000
0.663016 0.065991 0.000000
0.699313 0.065411 0.000000
0.734937 0.064841 0.000000
0.769900 0.064281 0.000000
0.804215 0.063732 0.000000
0.837894 0.063193 0.000000
0.870947 0.062664 0.000000
0.903385 0.062145 0.000000
0.935217 0.061636 0.000000
0.966450 0.061136 0.000000
0.997094 0.060646 0.000000
1.000000 0.060165 0.000000
1.000000 0.059693 0.000000
1.000000 0.059231 0.000000
1.000000 0.058777 0.000000
0.020587 0.108871 0.000000
0.058813 0.108260 0.000000
0.095966 0.107665 0.000000
0.132764 0.107077 0.000000
0.169480 0.106489 0.000000
0.206258 0.105901 0.000000
0.243183 0.105310 0.000000
0.280313 0.104716 0.000000
0.317687 0.104118 0.000000
0.355333 0.103515 0.000000
0.393275 0.102908 0.000000
0.431528 0.102296 0.000000
0.470106 0.101679 0.000000
0.509019 0.101056 0.000000
0.548089 0.100431 0.000000
0.586509 0.099817 0.000000
0.624203 0.099214 0.000000
0.661190 0.098622 0.000000
0.697488 0.098041 0.000000
0.733111 0.097471 0.000000
0.768074 0.096912 0.000000
0.802389 0.096363 0.000000
0.836068 0.095824 0.000000
0.869122 0.095295 0.000000
0.901560 0.094776 0.000000
0.933391 0.094266 0.000000
0.964625 0.093767 0.000000
0.995268 0.093276 0.000000
1.000000 0.092795 0.000000
1.000000 0.092324 0.000000
1.000000 0.091861 0.000000
1.000000 0.091407 0.000000
0.018752 0.141689 0.000000
0.056977 0.141077 0.000000
0.094130 0.140483 0.000000
0.130928 0.139894 0.000000
0.167644 0.139307 0.000000
0.204422 0.138718 0.000000
0.241347 0.138127 0.000000
0.278477 0.137533 0.000000
0.315851 0.136935 0.000000
0.353497 0.136333 0.000000
0.391439 0.135726 0.000000
0.429692 0.135114 0.000000
0.468270 0.134497 0.000000
0.507183 0.133874 0.000000
0.546253 0.133249 0.000000
0.584673 0.132634 0.000000
0.622367 0.132031 0.000000
0.659355 0.131439 0.000000
0.695652 0.130859 0.000000
0.731275 0.130289 0.000000
0.766238 0.129729 0.000000
0.800553 0.129180 0.000000
0.834232 0.128641 0.000000
0.867286 0.128112 0.000000
0.899724 0.127593 0.000000
0.931555 0.127084 0.000000
0.962789 0.126584 0.000000
0.993433 0.126094 0.000000
1.000000 0.125613 0.000000
1.000000 0.125141 0.000000
1.000000 0.124679 0.000000
1.000000 0.124225 0.000000
0.016901 0.174771 0.000000
0.055126 0.174160 0.000000
0.092279 0.173565 0.000000
0.129077 0.172977 0.000000
0.165794 0.172389 0.000000
0.202571 0.171801 0.000000
0.239497 0.171210 0.000000
0.276626 0.170616 0.000000
0.314000 0.170018 0.000000
0.351647 0.169415 0.000000
0.389588 0.168808 0.000000
0.427841 0.168196 0.000000
0.466419 0.167579 0.000000
0.505332 0.166956 0.000000
0.544403 0.166331 0.000000
0.582822 0.165717 0.000000
0.620517 0.165113 0.000000
0.657504 0.164522 0.000000
0.693801 0.163941 0.000000
0.729425 0.163371 0.000000
0.764388 0.162812 0.000000
0.798703 0.162262 0.000000
0.832382 0.161724 0.000000
0.865435 0.161195 0.000000
0.897873 0.160676 0.000000
0.929705 0.160166 0.000000
0.960938 0.159667 0.000000
0.991582 0.159176 0.000000
1.000000 0.158695 0.000000
1.000000 0.158224 0.000000
1.000000 0.157761 0.000000
1.000000 0.157307 0.000000
0.015033 0.208164 0.000000
0.053258 0.207552 0.000000
0.090411 0.206958 0.000000
0.127209 0.206369 0.000000
0.163926 0.205782 0.000000
0.200703 0.205193 0.000000
0.237629 0.204602 0.000000
0.274758 0.204008 0.000000
0.312132 0.203410 0.000000
0.349779 0.202808 0.000000
0.387720 0.202201 0.000000
0.425973 0.201589 0.000000
0.464551 0.200972 0.000000
0.503464 0.200349 0.000000
0.542535 0.199724 0.000000
0.580954 0.199109 0.000000
0.618648 0.198506 0.000000
0.655636 0.197914 0.000000
0.691933 0.197334 0.000000
0.727557 0.196764 0.000000
0.762520 0.196204 0.000000
0.796835 0.195655 0.000000
0.830514 0.195116 0.000000
0.863567 0.194587 0.000000
0.896005 0.194068 0.000000
0.927837 0.193559 0.000000
0.959070 0.193059 0.000000
0.989714 0.192569 0.000000
1.000000 0.192088 0.000000
1.000000 0.191616 0.000000
1.000000 0.191154 0.000000
1.000000 0.190700 0.000000
0.013146 0.241896 0.000000
0.051371 0.241285 0.000000
0.088524 0.240690 0.000000
0.125322 0.240101 0.000000
0.162039 0.239514 0.000000
0.198816 0.238925 0.000000
0.235742 0.238335 0.000000
0.272871 0.237741 0.000000
0.310245 0.237143 0.000000
0.347892 0.236540 0.000000
0.385833 0.235933 0.000000
0.424086 0.235321 0.000000
0.462664 0.234704 0.000000
0.501577 0.234081 0.000000
0.540648 0.233456 0.000000
0.579067 0.232841 0.000000
0.616761 0.232238 0.000000
0.653749 0.231646 0.000000
0.690046 0.231066 0.000000
0.725670 0.230496 0.000000
0.760633 0.229936 0.000000
0.794948 0.229387 0.000000
0.828627 0.228848 0.000000
0.861680 0.228320 0.000000
0.894118 0.227801 0.000000
0.925950 0.227291 0.000000
0.957183 0.226791 0.000000
0.987827 0.226301 0.000000
1.000000 0.225820 0.000000
1.000000 0.225348 0.000000
1.000000 0.224886 0.000000
1.000000 0.224432 0.000000
0.011239 0.275988 0.000000
0.049464 0.275377 0.000000
0.086617 0.274782 0.000000
0.123415 0.274193 0.000000
0.160131 0.273606 0.000000
0.196909 0.273017 0.000000
0.233835 0.272427 0.000000
0.270964 0.271833 0.000000
0.308338 0.271235 0.000000
0.345984 0.270632 0.000000
0.383926 0.270025 0.000000
0.422179 0.269413 0.000000
0.460757 0.268796 0.000000
0.499670 0.268173 0.000000
0.538740 0.267548 0.000000
0.577160 0.266933 0.000000
0.614854 0.266330 0.000000
0.651842 0.265738 0.000000
0.688139 0.265158 0.000000
0.723763 0.264588 0.000000
0.758725 0.264028 0.000000
0.793041 0.263479 0.000000
0.826720 0.262940 0.000000
0.859773 0.262412 0.000000
0.892211 0.261893 0.000000
0.924043 0.261383 0.000000
0.955276 0.260883 0.000000
0.985920 0.260393 0.000000
1.000000 0.259912 0.000000
1.000000 0.259440 0.000000
1.000000 0.258978 0.000000
1.000000 0.258524 0.000000
0.009311 0.310455 0.000000
0.047536 0.309843 0.000000
0.084689 0.309249 0.000000
0.121487 0.308660 0.000000
0.158203 0.308072 0.000000
0.194981 0.307484 0.000000
0.231906 0.306893 0.000000
0.269036 0.306299 0.000000
0.306410 0.305701 0.000000
0.344056 0.305099 0.000000
0.381998 0.304492 0.000000
0.420251 0.303880 0.000000
0.458829 0.303262 0.000000
0.497742 0.302640 0.000000
0.536812 0.302015 0.000000
0.575232 0.301400 0.000000
0.612926 0.300797 0.000000
0.649914 0.300205 0.000000
0.686211 0.299624 0.000000
0.721834 0.299054 0.000000
0.756797 0.298495 0.000000
0.791112 0.297946 0.000000
0.824791 0.297407 0.000000
0.857845 0.296878 0.000000
0.890283 0.296359 0.000000
0.922114 0.295850 0.000000
0.953348 0.295350 0.000000
0.983992 0.294860 0.000000
1.000000 0.294379 0.000000
1.000000 0.293907 0.000000
1.000000 0.293444 0.000000
1.000000 0.292991 0.000000
0.007361 0.345306 0.000000
0.045586 0.344695 0.000000
0.082739 0.344100 0.000000
0.119537 0.343512 0.000000
0.156254 0.342924 0.000000
0.193031 0.342336 0.000000
0.229957 0.341745 0.000000
0.267086 0.341151 0.000000
0.304460 0.340553 0.000000
0.342107 0.339951 0.000000
0.380048 0.339343 0.000000
0.418301 0.338731 0.000000
0.456879 0.338114 0.000000
0.495792 0.337492 0.000000
0.534863 0.336866 0.000000
0.573282 0.336252 0.000000
0.610977 0.335649 0.000000
0.647964 0.335057 0.000000
0.684262 0.334476 0.000000
0.719885 0.333906 0.000000
0.754848 0.333347 0.000000
0.789163 0.332798 0.000000
0.822842 0.332259 0.000000
0.855895 0.331730 0.000000
0.888333 0.331211 0.000000
0.920165 0.330702 0.000000
0.951398 0.330202 0.000000
0.982042 0.329711 0.000000
1.000000 0.329231 0.000000
1.000000 0.328759 0.000000
1.000000 0.328296 0.000000
1.000000 0.327842 0.000000
0.005389 0.380552 0.000000
0.043614 0.379940 0.000000
0.080768 0.379346 0.000000
0.117565 0.378757 0.000000
0.154282 0.378170 0.000000
0.191060 0.377581 0.000000
0.227985 0.376991 0.000000
0.265115 0.376396 0.000000
0.302488 0.375798 0.000000
0.340135 0.375196 0.000000
0.378076 0.374589 0.000000
0.416330 0.373977 0.000000
0.454907 0.373360 0.000000
0.493821 0.372737 0.000000
0.532891 0.372112 0.000000
0.571311 0.371497 0.000000
0.609005 0.370894 0.000000
0.645992 0.370302 0.000000
0.682290 0.369722 0.000000
0.717913 0.369152 0.000000
0.752876 0.368592 0.000000
0.787191 0.368043 0.000000
0.820870 0.367504 0.000000
0.853924 0.366975 0.000000
0.886362 0.366456 0.000000
0.918193 0.365947 0.000000
0.949427 0.365447 0.000000
0.980070 0.364957 0.000000
1.000000 0.364476 0.000000
1.000000 0.364004 0.000000
1.000000 0.363542 0.000000
1.000000 0.363088 0.000000
0.003395 0.416198 0.000000
0.041620 0.415586 0.000000
0.078774 0.414992 0.000000
0.115571 0.414403 0.000000
0.152288 0.413816 0.000000
0.189066 0.413227 0.000000
0.225991 0.412636 0.000000
0.263121 0.412042 0.000000
0.300494 0.411444 0.000000
0.338141 0.410842 0.000000
0.376082 0.410235 0.000000
0.414335 0.409623 0.000000
0.452913 0.409006 0.000000
0.491827 0.408383 0.000000
0.530897 0.407758 0.000000
0.569317 0.407143 0.000000
0.607011 0.406540 0.000000
0.643998 0.405948 0.000000
0.680296 0.405367 0.000000
0.715919 0.404797 0.000000
0.750882 0.404238 0.000000
0.785197 0.403689 0.000000
0.818876 0.403150 0.000000
0.851930 0.402621 0.000000
0.884367 0.402102 0.000000
0.916199 0.401593 0.000000
0.947433 0.401093 0.000000
0.978076 0.400603 0.000000
1.000000 0.400122 0.000000
1.000000 0.399650 0.000000
1.000000 0.399187 0.000000
1.000000 0.398734 0.000000
0.001378 0.452249 0.000000
0.039604 0.451637 0.000000
0.076757 0.451043 0.000000
0.113555 0.450454 0.000000
0.150271 0.449867 0.000000
0.187049 0.449278 0.000000
0.223974 0.448688 0.000000
0.261104 0.448093 0.000000
0.298477 0.447495 0.000000
0.336124 0.446893 0.000000
0.374066 0.446286 0.000000
0.412319 0.445674 0.000000
0.450897 0.445057 0.000000
0.489810 0.444434 0.000000
0.528880 0.443809 0.000000
0.567300 0.443194 0.000000
0.604994 0.442591 0.000000
0.641981 0.441999 0.000000
0.678279 0.441419 0.000000
0.713902 0.440849 0.000000
0.748865 0.440289 0.000000
0.783180 0.439740 0.000000
0.816859 0.439201 0.000000
0.849913 0.438672 0.000000
0.882351 0.438153 0.000000
0.914182 0.437644 0.000000
0.945416 0.437144 0.000000
0.976059 0.436654 0.000000
1.000000 0.436173 0.000000
1.000000 0.435701 0.000000
1.000000 0.435239 0.000000
1.000000 0.434785 0.000000
0.000000 0.488710 0.000000
0.037564 0.488098 0.000000
0.074717 0.487504 0.000000
0.111515 0.486915 0.000000
0.148231 0.486328 0.000000
0.185009 0.485739 0.000000
0.221935 0.485148 0.000000
0.259064 0.484554 0.000000
0.296438 0.483956 0.000000
0.334084 0.483354 0.000000
0.372026 0.482747 0.000000
0.410279 0.482135 0.000000
0.448857 0.481518 0.000000
0.487770 0.480895 0.000000
0.526840 0.480270 0.000000
0.565260 0.479655 0.000000
0.602954 0.479052 0.000000
0.639942 0.478460 0.000000
0.676239 0.477879 0.000000
0.711863 0.477309 0.000000
0.746825 0.476750 0.000000
0.781141 0.476201 0.000000
0.814820 0.475662 0.000000
0.847873 0.475133 0.000000
0.880311 0.474614 0.000000
0.912143 0.474105 0.000000
0.943376 0.473605 0.000000
0.974020 0.473115 0.000000
1.000000 0.472634 0.000000
1.000000 0.472162 0.000000
1.000000 0.471699 0.000000
1.000000 0.471246 0.000000
0.000000 0.525504 0.000000
0.035506 0.524892 0.000000
0.072659 0.524298 0.000000
0.109457 0.523709 0.000000
0.146173 0.523122 0.000000
0.182951 0.522533 0.000000
0.219876 0.521943 0.000000
0.257006 0.521348 0.000000
0.294379 0.520750 0.000000
0.332026 0.520148 0.000000
0.369968 0.519541 0.000000
0.408221 0.518929 0.000000
0.446799 0.518312 0.000000
0.485712 0.517689 0.000000
0.524782 0.517064 0.000000
0.563202 0.516449 0.000000
0.600896 0.515846 0.000000
0.637883 0.515254 0.000000
0.674181 0.514674 0.000000
0.709804 0.514104 0.000000
0.744767 0.513544 0.000000
0.779082 0.512995 0.000000
0.812761 0.512456 0.000000
0.845815 0.511927 0.000000
0.878253 0.511408 0.000000
0.910084 0.510899 0.000000
0.941318 0.510399 0.000000
0.971961 0.509909 0.000000
1.000000 0.509428 0.000000
1.000000 0.508956 0.000000
1.000000 0.508494 0.000000
1.000000 0.508040 0.000000
0.000000 0.561884 0.000000
0.033470 0.561272 0.000000
0.070624 0.560678 0.000000
0.107422 0.560089 0.000000
0.144138 0.559502 0.000000
0.180916 0.558913 0.000000
0.217841 0.558322 0.000000
0.254971 0.557728 0.000000
0.292344 0.557130 0.000000
0.329991 0.556528 0.000000
0.367932 0.555921 0.000000
0.406186 0.555309 0.000000
0.444763 0.554692 0.000000
0.483677 0.554069 0.000000
0.522747 0.553444 0.000000
0.561167 0.552829 0.000000
0.598861 0.552226 0.000000
0.635848 0.551634 0.000000
0.672146 0.551054 0.000000
0.707769 0.550484 0.000000
0.742732 0.549924 0.000000
0.777047 0.549375 0.000000
0.810726 0.548836 0.000000
0.843780 0.548307 0.000000
0.876218 0.547788 0.000000
0.908049 0.547279 0.000000
0.939283 0.546779 0.000000
0.969926 0.546289 0.000000
0.999987 0.545808 0.000000
1.000000 0.545336 0.000000
1.000000 0.544874 0.000000
1.000000 0.544420 0.000000
0.000000 0.597672 0.000000
0.031468 0.597061 0.000000
0.068622 0.596466 0.000000
0.105419 0.595878 0.000000
0.142136 0.595290 0.000000
0.178914 0.594702 0.000000
0.215839 0.594111 0.000000
0.252969 0.593517 0.000000
0.290342 0.592919 0.000000
0.327989 0.592317 0.000000
0.365930 0.591709 0.000000
0.404183 0.591097 0.000000
0.442761 0.590480 0.000000
0.481675 0.589858 0.000000
0.520745 0.589232 0.000000
0.559165 0.588618 0.000000
0.596859 0.588015 0.000000
0.633846 0.587423 0.000000
0.670144 0.586842 0.000000
0.705767 0.586272 0.000000
0.740730 0.585713 0.000000
0.775045 0.585164 0.000000
0.808724 0.584625 0.000000
0.841778 0.584096 0.000000
0.874216 0.583577 0.000000
0.906047 0.583068 0.000000
0.937281 0.582568 0.000000
0.967924 0.582077 0.000000
0.997985 0.581596 0.000000
1.000000 0.581125 0.000000
1.000000 0.580662 0.000000
1.000000 0.580208 0.000000
0.000000 0.632878 0.000000
0.029499 0.632266 0.000000
0.066652 0.631672 0.000000
0.103450 0.631083 0.000000
0.140166 0.630496 0.000000
0.176944 0.629907 0.000000
0.213870 0.629316 0.000000
0.250999 0.628722 0.000000
0.288373 0.628124 0.000000
0.326020 0.627522 0.000000
0.363961 0.626915 0.000000
0.402214 0.626303 0.000000
0.440792 0.625686 0.000000
0.479705 0.625063 0.000000
0.518775 0.624438 0.000000
0.557195 0.623823 0.000000
0.594889 0.623220 0.000000
0.631877 0.622628 0.000000
0.668174 0.622047 0.000000
0.703798 0.621477 0.000000
0.738761 0.620918 0.000000
0.773076 0.620369 0.000000
0.806755 0.619830 0.000000
0.839808 0.619301 0.000000
0.872246 0.618782 0.000000
0.904078 0.618273 0.000000
0.935311 0.617773 0.000000
0.965955 0.617283 0.000000
0.996016 0.616802 0.000000
1.000000 0.616330 0.000000
1.000000 0.615867 0.000000
1.000000 0.615414 0.000000
0.000000 0.667508 0.000000
0.027562 0.666896 0.000000
0.064715 0.666302 0.000000
0.101513 0.665713 0.000000
0.138229 0.665126 0.000000
0.175007 0.664537 0.000000
0.211932 0.663946 0.000000
0.249062 0.663352 0.000000
0.286436 0.662754 0.000000
0.324082 0.662152 0.000000
0.362024 0.661545 0.000000
0.400277 0.660933 0.000000
0.438855 0.660316 0.000000
0.477768 0.659693 0.000000
0.516838 0.659068 0.000000
0.555258 0.658453 0.000000
0.592952 0.657850 0.000000
0.629939 0.657258 0.000000
0.666237 0.656678 0.000000
0.701860 0.656108 0.000000
0.736823 0.655548 0.000000
0.771138 0.654999 0.000000
0.804817 0.654460 0.000000
0.837871 0.653931 0.000000
0.870309 0.653412 0.000000
0.902140 0.652903 0.000000
0.933374 0.652403 0.000000
0.964018 0.651913 0.000000
0.994079 0.651432 0.000000
1.000000 0.650960 0.000000
1.000000 0.650498 0.000000
1.000000 0.650044 0.000000
0.000000 0.701570 0.000000
0.025656 0.700958 0.000000
0.062809 0.700364 0.000000
0.099607 0.699775 0.000000
0.136324 0.699188 0.000000
0.173102 0.698599 0.000000
0.210027 0.698008 0.000000
0.247156 0.697414 0.000000
0.284530 0.696816 0.000000
0.322177 0.696214 0.000000
0.360118 0.695607 0.000000
0.398371 0.694995 0.000000
0.436949 0.694377 0.000000
0.475863 0.693755 0.000000
0.514933 0.693130 0.000000
0.553353 0.692515 0.000000
0.591047 0.691912 0.000000
0.628034 0.691320 0.000000
0.664332 0.690739 0.000000
0.699955 0.690169 0.000000
0.734918 0.689610 0.000000
0.769233 0.689061 0.000000
0.802912 0.688522 0.000000
0.835965 0.687993 0.000000
0.868403 0.687474 0.000000
0.900235 0.686965 0.000000
0.931468 0.686465 0.000000
0.962112 0.685975 0.000000
0.992173 0.685494 0.000000
1.000000 0.685022 0.000000
1.000000 0.684559 0.000000
1.000000 0.684106 0.000000
0.000000 0.735070 0.000000
0.023782 0.734458 0.000000
0.060935 0.733864 0.000000
0.097733 0.733275 0.000000
0.134450 0.732687 0.000000
0.171228 0.732099 0.000000
0.208153 0.731508 0.000000
0.245282 0.730914 0.000000
0.282656 0.730316 0.000000
0.320303 0.729714 0.000000
0.358244 0.729107 0.000000
0.396497 0.728495 0.000000
0.435075 0.727877 0.000000
0.473989 0.727255 0.000000
0.513059 0.726630 0.000000
0.551479 0.726015 0.000000
0.589173 0.725412 0.000000
0.626160 0.724820 0.000000
0.662458 0.724239 0.000000
0.698081 0.723669 0.000000
0.733044 0.723110 0.000000
0.767359 0.722561 0.000000
0.801038 0.722022 0.000000
0.834091 0.721493 0.000000
0.866529 0.720974 0.000000
0.898361 0.720465 0.000000
0.929594 0.719965 0.000000
0.960238 0.719475 0.000000
0.990299 0.718994 0.000000
1.000000 0.718522 0.000000
1.000000 0.718059 0.000000
1.000000 0.717606 0.000000
0.000000 0.768013 0.000000
0.021939 0.767402 0.000000
0.059092 0.766807 0.000000
0.095890 0.766219 0.000000
0.132607 0.765631 0.000000
0.169385 0.765043 0.000000
0.206310 0.764452 0.000000
0.243440 0.763858 0.000000
0.280813 0.763260 0.000000
0.318460 0.762658 0.000000
0.356401 0.762050 0.000000
0.394654 0.761438 0.000000
0.433232 0.760821 0.000000
0.472146 0.760199 0.000000
0.511216 0.759573 0.000000
0.549636 0.758959 0.000000
0.587330 0.758356 0.000000
0.624317 0.757764 0.000000
0.660615 0.757183 0.000000
0.696238 0.756613 0.000000
0.731201 0.756054 0.000000
0.765516 0.755505 0.000000
0.799195 0.754966 0.000000
0.832248 0.754437 0.000000
0.864686 0.753918 0.000000
0.896518 0.753409 0.000000
0.927752 0.752909 0.000000
0.958395 0.752418 0.000000
0.988456 0.751937 0.000000
1.000000 0.751466 0.000000
1.000000 0.751003 0.000000
1.000000 0.750549 0.000000
0.000000 0.800407 0.000000
0.020127 0.799795 0.000000
0.057280 0.799201 0.000000
0.094078 0.798612 0.000000
0.130795 0.798024 0.000000
0.167572 0.797436 0.000000
0.204498 0.796845 0.000000
0.241627 0.796251 0.000000
0.279001 0.795653 0.000000
0.316648 0.795051 0.000000
0.354589 0.794444 0.000000
0.392842 0.793831 0.000000
0.431420 0.793214 0.000000
0.470334 0.792592 0.000000
0.509404 0.791967 0.000000
0.547824 0.791352 0.000000
0.585518 0.790749 0.000000
0.622505 0.790157 0.000000
0.658803 0.789576 0.000000
0.694426 0.789006 0.000000
0.729389 0.788447 0.000000
0.763704 0.787898 0.000000
0.797383 0.787359 0.000000
0.830436 0.786830 0.000000
0.862874 0.786311 0.000000
0.894706 0.785802 0.000000
0.925939 0.785302 0.000000
0.956583 0.784812 0.000000
0.986644 0.784331 0.000000
1.000000 0.783859 0.000000
1.000000 0.783396 0.000000
1.000000 0.782942 0.000000
0.000000 0.832254 0.000000
0.018346 0.831642 0.000000
0.055499 0.831048 0.000000
0.092297 0.830459 0.000000
0.129013 0.829872 0.000000
0.165791 0.829283 0.000000
0.202716 0.828692 0.000000
0.239846 0.828098 0.000000
0.277219 0.827500 0.000000
0.314866 0.826898 0.000000
0.352808 0.826291 0.000000
0.391061 0.825679 0.000000
0.429639 0.825062 0.000000
0.468552 0.824439 0.000000
0.507622 0.823814 0.000000
0.546042 0.823199 0.000000
0.583736 0.822596 0.000000
0.620723 0.822004 0.000000
0.657021 0.821424 0.000000
0.692644 0.820854 0.000000
0.727607 0.820294 0.000000
0.761922 0.819745 0.000000
0.795601 0.819206 0.000000
0.828655 0.818677 0.000000
0.861093 0.818158 0.000000
0.892924 0.817649 0.000000
0.924158 0.817149 0.000000
0.954801 0.816659 0.000000
0.984862 0.816178 0.000000
1.000000 0.815706 0.000000
1.000000 0.815244 0.000000
1.000000 0.814790 0.000000
0.000000 0.863560 0.000000
0.016594 0.862949 0.000000
0.053747 0.862354 0.000000
0.090545 0.861766 0.000000
0.127262 0.861178 0.000000
0.164040 0.860590 0.000000
0.200965 0.859999 0.000000
0.238094 0.859405 0.000000
0.275468 0.858807 0.000000
0.313115 0.858204 0.000000
0.351056 0.857597 0.000000
0.389309 0.856985 0.000000
0.427887 0.856368 0.000000
0.466801 0.855745 0.000000
0.505871 0.855120 0.000000
0.544291 0.854506 0.000000
0.581985 0.853902 0.000000
0.618972 0.853311 0.000000
0.655270 0.852730 0.000000
0.690893 0.852160 0.000000
0.725856 0.851600 0.000000
0.760171 0.851051 0.000000
0.793850 0.850513 0.000000
0.826903 0.849984 0.000000
0.859341 0.849465 0.000000
0.891173 0.848955 0.000000
0.922406 0.848456 0.000000
0.953050 0.847965 0.000000
0.983111 0.847484 0.000000
1.000000 0.847013 0.000000
1.000000 0.846550 0.000000
1.000000 0.846096 0.000000
0.000000 0.894330 0.000000
0.014873 0.893718 0.000000
0.052026 0.893124 0.000000
0.088824 0.892535 0.000000
0.125540 0.891948 0.000000
0.162318 0.891359 0.000000
0.199244 0.890768 0.000000
0.236373 0.890174 0.000000
0.273747 0.889576 0.000000
0.311393 0.888974 0.000000
0.349335 0.888367 0.000000
0.387588 0.887755 0.000000
0.426166 0.887138 0.000000
0.465079 0.886515 0.000000
0.504149 0.885890 0.000000
0.542569 0.885275 0.000000
0.580263 0.884672 0.000000
0.617251 0.884080 0.000000
0.653548 0.883499 0.000000
0.689172 0.882930 0.000000
0.724134 0.882370 0.000000
0.758450 0.881821 0.000000
0.792129 0.881282 0.000000
0.825182 0.880753 0.000000
0.857620 0.880234 0.000000
0.889452 0.879725 0.000000
0.920685 0.879225 0.000000
0.951329 0.878735 0.000000
0.981390 0.878254 0.000000
1.000000 0.877782 0.000000
1.000000 0.877320 0.000000
1.000000 0.876866 0.000000
0.000000 0.924567 0.000000
0.013181 0.923955 0.000000
0.050335 0.923361 0.000000
0.087133 0.922772 0.000000
0.123849 0.922185 0.000000
0.160627 0.921596 0.000000
0.197552 0.921005 0.000000
0.234682 0.920411 0.000000
0.272055 0.919813 0.000000
0.309702 0.919211 0.000000
0.347643 0.918604 0.000000
0.385897 0.917992 0.000000
0.424474 0.917375 0.000000
0.463388 0.916752 0.000000
0.502458 0.916127 0.000000
0.540878 0.915512 0.000000
0.578572 0.914909 0.000000
0.615559 0.914317 0.000000
0.651857 0.913736 0.000000
